(G-CODE GENERATED BY FLATCAM v8.994 - www.flatcam.org - Version Date: 2020/11/7)

(Name: pressure-dash-F_Cu.gbr_iso_combined_1_cnc)
(Type: G-code from Geometry)
(Units: MM)

(Created on Monday, 27 June 2022 at 19:19)

(This preprocessor is the default preprocessor used by FlatCAM.)
(It is made to work with MACH3 compatible motion controllers.)

(TOOL DIAMETER: 0.2136 mm)
(Feedrate_XY: 300.0 mm/min)
(Feedrate_Z: 200.0 mm/min)
(Feedrate rapids 1500.0 mm/min)

(Z_Cut: -0.1 mm)
(Z_Move: 2.0 mm)
(Z Start: None mm)
(Z End: 15.0 mm)
(X,Y End: None mm)
(Steps per circle: 64)
(Preprocessor Geometry: default)

(X range:    0.3835 ...   42.1245  mm)
(Y range:    0.6515 ...   32.3925  mm)

(Spindle Speed: 10000.0 RPM)
G21
G90
G94

G01 F300.00

M5
G00 Z15.0000
G00 X0.0000 Y0.0000
T2
M6    
(MSG, Change to Tool Dia = 0.2136)
M0
G00 Z15.0000

M03 S10000.0
G01 F300.00
G00 X3.9672 Y2.4116
G01 F200.00
G01 Z-0.1000
G01 F300.00
G01 X4.0007 Y2.3937
G01 X4.0371 Y2.3827
G01 X4.0867 Y2.3778
G01 X4.2431 Y2.3789
G01 X4.2431 Y2.4733
G01 X4.2151 Y2.4803
G01 X4.2076 Y2.4827
G01 X4.1807 Y2.4924
G01 X4.1549 Y2.5045
G01 X4.1456 Y2.5094
G01 X4.1212 Y2.5242
G01 X4.0982 Y2.5411
G01 X4.0921 Y2.5460
G01 X4.0709 Y2.5652
G01 X4.0654 Y2.5708
G01 X4.0464 Y2.5921
G01 X4.0277 Y2.6171
G01 X4.0234 Y2.6236
G01 X4.0076 Y2.6505
G01 X3.9954 Y2.6763
G01 X3.9898 Y2.6911
G01 X3.8807 Y2.6911
G01 X3.8798 Y2.5846
G01 X3.8847 Y2.5351
G01 X3.8957 Y2.4987
G01 X3.9136 Y2.4652
G01 X3.9378 Y2.4358
G01 X3.9672 Y2.4116
G00 Z2.0000
G00 X3.9965 Y3.4220
G01 F200.00
G01 Z-0.1000
G01 F300.00
G01 X4.0089 Y3.4478
G01 X4.0234 Y3.4724
G01 X4.0277 Y3.4789
G01 X4.0431 Y3.4998
G01 X4.0498 Y3.5079
G01 X4.0690 Y3.5290
G01 X4.0941 Y3.5516
G01 X4.1212 Y3.5718
G01 X4.1456 Y3.5866
G01 X4.1549 Y3.5915
G01 X4.1807 Y3.6036
G01 X4.2076 Y3.6133
G01 X4.2151 Y3.6157
G01 X4.2431 Y3.6227
G01 X4.2431 Y3.7171
G01 X4.0867 Y3.7182
G01 X4.0371 Y3.7133
G01 X4.0007 Y3.7023
G01 X3.9672 Y3.6844
G01 X3.9378 Y3.6602
G01 X3.9136 Y3.6308
G01 X3.8957 Y3.5973
G01 X3.8847 Y3.5609
G01 X3.8798 Y3.5114
G01 X3.8807 Y3.4049
G01 X3.9898 Y3.4049
G01 X3.9934 Y3.4148
G01 X3.9965 Y3.4220
G00 Z2.0000
G00 X5.5050 Y2.7948
G01 F200.00
G01 Z-0.1000
G01 F300.00
G01 X5.5046 Y2.8105
G01 X5.5046 Y3.2855
G01 X5.5050 Y3.3012
G01 X5.5071 Y3.3383
G01 X5.4736 Y3.3370
G01 X5.4429 Y3.3382
G01 X5.4450 Y3.3012
G01 X5.4454 Y3.2855
G01 X5.4454 Y2.8105
G01 X5.4450 Y2.7948
G01 X5.4429 Y2.7578
G01 X5.4736 Y2.7590
G01 X5.5071 Y2.7577
G01 X5.5050 Y2.7948
G00 Z2.0000
G00 X5.6600 Y2.6072
G01 F200.00
G01 Z-0.1000
G01 F300.00
G01 X5.6478 Y2.6331
G01 X5.6438 Y2.6427
G01 X5.6341 Y2.6696
G01 X5.6294 Y2.6846
G01 X5.6201 Y2.7225
G01 X5.6149 Y2.7559
G01 X5.6131 Y2.7715
G01 X5.6114 Y2.8105
G01 X5.6114 Y3.2855
G01 X5.6131 Y3.3245
G01 X5.6149 Y3.3401
G01 X5.6201 Y3.3735
G01 X5.6280 Y3.4063
G01 X5.6324 Y3.4214
G01 X5.6438 Y3.4533
G01 X5.6500 Y3.4677
G01 X5.6647 Y3.4983
G01 X5.6451 Y3.4868
G01 X5.6176 Y3.4736
G01 X5.6079 Y3.4696
G01 X5.5892 Y3.4628
G01 X5.5742 Y3.4580
G01 X5.5446 Y3.4508
G01 X5.5197 Y3.4469
G01 X5.5041 Y3.4451
G01 X5.4736 Y3.4438
G01 X5.4432 Y3.4451
G01 X5.4276 Y3.4469
G01 X5.4027 Y3.4508
G01 X5.3731 Y3.4580
G01 X5.3631 Y3.4611
G01 X5.3443 Y3.4677
G01 X5.3297 Y3.4736
G01 X5.3069 Y3.4844
G01 X5.2976 Y3.4893
G01 X5.2865 Y3.4959
G01 X5.3043 Y3.4581
G01 X5.3159 Y3.4264
G01 X5.3192 Y3.4165
G01 X5.3276 Y3.3837
G01 X5.3299 Y3.3735
G01 X5.3351 Y3.3401
G01 X5.3369 Y3.3245
G01 X5.3386 Y3.2855
G01 X5.3386 Y2.8105
G01 X5.3372 Y2.7767
G01 X5.3359 Y2.7611
G01 X5.3309 Y2.7277
G01 X5.3276 Y2.7123
G01 X5.3192 Y2.6795
G01 X5.3080 Y2.6477
G01 X5.3022 Y2.6331
G01 X5.2865 Y2.6001
G01 X5.2976 Y2.6067
G01 X5.3069 Y2.6116
G01 X5.3297 Y2.6224
G01 X5.3443 Y2.6283
G01 X5.3631 Y2.6349
G01 X5.3731 Y2.6380
G01 X5.4027 Y2.6452
G01 X5.4276 Y2.6491
G01 X5.4432 Y2.6509
G01 X5.4684 Y2.6521
G01 X5.4841 Y2.6519
G01 X5.5093 Y2.6504
G01 X5.5343 Y2.6470
G01 X5.5497 Y2.6441
G01 X5.5792 Y2.6365
G01 X5.6030 Y2.6282
G01 X5.6128 Y2.6245
G01 X5.6404 Y2.6116
G01 X5.6497 Y2.6067
G01 X5.6647 Y2.5977
G01 X5.6600 Y2.6072
G00 Z2.0000
G00 X7.0171 Y2.5671
G01 F200.00
G01 Z-0.1000
G01 F300.00
G01 X7.0296 Y2.5734
G01 X7.0532 Y2.5843
G01 X7.0275 Y2.5843
G01 X7.0171 Y2.5671
G00 Z2.0000
G00 X7.0532 Y3.5117
G01 F200.00
G01 Z-0.1000
G01 F300.00
G01 X7.0296 Y3.5226
G01 X7.0171 Y3.5289
G01 X7.0275 Y3.5117
G01 X7.0532 Y3.5117
G00 Z2.0000
G00 X6.7021 Y3.6237
G01 F200.00
G01 Z-0.1000
G01 F300.00
G01 X6.6712 Y3.6281
G01 X6.6375 Y3.6298
G01 X6.0625 Y3.6298
G01 X6.0340 Y3.6285
G01 X6.0262 Y3.6279
G01 X5.9953 Y3.6232
G01 X5.9626 Y3.6150
G01 X5.9307 Y3.6036
G01 X5.9002 Y3.5891
G01 X5.8712 Y3.5718
G01 X5.8441 Y3.5516
G01 X5.8190 Y3.5290
G01 X5.7998 Y3.5079
G01 X5.7947 Y3.5019
G01 X5.7762 Y3.4768
G01 X5.7614 Y3.4524
G01 X5.7565 Y3.4431
G01 X5.7444 Y3.4173
G01 X5.7330 Y3.3854
G01 X5.7260 Y3.3578
G01 X5.7239 Y3.3475
G01 X5.7199 Y3.3192
G01 X5.7182 Y3.2855
G01 X5.7182 Y2.8105
G01 X5.7195 Y2.7820
G01 X5.7205 Y2.7716
G01 X5.7248 Y2.7433
G01 X5.7330 Y2.7106
G01 X5.7444 Y2.6787
G01 X5.7589 Y2.6482
G01 X5.7762 Y2.6192
G01 X5.7964 Y2.5921
G01 X5.8190 Y2.5670
G01 X5.8401 Y2.5478
G01 X5.8461 Y2.5427
G01 X5.8712 Y2.5242
G01 X5.8956 Y2.5094
G01 X5.9049 Y2.5045
G01 X5.9307 Y2.4924
G01 X5.9626 Y2.4810
G01 X5.9902 Y2.4740
G01 X6.0005 Y2.4719
G01 X6.0288 Y2.4679
G01 X6.0625 Y2.4662
G01 X6.6375 Y2.4662
G01 X6.6660 Y2.4675
G01 X6.6738 Y2.4681
G01 X6.6995 Y2.4719
G01 X6.7098 Y2.4740
G01 X6.7374 Y2.4810
G01 X6.7668 Y2.4914
G01 X6.7951 Y2.5045
G01 X6.8044 Y2.5094
G01 X6.8288 Y2.5242
G01 X6.8518 Y2.5411
G01 X6.8579 Y2.5460
G01 X6.8772 Y2.5634
G01 X6.8846 Y2.5708
G01 X6.9036 Y2.5921
G01 X6.9223 Y2.6171
G01 X6.9266 Y2.6236
G01 X6.9424 Y2.6505
G01 X6.9546 Y2.6763
G01 X6.9601 Y2.6911
G01 X8.6247 Y2.6911
G01 X8.6436 Y2.6518
G01 X8.6842 Y2.5842
G01 X8.6886 Y2.5777
G01 X8.7325 Y2.5186
G01 X8.7374 Y2.5124
G01 X8.7922 Y2.4522
G01 X8.8505 Y2.3991
G01 X8.8586 Y2.3925
G01 X8.9177 Y2.3486
G01 X8.9242 Y2.3442
G01 X8.9941 Y2.3024
G01 X9.0653 Y2.2685
G01 X9.0750 Y2.2645
G01 X9.1493 Y2.2381
G01 X9.2308 Y2.2177
G01 X9.3088 Y2.2060
G01 X9.3192 Y2.2049
G01 X9.3928 Y2.2013
G01 X9.4006 Y2.2012
G01 X9.4820 Y2.2053
G01 X9.5600 Y2.2168
G01 X9.5703 Y2.2188
G01 X9.6467 Y2.2381
G01 X9.7210 Y2.2645
G01 X9.7307 Y2.2685
G01 X9.8019 Y2.3024
G01 X9.8718 Y2.3442
G01 X9.8783 Y2.3486
G01 X9.9374 Y2.3925
G01 X9.9455 Y2.3991
G01 X10.0038 Y2.4522
G01 X10.0586 Y2.5124
G01 X10.0635 Y2.5186
G01 X10.1074 Y2.5777
G01 X10.1118 Y2.5842
G01 X10.1536 Y2.6541
G01 X10.1760 Y2.7011
G01 X11.6566 Y2.7011
G01 X11.6890 Y2.7028
G01 X11.7236 Y2.7079
G01 X11.7576 Y2.7164
G01 X11.7882 Y2.7273
G01 X11.7954 Y2.7304
G01 X11.8223 Y2.7432
G01 X11.8523 Y2.7612
G01 X11.8804 Y2.7821
G01 X11.9064 Y2.8056
G01 X14.9254 Y5.8246
G01 X14.9472 Y5.8486
G01 X14.9668 Y5.8744
G01 X14.9726 Y5.8831
G01 X14.9878 Y5.9087
G01 X15.0028 Y5.9404
G01 X15.0129 Y5.9684
G01 X15.0160 Y5.9784
G01 X15.0231 Y6.0074
G01 X15.0279 Y6.0394
G01 X15.0286 Y6.0472
G01 X15.0299 Y6.0770
G01 X15.0299 Y6.4702
G01 X15.4730 Y6.4702
G01 X15.4809 Y6.4705
G01 X15.4913 Y6.4718
G01 X15.5015 Y6.4741
G01 X15.5114 Y6.4774
G01 X15.5210 Y6.4816
G01 X15.5301 Y6.4868
G01 X15.5387 Y6.4928
G01 X15.5466 Y6.4997
G01 X15.5539 Y6.5072
G01 X15.5603 Y6.5155
G01 X15.5646 Y6.5221
G01 X15.5695 Y6.5313
G01 X15.5726 Y6.5386
G01 X15.5752 Y6.5460
G01 X15.5777 Y6.5562
G01 X15.5793 Y6.5665
G01 X15.5798 Y6.5744
G01 X15.5798 Y7.1270
G01 X15.5793 Y7.1375
G01 X15.5777 Y7.1478
G01 X15.5759 Y7.1555
G01 X15.5726 Y7.1654
G01 X15.5695 Y7.1727
G01 X15.5659 Y7.1796
G01 X15.5618 Y7.1863
G01 X15.5572 Y7.1927
G01 X15.5521 Y7.1987
G01 X15.5466 Y7.2043
G01 X15.5408 Y7.2096
G01 X15.5345 Y7.2143
G01 X15.5279 Y7.2186
G01 X15.5210 Y7.2224
G01 X15.5139 Y7.2257
G01 X15.5065 Y7.2284
G01 X15.4990 Y7.2306
G01 X15.4913 Y7.2322
G01 X15.4835 Y7.2333
G01 X15.4756 Y7.2338
G01 X13.8704 Y7.2338
G01 X13.8625 Y7.2333
G01 X13.8522 Y7.2317
G01 X13.8420 Y7.2292
G01 X13.8346 Y7.2266
G01 X13.8250 Y7.2224
G01 X13.8159 Y7.2172
G01 X13.8073 Y7.2112
G01 X13.8013 Y7.2061
G01 X13.7939 Y7.1987
G01 X13.7872 Y7.1906
G01 X13.7814 Y7.1819
G01 X13.7765 Y7.1727
G01 X13.7716 Y7.1605
G01 X13.7688 Y7.1504
G01 X13.7670 Y7.1401
G01 X13.7662 Y7.1296
G01 X13.7662 Y6.5744
G01 X13.7674 Y6.5613
G01 X13.7701 Y6.5485
G01 X13.7743 Y6.5361
G01 X13.7788 Y6.5267
G01 X13.7857 Y6.5155
G01 X13.7939 Y6.5053
G01 X13.8032 Y6.4961
G01 X13.8137 Y6.4882
G01 X13.8250 Y6.4816
G01 X13.8370 Y6.4764
G01 X13.8496 Y6.4728
G01 X13.8625 Y6.4707
G01 X13.8730 Y6.4702
G01 X14.3161 Y6.4702
G01 X14.3161 Y6.2248
G01 X11.5062 Y3.4149
G01 X10.1760 Y3.4149
G01 X10.1536 Y3.4619
G01 X10.1118 Y3.5318
G01 X10.1074 Y3.5383
G01 X10.0635 Y3.5974
G01 X10.0586 Y3.6036
G01 X10.0038 Y3.6638
G01 X9.9455 Y3.7169
G01 X9.9374 Y3.7235
G01 X9.8783 Y3.7674
G01 X9.8718 Y3.7718
G01 X9.8019 Y3.8136
G01 X9.7307 Y3.8475
G01 X9.7210 Y3.8515
G01 X9.6467 Y3.8779
G01 X9.5703 Y3.8972
G01 X9.5600 Y3.8992
G01 X9.4820 Y3.9107
G01 X9.4032 Y3.9147
G01 X9.3928 Y3.9147
G01 X9.3192 Y3.9111
G01 X9.3088 Y3.9100
G01 X9.2308 Y3.8983
G01 X9.1493 Y3.8779
G01 X9.0750 Y3.8515
G01 X9.0653 Y3.8475
G01 X8.9941 Y3.8136
G01 X8.9242 Y3.7718
G01 X8.9177 Y3.7674
G01 X8.8586 Y3.7235
G01 X8.8505 Y3.7169
G01 X8.7922 Y3.6638
G01 X8.7374 Y3.6036
G01 X8.7325 Y3.5974
G01 X8.6886 Y3.5383
G01 X8.6828 Y3.5296
G01 X8.6424 Y3.4619
G01 X8.6153 Y3.4049
G01 X6.9601 Y3.4049
G01 X6.9546 Y3.4197
G01 X6.9424 Y3.4455
G01 X6.9266 Y3.4724
G01 X6.9223 Y3.4789
G01 X6.9036 Y3.5039
G01 X6.8846 Y3.5252
G01 X6.8791 Y3.5308
G01 X6.8579 Y3.5500
G01 X6.8518 Y3.5549
G01 X6.8288 Y3.5718
G01 X6.8044 Y3.5866
G01 X6.7951 Y3.5915
G01 X6.7693 Y3.6036
G01 X6.7424 Y3.6133
G01 X6.7324 Y3.6164
G01 X6.7021 Y3.6237
G00 Z2.0000
G00 X8.5507 Y3.5168
G01 F200.00
G01 Z-0.1000
G01 F300.00
G01 X8.5704 Y3.5498
G01 X8.5556 Y3.5400
G01 X8.5338 Y3.5273
G01 X8.5111 Y3.5163
G01 X8.5008 Y3.5117
G01 X8.5479 Y3.5117
G01 X8.5507 Y3.5168
G00 Z2.0000
G00 X8.5149 Y2.5840
G01 F200.00
G01 Z-0.1000
G01 F300.00
G01 X8.5245 Y2.5797
G01 X8.5472 Y2.5687
G01 X8.5689 Y2.5560
G01 X8.5813 Y2.5479
G01 X8.5596 Y2.5843
G01 X8.5142 Y2.5843
G01 X8.5149 Y2.5840
G00 Z2.0000
G00 X10.2206 Y2.5574
G01 F200.00
G01 Z-0.1000
G01 F300.00
G01 X10.2338 Y2.5660
G01 X10.2555 Y2.5787
G01 X10.2782 Y2.5897
G01 X10.2885 Y2.5943
G01 X10.2424 Y2.5943
G01 X10.2202 Y2.5571
G01 X10.2206 Y2.5574
G00 Z2.0000
G00 X10.2878 Y3.5220
G01 F200.00
G01 Z-0.1000
G01 F300.00
G01 X10.2649 Y3.5326
G01 X10.2555 Y3.5373
G01 X10.2338 Y3.5500
G01 X10.2202 Y3.5589
G01 X10.2424 Y3.5217
G01 X10.2885 Y3.5217
G01 X10.2878 Y3.5220
G00 Z2.0000
G00 X11.4618 Y3.5220
G01 F200.00
G01 Z-0.1000
G01 F300.00
G01 X11.4611 Y3.5217
G01 X11.4619 Y3.5217
G01 X11.4625 Y3.5223
G01 X11.4618 Y3.5220
G00 Z2.0000
G00 X10.2249 Y6.3604
G01 F200.00
G01 Z-0.1000
G01 F300.00
G01 X10.2464 Y6.3736
G01 X10.2555 Y6.3787
G01 X10.2782 Y6.3897
G01 X10.2885 Y6.3943
G01 X10.2424 Y6.3943
G01 X10.2202 Y6.3571
G01 X10.2249 Y6.3604
G00 Z2.0000
G00 X10.2830 Y7.3241
G01 F200.00
G01 Z-0.1000
G01 F300.00
G01 X10.2602 Y7.3349
G01 X10.2509 Y7.3398
G01 X10.2293 Y7.3528
G01 X10.2202 Y7.3589
G01 X10.2424 Y7.3217
G01 X10.2885 Y7.3217
G01 X10.2830 Y7.3241
G00 Z2.0000
G00 X8.5711 Y7.3556
G01 F200.00
G01 Z-0.1000
G01 F300.00
G01 X8.5496 Y7.3424
G01 X8.5405 Y7.3373
G01 X8.5178 Y7.3263
G01 X8.5075 Y7.3217
G01 X8.5536 Y7.3217
G01 X8.5758 Y7.3589
G01 X8.5711 Y7.3556
G00 Z2.0000
G00 X8.5130 Y6.3919
G01 F200.00
G01 Z-0.1000
G01 F300.00
G01 X8.5358 Y6.3811
G01 X8.5451 Y6.3762
G01 X8.5667 Y6.3632
G01 X8.5758 Y6.3571
G01 X8.5536 Y6.3943
G01 X8.5075 Y6.3943
G01 X8.5130 Y6.3919
G00 Z2.0000
G00 X7.0202 Y6.3787
G01 F200.00
G01 Z-0.1000
G01 F300.00
G01 X7.0429 Y6.3897
G01 X7.0532 Y6.3943
G01 X7.0275 Y6.3943
G01 X7.0171 Y6.3771
G01 X7.0202 Y6.3787
G00 Z2.0000
G00 X7.0525 Y7.3220
G01 F200.00
G01 Z-0.1000
G01 F300.00
G01 X7.0296 Y7.3326
G01 X7.0171 Y7.3389
G01 X7.0275 Y7.3217
G01 X7.0532 Y7.3217
G01 X7.0525 Y7.3220
G00 Z2.0000
G00 X6.7021 Y7.4337
G01 F200.00
G01 Z-0.1000
G01 F300.00
G01 X6.6712 Y7.4381
G01 X6.6375 Y7.4398
G01 X6.0625 Y7.4398
G01 X6.0340 Y7.4385
G01 X6.0262 Y7.4379
G01 X5.9953 Y7.4332
G01 X5.9626 Y7.4250
G01 X5.9307 Y7.4136
G01 X5.9002 Y7.3991
G01 X5.8712 Y7.3818
G01 X5.8441 Y7.3616
G01 X5.8190 Y7.3390
G01 X5.7998 Y7.3179
G01 X5.7947 Y7.3119
G01 X5.7762 Y7.2868
G01 X5.7614 Y7.2624
G01 X5.7565 Y7.2531
G01 X5.7444 Y7.2273
G01 X5.7330 Y7.1954
G01 X5.7260 Y7.1678
G01 X5.7239 Y7.1575
G01 X5.7199 Y7.1292
G01 X5.7182 Y7.0955
G01 X5.7182 Y6.6205
G01 X5.7195 Y6.5920
G01 X5.7205 Y6.5816
G01 X5.7248 Y6.5533
G01 X5.7330 Y6.5206
G01 X5.7444 Y6.4887
G01 X5.7589 Y6.4582
G01 X5.7762 Y6.4292
G01 X5.7964 Y6.4021
G01 X5.8190 Y6.3770
G01 X5.8401 Y6.3578
G01 X5.8461 Y6.3527
G01 X5.8712 Y6.3342
G01 X5.8956 Y6.3194
G01 X5.9049 Y6.3145
G01 X5.9307 Y6.3024
G01 X5.9626 Y6.2910
G01 X5.9902 Y6.2840
G01 X6.0005 Y6.2819
G01 X6.0288 Y6.2779
G01 X6.0625 Y6.2762
G01 X6.6375 Y6.2762
G01 X6.6660 Y6.2775
G01 X6.6738 Y6.2781
G01 X6.6995 Y6.2819
G01 X6.7098 Y6.2840
G01 X6.7374 Y6.2910
G01 X6.7668 Y6.3014
G01 X6.7951 Y6.3145
G01 X6.8044 Y6.3194
G01 X6.8288 Y6.3342
G01 X6.8518 Y6.3511
G01 X6.8579 Y6.3560
G01 X6.8772 Y6.3734
G01 X6.8846 Y6.3808
G01 X6.9036 Y6.4021
G01 X6.9223 Y6.4271
G01 X6.9266 Y6.4336
G01 X6.9424 Y6.4605
G01 X6.9546 Y6.4863
G01 X6.9601 Y6.5011
G01 X8.6200 Y6.5011
G01 X8.6436 Y6.4518
G01 X8.6828 Y6.3864
G01 X8.6871 Y6.3798
G01 X8.7357 Y6.3145
G01 X8.7903 Y6.2540
G01 X8.7959 Y6.2485
G01 X8.8505 Y6.1991
G01 X8.8586 Y6.1925
G01 X8.9220 Y6.1456
G01 X8.9918 Y6.1036
G01 X8.9988 Y6.1000
G01 X9.0653 Y6.0685
G01 X9.0750 Y6.0645
G01 X9.1493 Y6.0381
G01 X9.2308 Y6.0177
G01 X9.3088 Y6.0060
G01 X9.3192 Y6.0049
G01 X9.3980 Y6.0012
G01 X9.4768 Y6.0049
G01 X9.4872 Y6.0060
G01 X9.5652 Y6.0177
G01 X9.6417 Y6.0367
G01 X9.6517 Y6.0397
G01 X9.7259 Y6.0664
G01 X9.7972 Y6.1000
G01 X9.8065 Y6.1050
G01 X9.8696 Y6.1428
G01 X9.8762 Y6.1471
G01 X9.9415 Y6.1957
G01 X10.0001 Y6.2485
G01 X10.0075 Y6.2559
G01 X10.0586 Y6.3124
G01 X10.0635 Y6.3186
G01 X10.1074 Y6.3777
G01 X10.1118 Y6.3842
G01 X10.1536 Y6.4541
G01 X10.1760 Y6.5011
G01 X12.7940 Y6.5011
G01 X12.8238 Y6.5024
G01 X12.8342 Y6.5034
G01 X12.8636 Y6.5079
G01 X12.8976 Y6.5164
G01 X12.9306 Y6.5282
G01 X12.9576 Y6.5409
G01 X12.9668 Y6.5458
G01 X12.9923 Y6.5612
G01 X13.0163 Y6.5789
G01 X13.0224 Y6.5838
G01 X13.0426 Y6.6020
G01 X13.7358 Y7.2951
G01 X13.8045 Y7.2951
G01 X13.8115 Y7.2897
G01 X13.8204 Y7.2841
G01 X13.8273 Y7.2805
G01 X13.8370 Y7.2764
G01 X13.8470 Y7.2734
G01 X13.8547 Y7.2718
G01 X13.8651 Y7.2705
G01 X13.8730 Y7.2702
G01 X15.4730 Y7.2702
G01 X15.4809 Y7.2705
G01 X15.4887 Y7.2714
G01 X15.4964 Y7.2728
G01 X15.5040 Y7.2748
G01 X15.5163 Y7.2794
G01 X15.5233 Y7.2828
G01 X15.5301 Y7.2868
G01 X15.5366 Y7.2912
G01 X15.5428 Y7.2961
G01 X15.5485 Y7.3015
G01 X15.5539 Y7.3072
G01 X15.5588 Y7.3134
G01 X15.5632 Y7.3199
G01 X15.5672 Y7.3267
G01 X15.5706 Y7.3337
G01 X15.5736 Y7.3410
G01 X15.5759 Y7.3485
G01 X15.5777 Y7.3562
G01 X15.5790 Y7.3639
G01 X15.5798 Y7.3770
G01 X15.5797 Y7.9322
G01 X15.5786 Y7.9427
G01 X15.5772 Y7.9504
G01 X15.5744 Y7.9605
G01 X15.5706 Y7.9703
G01 X15.5659 Y7.9796
G01 X15.5603 Y7.9885
G01 X15.5539 Y7.9968
G01 X15.5466 Y8.0043
G01 X15.5387 Y8.0112
G01 X15.5301 Y8.0172
G01 X15.5210 Y8.0224
G01 X15.5139 Y8.0257
G01 X15.5065 Y8.0284
G01 X15.4964 Y8.0312
G01 X15.4861 Y8.0330
G01 X15.4756 Y8.0338
G01 X13.8704 Y8.0338
G01 X13.8625 Y8.0333
G01 X13.8522 Y8.0317
G01 X13.8420 Y8.0292
G01 X13.8346 Y8.0266
G01 X13.8273 Y8.0235
G01 X13.8181 Y8.0186
G01 X13.8115 Y8.0143
G01 X13.8045 Y8.0089
G01 X13.5854 Y8.0089
G01 X13.5530 Y8.0072
G01 X13.5235 Y8.0030
G01 X13.5133 Y8.0009
G01 X13.4844 Y7.9936
G01 X13.4563 Y7.9836
G01 X13.4466 Y7.9796
G01 X13.4197 Y7.9668
G01 X13.3941 Y7.9516
G01 X13.3854 Y7.9458
G01 X13.3616 Y7.9279
G01 X13.3394 Y7.9080
G01 X12.6462 Y7.2149
G01 X10.1760 Y7.2149
G01 X10.1536 Y7.2619
G01 X10.1118 Y7.3318
G01 X10.1074 Y7.3383
G01 X10.0635 Y7.3974
G01 X10.0586 Y7.4036
G01 X10.0038 Y7.4638
G01 X9.9455 Y7.5169
G01 X9.9374 Y7.5235
G01 X9.8783 Y7.5674
G01 X9.8718 Y7.5718
G01 X9.8019 Y7.6136
G01 X9.7307 Y7.6475
G01 X9.7210 Y7.6515
G01 X9.6467 Y7.6779
G01 X9.5703 Y7.6972
G01 X9.5600 Y7.6992
G01 X9.4820 Y7.7107
G01 X9.4006 Y7.7148
G01 X9.3928 Y7.7147
G01 X9.3192 Y7.7111
G01 X9.3088 Y7.7100
G01 X9.2308 Y7.6983
G01 X9.1493 Y7.6779
G01 X9.0750 Y7.6515
G01 X9.0653 Y7.6475
G01 X8.9941 Y7.6136
G01 X8.9242 Y7.5718
G01 X8.9177 Y7.5674
G01 X8.8586 Y7.5235
G01 X8.8505 Y7.5169
G01 X8.7922 Y7.4638
G01 X8.7374 Y7.4036
G01 X8.7325 Y7.3974
G01 X8.6886 Y7.3383
G01 X8.6842 Y7.3318
G01 X8.6424 Y7.2619
G01 X8.6200 Y7.2149
G01 X6.9601 Y7.2149
G01 X6.9546 Y7.2297
G01 X6.9424 Y7.2555
G01 X6.9266 Y7.2824
G01 X6.9223 Y7.2889
G01 X6.9036 Y7.3139
G01 X6.8846 Y7.3352
G01 X6.8791 Y7.3408
G01 X6.8579 Y7.3600
G01 X6.8518 Y7.3649
G01 X6.8288 Y7.3818
G01 X6.8044 Y7.3966
G01 X6.7951 Y7.4015
G01 X6.7693 Y7.4136
G01 X6.7424 Y7.4233
G01 X6.7324 Y7.4264
G01 X6.7021 Y7.4337
G00 Z2.0000
G00 X5.6500 Y6.4383
G01 F200.00
G01 Z-0.1000
G01 F300.00
G01 X5.6438 Y6.4527
G01 X5.6324 Y6.4846
G01 X5.6294 Y6.4946
G01 X5.6224 Y6.5223
G01 X5.6201 Y6.5325
G01 X5.6183 Y6.5428
G01 X5.6141 Y6.5711
G01 X5.6128 Y6.5867
G01 X5.6114 Y6.6205
G01 X5.6115 Y7.1007
G01 X5.6131 Y7.1345
G01 X5.6149 Y7.1501
G01 X5.6201 Y7.1835
G01 X5.6280 Y7.2163
G01 X5.6324 Y7.2314
G01 X5.6438 Y7.2633
G01 X5.6500 Y7.2777
G01 X5.6647 Y7.3083
G01 X5.6451 Y7.2968
G01 X5.6176 Y7.2836
G01 X5.6079 Y7.2796
G01 X5.5892 Y7.2728
G01 X5.5742 Y7.2680
G01 X5.5446 Y7.2608
G01 X5.5197 Y7.2569
G01 X5.5041 Y7.2551
G01 X5.4736 Y7.2538
G01 X5.4432 Y7.2551
G01 X5.4276 Y7.2569
G01 X5.4027 Y7.2608
G01 X5.3731 Y7.2680
G01 X5.3631 Y7.2711
G01 X5.3443 Y7.2777
G01 X5.3297 Y7.2836
G01 X5.3069 Y7.2944
G01 X5.2976 Y7.2993
G01 X5.2865 Y7.3059
G01 X5.3043 Y7.2681
G01 X5.3159 Y7.2364
G01 X5.3192 Y7.2265
G01 X5.3276 Y7.1937
G01 X5.3299 Y7.1835
G01 X5.3351 Y7.1501
G01 X5.3369 Y7.1345
G01 X5.3386 Y7.0955
G01 X5.3386 Y6.6205
G01 X5.3372 Y6.5867
G01 X5.3359 Y6.5711
G01 X5.3309 Y6.5377
G01 X5.3276 Y6.5223
G01 X5.3192 Y6.4895
G01 X5.3080 Y6.4577
G01 X5.3022 Y6.4431
G01 X5.2865 Y6.4101
G01 X5.2976 Y6.4167
G01 X5.3069 Y6.4216
G01 X5.3297 Y6.4324
G01 X5.3393 Y6.4364
G01 X5.3631 Y6.4449
G01 X5.3782 Y6.4493
G01 X5.4027 Y6.4552
G01 X5.4276 Y6.4591
G01 X5.4432 Y6.4609
G01 X5.4736 Y6.4622
G01 X5.5041 Y6.4609
G01 X5.5145 Y6.4598
G01 X5.5343 Y6.4570
G01 X5.5446 Y6.4552
G01 X5.5548 Y6.4529
G01 X5.5742 Y6.4480
G01 X5.5842 Y6.4449
G01 X5.6128 Y6.4345
G01 X5.6404 Y6.4216
G01 X5.6497 Y6.4167
G01 X5.6647 Y6.4077
G01 X5.6500 Y6.4383
G00 Z2.0000
G00 X5.5047 Y6.6126
G01 F200.00
G01 Z-0.1000
G01 F300.00
G01 X5.5046 Y7.0955
G01 X5.5050 Y7.1112
G01 X5.5071 Y7.1483
G01 X5.4736 Y7.1470
G01 X5.4429 Y7.1482
G01 X5.4450 Y7.1112
G01 X5.4454 Y7.0955
G01 X5.4454 Y6.6205
G01 X5.4450 Y6.6048
G01 X5.4429 Y6.5678
G01 X5.4736 Y6.5690
G01 X5.5071 Y6.5677
G01 X5.5047 Y6.6126
G00 Z2.0000
G00 X4.9874 Y7.4250
G01 F200.00
G01 Z-0.1000
G01 F300.00
G01 X5.0144 Y7.4155
G01 X5.0240 Y7.4115
G01 X5.0498 Y7.3991
G01 X5.0744 Y7.3846
G01 X5.0831 Y7.3788
G01 X5.1059 Y7.3616
G01 X5.1310 Y7.3390
G01 X5.1536 Y7.3139
G01 X5.1708 Y7.2911
G01 X5.1766 Y7.2824
G01 X5.1911 Y7.2578
G01 X5.2035 Y7.2320
G01 X5.2075 Y7.2224
G01 X5.2170 Y7.1954
G01 X5.2240 Y7.1678
G01 X5.2261 Y7.1575
G01 X5.2301 Y7.1292
G01 X5.2318 Y7.0981
G01 X5.2318 Y6.6179
G01 X5.2301 Y6.5868
G01 X5.2261 Y6.5585
G01 X5.2240 Y6.5482
G01 X5.2170 Y6.5206
G01 X5.2075 Y6.4936
G01 X5.2035 Y6.4840
G01 X5.1911 Y6.4582
G01 X5.1752 Y6.4314
G01 X5.1708 Y6.4249
G01 X5.1536 Y6.4021
G01 X5.1310 Y6.3770
G01 X5.1059 Y6.3544
G01 X5.0788 Y6.3342
G01 X5.0498 Y6.3169
G01 X5.0193 Y6.3024
G01 X4.9874 Y6.2910
G01 X4.9569 Y6.2833
G01 X4.9569 Y6.1889
G01 X5.1133 Y6.1878
G01 X5.1629 Y6.1927
G01 X5.1993 Y6.2037
G01 X5.2328 Y6.2216
G01 X5.2622 Y6.2458
G01 X5.2768 Y6.2635
G01 X5.2902 Y6.2782
G01 X5.3087 Y6.2954
G01 X5.3309 Y6.3121
G01 X5.3549 Y6.3262
G01 X5.3753 Y6.3358
G01 X5.3941 Y6.3427
G01 X5.4016 Y6.3450
G01 X5.4235 Y6.3504
G01 X5.4459 Y6.3538
G01 X5.4537 Y6.3545
G01 X5.4736 Y6.3554
G01 X5.4936 Y6.3545
G01 X5.5014 Y6.3538
G01 X5.5238 Y6.3504
G01 X5.5482 Y6.3443
G01 X5.5719 Y6.3358
G01 X5.5947 Y6.3250
G01 X5.6164 Y6.3121
G01 X5.6386 Y6.2954
G01 X5.6571 Y6.2782
G01 X5.6705 Y6.2635
G01 X5.6863 Y6.2443
G01 X5.7669 Y6.1781
G01 X5.8589 Y6.1290
G01 X5.9587 Y6.0987
G01 X6.0751 Y6.0872
G01 X6.6249 Y6.0872
G01 X6.7413 Y6.0987
G01 X6.8411 Y6.1290
G01 X6.9331 Y6.1781
G01 X7.0307 Y6.2582
G01 X7.0489 Y6.2716
G01 X7.0682 Y6.2833
G01 X7.0933 Y6.2953
G01 X7.1171 Y6.3038
G01 X7.1415 Y6.3099
G01 X7.1638 Y6.3133
G01 X7.1916 Y6.3149
G01 X8.3690 Y6.3149
G01 X8.3916 Y6.3139
G01 X8.4140 Y6.3108
G01 X8.4243 Y6.3088
G01 X8.4436 Y6.3038
G01 X8.4649 Y6.2963
G01 X8.4855 Y6.2869
G01 X8.4924 Y6.2833
G01 X8.5118 Y6.2716
G01 X8.5279 Y6.2598
G01 X8.5340 Y6.2549
G01 X8.5488 Y6.2415
G01 X8.5642 Y6.2249
G01 X8.5693 Y6.2189
G01 X8.5796 Y6.2050
G01 X8.5878 Y6.1930
G01 X8.7330 Y6.0478
G01 X8.9039 Y5.9336
G01 X9.0937 Y5.8550
G01 X9.2953 Y5.8149
G01 X9.5007 Y5.8149
G01 X9.7023 Y5.8550
G01 X9.8921 Y5.9336
G01 X10.0630 Y6.0478
G01 X10.2082 Y6.1930
G01 X10.2164 Y6.2050
G01 X10.2267 Y6.2189
G01 X10.2318 Y6.2249
G01 X10.2472 Y6.2415
G01 X10.2660 Y6.2582
G01 X10.2821 Y6.2701
G01 X10.2887 Y6.2744
G01 X10.3059 Y6.2845
G01 X10.3239 Y6.2932
G01 X10.3311 Y6.2963
G01 X10.3524 Y6.3038
G01 X10.3768 Y6.3099
G01 X10.4018 Y6.3136
G01 X10.4270 Y6.3149
G01 X12.7547 Y6.3149
G01 X12.7773 Y6.3139
G01 X12.7940 Y6.3122
G01 X12.9005 Y6.3227
G01 X13.0028 Y6.3538
G01 X13.0972 Y6.4042
G01 X13.1799 Y6.4721
G01 X13.1901 Y6.4845
G01 X13.2035 Y6.4993
G01 X13.2220 Y6.5164
G01 X13.2443 Y6.5331
G01 X13.2636 Y6.5448
G01 X13.2887 Y6.5568
G01 X13.3099 Y6.5645
G01 X13.3175 Y6.5667
G01 X13.3369 Y6.5715
G01 X13.3566 Y6.5745
G01 X13.3644 Y6.5754
G01 X13.3870 Y6.5764
G01 X13.4122 Y6.5752
G01 X13.4371 Y6.5715
G01 X13.4616 Y6.5653
G01 X13.4853 Y6.5568
G01 X13.5081 Y6.5461
G01 X13.5297 Y6.5331
G01 X13.5500 Y6.5181
G01 X13.5705 Y6.4993
G01 X13.5856 Y6.4825
G01 X13.6006 Y6.4622
G01 X13.6123 Y6.4429
G01 X13.6281 Y6.4134
G01 X13.6647 Y6.3687
G01 X13.7121 Y6.3298
G01 X13.7214 Y6.3240
G01 X13.7374 Y6.3121
G01 X13.7543 Y6.2971
G01 X13.7600 Y6.2916
G01 X13.7751 Y6.2748
G01 X13.7901 Y6.2546
G01 X13.8018 Y6.2352
G01 X13.8054 Y6.2283
G01 X13.8138 Y6.2102
G01 X13.8223 Y6.1864
G01 X13.8284 Y6.1620
G01 X13.8315 Y6.1422
G01 X13.8323 Y6.1344
G01 X13.8334 Y6.1119
G01 X13.8321 Y6.0867
G01 X13.8284 Y6.0617
G01 X13.8223 Y6.0373
G01 X13.8138 Y6.0136
G01 X13.8030 Y5.9908
G01 X13.7901 Y5.9691
G01 X13.7750 Y5.9489
G01 X13.7600 Y5.9321
G01 X11.5043 Y3.6764
G01 X11.4856 Y3.6594
G01 X11.4653 Y3.6444
G01 X11.4437 Y3.6315
G01 X11.4209 Y3.6207
G01 X11.3972 Y3.6122
G01 X11.3727 Y3.6061
G01 X11.3478 Y3.6024
G01 X11.3253 Y3.6012
G01 X10.4270 Y3.6011
G01 X10.4018 Y3.6024
G01 X10.3794 Y3.6056
G01 X10.3717 Y3.6072
G01 X10.3549 Y3.6115
G01 X10.3474 Y3.6138
G01 X10.3287 Y3.6207
G01 X10.3105 Y3.6291
G01 X10.3036 Y3.6327
G01 X10.2864 Y3.6430
G01 X10.2660 Y3.6578
G01 X10.2472 Y3.6745
G01 X10.2318 Y3.6911
G01 X10.2267 Y3.6971
G01 X10.2164 Y3.7110
G01 X10.2082 Y3.7230
G01 X10.0630 Y3.8682
G01 X9.8921 Y3.9824
G01 X9.7023 Y4.0610
G01 X9.5007 Y4.1011
G01 X9.2953 Y4.1011
G01 X9.0937 Y4.0610
G01 X8.9039 Y3.9824
G01 X8.7330 Y3.8682
G01 X8.5878 Y3.7230
G01 X8.5745 Y3.7031
G01 X8.5592 Y3.6830
G01 X8.5421 Y3.6645
G01 X8.5273 Y3.6511
G01 X8.5212 Y3.6462
G01 X8.5051 Y3.6344
G01 X8.4858 Y3.6227
G01 X8.4788 Y3.6191
G01 X8.4582 Y3.6097
G01 X8.4369 Y3.6022
G01 X8.4176 Y3.5972
G01 X8.4073 Y3.5952
G01 X8.3849 Y3.5921
G01 X8.3624 Y3.5911
G01 X7.1916 Y3.5911
G01 X7.1638 Y3.5927
G01 X7.1415 Y3.5961
G01 X7.1171 Y3.6022
G01 X7.0933 Y3.6107
G01 X7.0682 Y3.6227
G01 X7.0489 Y3.6344
G01 X7.0307 Y3.6478
G01 X6.9331 Y3.7279
G01 X6.8411 Y3.7770
G01 X6.7413 Y3.8073
G01 X6.6249 Y3.8188
G01 X6.0751 Y3.8188
G01 X5.9587 Y3.8073
G01 X5.8589 Y3.7770
G01 X5.7669 Y3.7279
G01 X5.6863 Y3.6617
G01 X5.6705 Y3.6425
G01 X5.6571 Y3.6278
G01 X5.6386 Y3.6106
G01 X5.6164 Y3.5939
G01 X5.5947 Y3.5810
G01 X5.5719 Y3.5702
G01 X5.5482 Y3.5617
G01 X5.5238 Y3.5556
G01 X5.5014 Y3.5522
G01 X5.4936 Y3.5515
G01 X5.4736 Y3.5506
G01 X5.4537 Y3.5515
G01 X5.4459 Y3.5522
G01 X5.4235 Y3.5556
G01 X5.4016 Y3.5610
G01 X5.3941 Y3.5633
G01 X5.3753 Y3.5702
G01 X5.3549 Y3.5798
G01 X5.3309 Y3.5939
G01 X5.3087 Y3.6106
G01 X5.2902 Y3.6278
G01 X5.2768 Y3.6425
G01 X5.2622 Y3.6602
G01 X5.2328 Y3.6844
G01 X5.1993 Y3.7023
G01 X5.1629 Y3.7133
G01 X5.1133 Y3.7182
G01 X4.9569 Y3.7171
G01 X4.9569 Y3.6227
G01 X4.9874 Y3.6150
G01 X5.0193 Y3.6036
G01 X5.0498 Y3.5891
G01 X5.0788 Y3.5718
G01 X5.1059 Y3.5516
G01 X5.1310 Y3.5290
G01 X5.1536 Y3.5039
G01 X5.1708 Y3.4811
G01 X5.1752 Y3.4746
G01 X5.1911 Y3.4478
G01 X5.2035 Y3.4220
G01 X5.2075 Y3.4124
G01 X5.2170 Y3.3854
G01 X5.2240 Y3.3578
G01 X5.2261 Y3.3475
G01 X5.2301 Y3.3192
G01 X5.2318 Y3.2855
G01 X5.2318 Y2.8079
G01 X5.2301 Y2.7768
G01 X5.2261 Y2.7485
G01 X5.2240 Y2.7382
G01 X5.2170 Y2.7106
G01 X5.2075 Y2.6836
G01 X5.2035 Y2.6740
G01 X5.1911 Y2.6482
G01 X5.1766 Y2.6236
G01 X5.1708 Y2.6149
G01 X5.1536 Y2.5921
G01 X5.1346 Y2.5708
G01 X5.1272 Y2.5634
G01 X5.1059 Y2.5444
G01 X5.0831 Y2.5272
G01 X5.0744 Y2.5214
G01 X5.0498 Y2.5069
G01 X5.0240 Y2.4945
G01 X5.0144 Y2.4905
G01 X4.9874 Y2.4810
G01 X4.9569 Y2.4733
G01 X4.9569 Y2.3789
G01 X5.1133 Y2.3778
G01 X5.1629 Y2.3827
G01 X5.1993 Y2.3937
G01 X5.2328 Y2.4116
G01 X5.2622 Y2.4358
G01 X5.2768 Y2.4535
G01 X5.2902 Y2.4682
G01 X5.3087 Y2.4854
G01 X5.3309 Y2.5021
G01 X5.3549 Y2.5162
G01 X5.3753 Y2.5258
G01 X5.3941 Y2.5327
G01 X5.4016 Y2.5350
G01 X5.4235 Y2.5404
G01 X5.4459 Y2.5438
G01 X5.4537 Y2.5445
G01 X5.4736 Y2.5454
G01 X5.4936 Y2.5445
G01 X5.5014 Y2.5438
G01 X5.5238 Y2.5404
G01 X5.5482 Y2.5343
G01 X5.5719 Y2.5258
G01 X5.5947 Y2.5150
G01 X5.6164 Y2.5021
G01 X5.6386 Y2.4854
G01 X5.6571 Y2.4682
G01 X5.6705 Y2.4535
G01 X5.6863 Y2.4343
G01 X5.7669 Y2.3681
G01 X5.8589 Y2.3190
G01 X5.9587 Y2.2887
G01 X6.0751 Y2.2772
G01 X6.6249 Y2.2772
G01 X6.7413 Y2.2887
G01 X6.8411 Y2.3190
G01 X6.9331 Y2.3681
G01 X7.0307 Y2.4482
G01 X7.0489 Y2.4616
G01 X7.0682 Y2.4733
G01 X7.0933 Y2.4853
G01 X7.1171 Y2.4938
G01 X7.1415 Y2.4999
G01 X7.1638 Y2.5033
G01 X7.1916 Y2.5049
G01 X8.3757 Y2.5049
G01 X8.3983 Y2.5039
G01 X8.4207 Y2.5008
G01 X8.4284 Y2.4994
G01 X8.4503 Y2.4938
G01 X8.4691 Y2.4872
G01 X8.4764 Y2.4843
G01 X8.4968 Y2.4745
G01 X8.5162 Y2.4630
G01 X8.5227 Y2.4586
G01 X8.5387 Y2.4466
G01 X8.5574 Y2.4296
G01 X8.5743 Y2.4110
G01 X8.5876 Y2.3932
G01 X8.7330 Y2.2478
G01 X8.9039 Y2.1336
G01 X9.0937 Y2.0550
G01 X9.2953 Y2.0149
G01 X9.5007 Y2.0149
G01 X9.7023 Y2.0550
G01 X9.8921 Y2.1336
G01 X10.0630 Y2.2478
G01 X10.2082 Y2.3930
G01 X10.2164 Y2.4050
G01 X10.2267 Y2.4189
G01 X10.2318 Y2.4249
G01 X10.2472 Y2.4415
G01 X10.2660 Y2.4582
G01 X10.2864 Y2.4730
G01 X10.3036 Y2.4833
G01 X10.3105 Y2.4869
G01 X10.3287 Y2.4953
G01 X10.3474 Y2.5022
G01 X10.3549 Y2.5045
G01 X10.3743 Y2.5094
G01 X10.4018 Y2.5136
G01 X10.4270 Y2.5149
G01 X11.6147 Y2.5149
G01 X11.6373 Y2.5139
G01 X11.6540 Y2.5122
G01 X11.7605 Y2.5227
G01 X11.8629 Y2.5538
G01 X11.9572 Y2.6042
G01 X12.0399 Y2.6721
G01 X12.0506 Y2.6851
G01 X12.0658 Y2.7017
G01 X15.0293 Y5.6652
G01 X15.0459 Y5.6804
G01 X15.0589 Y5.6911
G01 X15.0985 Y5.7392
G01 X15.1156 Y5.7577
G01 X15.1324 Y5.7728
G01 X15.1526 Y5.7879
G01 X15.1742 Y5.8008
G01 X15.1970 Y5.8116
G01 X15.2208 Y5.8201
G01 X15.2452 Y5.8262
G01 X15.2702 Y5.8299
G01 X15.2953 Y5.8312
G01 X15.3205 Y5.8299
G01 X15.3403 Y5.8271
G01 X15.3506 Y5.8251
G01 X15.3674 Y5.8208
G01 X15.3749 Y5.8184
G01 X15.3936 Y5.8116
G01 X15.4164 Y5.8008
G01 X15.4381 Y5.7879
G01 X15.4542 Y5.7761
G01 X15.4623 Y5.7694
G01 X15.4751 Y5.7577
G01 X15.4806 Y5.7521
G01 X15.4939 Y5.7372
G01 X15.5089 Y5.7170
G01 X15.5219 Y5.6954
G01 X15.5305 Y5.6774
G01 X15.5336 Y5.6701
G01 X15.5412 Y5.6488
G01 X15.5467 Y5.6270
G01 X15.5482 Y5.6192
G01 X15.5510 Y5.5995
G01 X15.5522 Y5.5769
G01 X15.5522 Y4.6146
G01 X15.5591 Y4.5445
G01 X15.5759 Y4.4893
G01 X15.6031 Y4.4384
G01 X15.6397 Y4.3937
G01 X15.6844 Y4.3571
G01 X15.7353 Y4.3299
G01 X15.7905 Y4.3131
G01 X15.8606 Y4.3062
G01 X16.3854 Y4.3062
G01 X16.4570 Y4.3133
G01 X16.4729 Y4.3171
G01 X16.4952 Y4.3205
G01 X16.5230 Y4.3220
G01 X16.5508 Y4.3205
G01 X16.5731 Y4.3171
G01 X16.5890 Y4.3133
G01 X16.6606 Y4.3062
G01 X17.1854 Y4.3062
G01 X17.2570 Y4.3133
G01 X17.2729 Y4.3171
G01 X17.2952 Y4.3205
G01 X17.3230 Y4.3220
G01 X17.3508 Y4.3205
G01 X17.3731 Y4.3171
G01 X17.3890 Y4.3133
G01 X17.4606 Y4.3062
G01 X17.9854 Y4.3062
G01 X18.0570 Y4.3133
G01 X18.0729 Y4.3171
G01 X18.0952 Y4.3205
G01 X18.1230 Y4.3220
G01 X18.1508 Y4.3205
G01 X18.1731 Y4.3171
G01 X18.1890 Y4.3133
G01 X18.2606 Y4.3062
G01 X18.7854 Y4.3062
G01 X18.8570 Y4.3133
G01 X18.8729 Y4.3171
G01 X18.8952 Y4.3205
G01 X18.9230 Y4.3220
G01 X18.9508 Y4.3205
G01 X18.9731 Y4.3171
G01 X18.9890 Y4.3133
G01 X19.0606 Y4.3062
G01 X19.5854 Y4.3062
G01 X19.6570 Y4.3133
G01 X19.6729 Y4.3171
G01 X19.6952 Y4.3205
G01 X19.7178 Y4.3219
G01 X19.7256 Y4.3220
G01 X19.7482 Y4.3208
G01 X19.7731 Y4.3171
G01 X19.7976 Y4.3110
G01 X19.8207 Y4.3031
G01 X19.8280 Y4.3001
G01 X19.8437 Y4.2928
G01 X19.8530 Y4.2878
G01 X19.8722 Y4.2760
G01 X19.8923 Y4.2607
G01 X19.9090 Y4.2455
G01 X19.9242 Y4.2288
G01 X19.9379 Y4.2109
G01 X19.9437 Y4.2021
G01 X19.9539 Y4.1850
G01 X19.9646 Y4.1622
G01 X19.9731 Y4.1384
G01 X19.9781 Y4.1191
G01 X19.9802 Y4.1088
G01 X19.9827 Y4.0916
G01 X19.9834 Y4.0838
G01 X19.9842 Y4.0639
G01 X19.9830 Y4.0387
G01 X19.9793 Y4.0137
G01 X19.9745 Y3.9943
G01 X19.9715 Y3.9843
G01 X19.9636 Y3.9631
G01 X19.9539 Y3.9428
G01 X19.9437 Y3.9256
G01 X19.9394 Y3.9190
G01 X19.9275 Y3.9029
G01 X19.9090 Y3.8822
G01 X19.8923 Y3.8670
G01 X19.8862 Y3.8621
G01 X19.8678 Y3.8488
G01 X19.8461 Y3.8361
G01 X19.8280 Y3.8276
G01 X19.7785 Y3.8070
G01 X19.5913 Y3.6819
G01 X19.4321 Y3.5227
G01 X19.3070 Y3.3355
G01 X19.2208 Y3.1274
G01 X19.1769 Y2.9066
G01 X19.1769 Y2.6814
G01 X19.2208 Y2.4606
G01 X19.3070 Y2.2525
G01 X19.4321 Y2.0653
G01 X19.5913 Y1.9061
G01 X19.7785 Y1.7810
G01 X19.9866 Y1.6948
G01 X20.2074 Y1.6509
G01 X20.4326 Y1.6509
G01 X20.6534 Y1.6948
G01 X20.8615 Y1.7810
G01 X21.0487 Y1.9061
G01 X21.2079 Y2.0653
G01 X21.3330 Y2.2525
G01 X21.3548 Y2.3048
G01 X21.3635 Y2.3228
G01 X21.3750 Y2.3422
G01 X21.3914 Y2.3646
G01 X21.4102 Y2.3851
G01 X21.4270 Y2.4002
G01 X21.4473 Y2.4153
G01 X21.4689 Y2.4282
G01 X21.4917 Y2.4390
G01 X21.5154 Y2.4475
G01 X21.5399 Y2.4536
G01 X21.5648 Y2.4573
G01 X21.5900 Y2.4585
G01 X21.6152 Y2.4573
G01 X21.6401 Y2.4536
G01 X21.6646 Y2.4475
G01 X21.6883 Y2.4390
G01 X21.7111 Y2.4282
G01 X21.7327 Y2.4153
G01 X21.7530 Y2.4002
G01 X21.7716 Y2.3833
G01 X21.7886 Y2.3646
G01 X21.8050 Y2.3422
G01 X21.8165 Y2.3228
G01 X21.8252 Y2.3048
G01 X21.8470 Y2.2525
G01 X21.9721 Y2.0653
G01 X22.1313 Y1.9061
G01 X22.3185 Y1.7810
G01 X22.5266 Y1.6948
G01 X22.7474 Y1.6509
G01 X22.9726 Y1.6509
G01 X23.1934 Y1.6948
G01 X23.4015 Y1.7810
G01 X23.5887 Y1.9061
G01 X23.7479 Y2.0653
G01 X23.7852 Y2.1211
G01 X23.7988 Y2.1392
G01 X23.8157 Y2.1579
G01 X23.8324 Y2.1731
G01 X23.8385 Y2.1780
G01 X23.8546 Y2.1898
G01 X23.8762 Y2.2028
G01 X23.8990 Y2.2135
G01 X23.9178 Y2.2204
G01 X23.9253 Y2.2228
G01 X23.9421 Y2.2270
G01 X23.9524 Y2.2291
G01 X23.9722 Y2.2319
G01 X23.9973 Y2.2331
G01 X24.0225 Y2.2319
G01 X24.0475 Y2.2282
G01 X24.0719 Y2.2220
G01 X24.0932 Y2.2145
G01 X24.1004 Y2.2114
G01 X24.1184 Y2.2028
G01 X24.1356 Y2.1926
G01 X24.1422 Y2.1883
G01 X24.1562 Y2.1780
G01 X24.1623 Y2.1731
G01 X24.1771 Y2.1597
G01 X24.1942 Y2.1412
G01 X24.2109 Y2.1189
G01 X24.2239 Y2.0973
G01 X24.2347 Y2.0745
G01 X24.2432 Y2.0508
G01 X24.2493 Y2.0263
G01 X24.2530 Y2.0014
G01 X24.2542 Y1.9788
G01 X24.2542 Y1.9566
G01 X24.2611 Y1.8865
G01 X24.2779 Y1.8313
G01 X24.3051 Y1.7804
G01 X24.3417 Y1.7357
G01 X24.3864 Y1.6991
G01 X24.4373 Y1.6719
G01 X24.4925 Y1.6551
G01 X24.5626 Y1.6482
G01 X26.2374 Y1.6482
G01 X26.3075 Y1.6551
G01 X26.3627 Y1.6719
G01 X26.4136 Y1.6991
G01 X26.4583 Y1.7357
G01 X26.4949 Y1.7804
G01 X26.5221 Y1.8313
G01 X26.5389 Y1.8865
G01 X26.5458 Y1.9566
G01 X26.5458 Y3.6314
G01 X26.5389 Y3.7015
G01 X26.5239 Y3.7514
G01 X26.5192 Y3.7708
G01 X26.5157 Y3.7931
G01 X26.5143 Y3.8156
G01 X26.5143 Y3.8261
G01 X26.5155 Y3.8461
G01 X26.5187 Y3.8684
G01 X26.5245 Y3.8929
G01 X26.5319 Y3.9143
G01 X26.5359 Y3.9240
G01 X26.5433 Y3.9396
G01 X26.5471 Y3.9465
G01 X26.5575 Y3.9636
G01 X26.5725 Y3.9838
G01 X26.5895 Y4.0025
G01 X26.6081 Y4.0194
G01 X26.6284 Y4.0345
G01 X26.6454 Y4.0448
G01 X26.6523 Y4.0486
G01 X26.6680 Y4.0561
G01 X26.6777 Y4.0601
G01 X26.6965 Y4.0667
G01 X26.7210 Y4.0728
G01 X26.7459 Y4.0765
G01 X26.7685 Y4.0777
G01 X26.7963 Y4.0765
G01 X26.8212 Y4.0728
G01 X26.8482 Y4.0659
G01 X26.8670 Y4.0592
G01 X26.8878 Y4.0506
G01 X27.1376 Y4.0009
G01 X27.3924 Y4.0009
G01 X27.5920 Y4.0405
G01 X27.6143 Y4.0438
G01 X27.6395 Y4.0450
G01 X27.6647 Y4.0438
G01 X27.6845 Y4.0410
G01 X27.6922 Y4.0395
G01 X27.7141 Y4.0339
G01 X27.7354 Y4.0264
G01 X27.7426 Y4.0233
G01 X27.7606 Y4.0147
G01 X27.7822 Y4.0017
G01 X27.8025 Y3.9867
G01 X27.8211 Y3.9698
G01 X29.8612 Y1.9297
G01 X29.8764 Y1.9131
G01 X29.8871 Y1.9001
G01 X29.9698 Y1.8322
G01 X30.0641 Y1.7818
G01 X30.1665 Y1.7507
G01 X30.2730 Y1.7402
G01 X30.2897 Y1.7419
G01 X30.3123 Y1.7429
G01 X32.9404 Y1.7429
G01 X32.9603 Y1.7420
G01 X32.9682 Y1.7413
G01 X32.9879 Y1.7384
G01 X33.0124 Y1.7325
G01 X33.0387 Y1.7233
G01 X33.0591 Y1.7138
G01 X33.0831 Y1.6996
G01 X33.1013 Y1.6862
G01 X33.1989 Y1.6061
G01 X33.2909 Y1.5570
G01 X33.3907 Y1.5267
G01 X33.5071 Y1.5152
G01 X34.0569 Y1.5152
G01 X34.1733 Y1.5267
G01 X34.2731 Y1.5570
G01 X34.3651 Y1.6061
G01 X34.4457 Y1.6723
G01 X34.4601 Y1.6898
G01 X34.4735 Y1.7046
G01 X34.4920 Y1.7217
G01 X34.5143 Y1.7384
G01 X34.5336 Y1.7501
G01 X34.5406 Y1.7537
G01 X34.5611 Y1.7631
G01 X34.5824 Y1.7706
G01 X34.6018 Y1.7756
G01 X34.6095 Y1.7772
G01 X34.6318 Y1.7805
G01 X34.6544 Y1.7817
G01 X34.6622 Y1.7816
G01 X34.6796 Y1.7807
G01 X34.6874 Y1.7798
G01 X34.7071 Y1.7768
G01 X34.7265 Y1.7720
G01 X34.7341 Y1.7699
G01 X34.7553 Y1.7622
G01 X34.7781 Y1.7514
G01 X34.7997 Y1.7384
G01 X34.8220 Y1.7217
G01 X34.8405 Y1.7046
G01 X34.8539 Y1.6898
G01 X34.8683 Y1.6723
G01 X34.9489 Y1.6061
G01 X35.0409 Y1.5570
G01 X35.1407 Y1.5267
G01 X35.2571 Y1.5152
G01 X35.8069 Y1.5152
G01 X35.9233 Y1.5267
G01 X36.0231 Y1.5570
G01 X36.1151 Y1.6061
G01 X36.1957 Y1.6723
G01 X36.2619 Y1.7529
G01 X36.3110 Y1.8449
G01 X36.3413 Y1.9447
G01 X36.3528 Y2.0611
G01 X36.3528 Y2.5109
G01 X36.3413 Y2.6273
G01 X36.3110 Y2.7271
G01 X36.2619 Y2.8191
G01 X36.2373 Y2.8491
G01 X36.2239 Y2.8673
G01 X36.2110 Y2.8889
G01 X36.1992 Y2.9141
G01 X36.1910 Y2.9379
G01 X36.1861 Y2.9573
G01 X36.1847 Y2.9650
G01 X36.1819 Y2.9848
G01 X36.1808 Y3.0048
G01 X36.1807 Y3.0126
G01 X36.1816 Y3.0326
G01 X36.1856 Y3.0601
G01 X36.1910 Y3.0820
G01 X36.1992 Y3.1059
G01 X36.2086 Y3.1264
G01 X36.2122 Y3.1334
G01 X36.2211 Y3.1483
G01 X36.2269 Y3.1570
G01 X36.2406 Y3.1750
G01 X36.2540 Y3.1898
G01 X36.2597 Y3.1953
G01 X36.2745 Y3.2086
G01 X36.2948 Y3.2236
G01 X36.3164 Y3.2365
G01 X36.3392 Y3.2473
G01 X36.3629 Y3.2558
G01 X36.3874 Y3.2619
G01 X36.4123 Y3.2656
G01 X36.4349 Y3.2668
G01 X36.7038 Y3.2669
G01 X36.7316 Y3.2653
G01 X36.7539 Y3.2619
G01 X36.7733 Y3.2572
G01 X36.7809 Y3.2550
G01 X36.8021 Y3.2473
G01 X36.8226 Y3.2378
G01 X36.8295 Y3.2340
G01 X36.8465 Y3.2236
G01 X36.8647 Y3.2102
G01 X36.8854 Y3.1916
G01 X36.9024 Y3.1730
G01 X36.9174 Y3.1527
G01 X36.9316 Y3.1288
G01 X36.9411 Y3.1083
G01 X37.0514 Y2.8422
G01 X37.2750 Y2.5075
G01 X37.5595 Y2.2230
G01 X37.8942 Y1.9994
G01 X38.2660 Y1.8453
G01 X38.6608 Y1.7668
G01 X39.0632 Y1.7668
G01 X39.4580 Y1.8453
G01 X39.8298 Y1.9994
G01 X40.1645 Y2.2230
G01 X40.4490 Y2.5075
G01 X40.6726 Y2.8422
G01 X40.8267 Y3.2140
G01 X40.9052 Y3.6088
G01 X40.9052 Y4.0112
G01 X40.8267 Y4.4060
G01 X40.6726 Y4.7778
G01 X40.4490 Y5.1125
G01 X40.1645 Y5.3970
G01 X39.8298 Y5.6206
G01 X39.4580 Y5.7747
G01 X39.0632 Y5.8532
G01 X38.6608 Y5.8532
G01 X38.2660 Y5.7747
G01 X37.8942 Y5.6206
G01 X37.5595 Y5.3970
G01 X37.2750 Y5.1125
G01 X37.0514 Y4.7778
G01 X36.9411 Y4.5117
G01 X36.9316 Y4.4912
G01 X36.9174 Y4.4673
G01 X36.9024 Y4.4470
G01 X36.8854 Y4.4284
G01 X36.8647 Y4.4098
G01 X36.8465 Y4.3964
G01 X36.8295 Y4.3860
G01 X36.8226 Y4.3822
G01 X36.8021 Y4.3727
G01 X36.7809 Y4.3650
G01 X36.7733 Y4.3628
G01 X36.7539 Y4.3581
G01 X36.7316 Y4.3547
G01 X36.7038 Y4.3531
G01 X36.4515 Y4.3531
G01 X36.4289 Y4.3541
G01 X36.4066 Y4.3572
G01 X36.3963 Y4.3592
G01 X36.3744 Y4.3650
G01 X36.3508 Y4.3737
G01 X36.3304 Y4.3835
G01 X36.3088 Y4.3964
G01 X36.2885 Y4.4114
G01 X36.2737 Y4.4247
G01 X36.2663 Y4.4322
G01 X36.2546 Y4.4450
G01 X36.2497 Y4.4512
G01 X36.2379 Y4.4673
G01 X36.2250 Y4.4889
G01 X36.2142 Y4.5117
G01 X36.2073 Y4.5305
G01 X36.2043 Y4.5405
G01 X36.1991 Y4.5625
G01 X36.1959 Y4.5848
G01 X36.1948 Y4.6048
G01 X36.1947 Y4.6126
G01 X36.1959 Y4.6352
G01 X36.1991 Y4.6575
G01 X36.2007 Y4.6652
G01 X36.2057 Y4.6846
G01 X36.2123 Y4.7034
G01 X36.2152 Y4.7107
G01 X36.2250 Y4.7311
G01 X36.2379 Y4.7527
G01 X36.2513 Y4.7709
G01 X36.2759 Y4.8009
G01 X36.3250 Y4.8929
G01 X36.3553 Y4.9927
G01 X36.3668 Y5.1091
G01 X36.3668 Y5.5589
G01 X36.3553 Y5.6753
G01 X36.3250 Y5.7751
G01 X36.2759 Y5.8671
G01 X36.2097 Y5.9477
G01 X36.1291 Y6.0139
G01 X36.0371 Y6.0630
G01 X35.9373 Y6.0933
G01 X35.8209 Y6.1048
G01 X35.2711 Y6.1048
G01 X35.1547 Y6.0933
G01 X35.0549 Y6.0630
G01 X34.9629 Y6.0139
G01 X34.8823 Y5.9477
G01 X34.8665 Y5.9285
G01 X34.8531 Y5.9138
G01 X34.8346 Y5.8966
G01 X34.8124 Y5.8799
G01 X34.7907 Y5.8670
G01 X34.7704 Y5.8572
G01 X34.7631 Y5.8543
G01 X34.7442 Y5.8477
G01 X34.7249 Y5.8427
G01 X34.7172 Y5.8411
G01 X34.6948 Y5.8379
G01 X34.6696 Y5.8366
G01 X34.6471 Y5.8377
G01 X34.6393 Y5.8385
G01 X34.6195 Y5.8416
G01 X34.6001 Y5.8463
G01 X34.5926 Y5.8485
G01 X34.5713 Y5.8562
G01 X34.5463 Y5.8682
G01 X34.5269 Y5.8799
G01 X34.5047 Y5.8966
G01 X34.4862 Y5.9138
G01 X34.4728 Y5.9285
G01 X34.4582 Y5.9462
G01 X34.4288 Y5.9704
G01 X34.3953 Y5.9883
G01 X34.3589 Y5.9993
G01 X34.3093 Y6.0042
G01 X34.1529 Y6.0031
G01 X34.1529 Y5.9087
G01 X34.1834 Y5.9010
G01 X34.2104 Y5.8915
G01 X34.2200 Y5.8875
G01 X34.2458 Y5.8751
G01 X34.2704 Y5.8606
G01 X34.2791 Y5.8548
G01 X34.3019 Y5.8376
G01 X34.3270 Y5.8150
G01 X34.3496 Y5.7899
G01 X34.3668 Y5.7671
G01 X34.3726 Y5.7584
G01 X34.3871 Y5.7338
G01 X34.4016 Y5.7033
G01 X34.4113 Y5.6764
G01 X34.4144 Y5.6664
G01 X34.4217 Y5.6361
G01 X34.4261 Y5.6052
G01 X34.4278 Y5.5715
G01 X34.4278 Y5.0965
G01 X34.4261 Y5.0628
G01 X34.4221 Y5.0345
G01 X34.4200 Y5.0242
G01 X34.4130 Y4.9966
G01 X34.4016 Y4.9647
G01 X34.3871 Y4.9342
G01 X34.3726 Y4.9096
G01 X34.3668 Y4.9009
G01 X34.3513 Y4.8801
G01 X34.3462 Y4.8741
G01 X34.3270 Y4.8530
G01 X34.3019 Y4.8304
G01 X34.2748 Y4.8102
G01 X34.2458 Y4.7929
G01 X34.2153 Y4.7784
G01 X34.1834 Y4.7670
G01 X34.1507 Y4.7588
G01 X34.1224 Y4.7545
G01 X34.1120 Y4.7535
G01 X34.0835 Y4.7522
G01 X33.5085 Y4.7522
G01 X33.4774 Y4.7536
G01 X33.4465 Y4.7579
G01 X33.4362 Y4.7600
G01 X33.4086 Y4.7670
G01 X33.3767 Y4.7784
G01 X33.3509 Y4.7905
G01 X33.3416 Y4.7954
G01 X33.3172 Y4.8102
G01 X33.2921 Y4.8287
G01 X33.2688 Y4.8494
G01 X33.2614 Y4.8568
G01 X33.2424 Y4.8781
G01 X33.2237 Y4.9031
G01 X33.2194 Y4.9096
G01 X33.2036 Y4.9365
G01 X33.1914 Y4.9623
G01 X33.1858 Y4.9771
G01 X33.0767 Y4.9771
G01 X33.0758 Y4.8706
G01 X33.0807 Y4.8211
G01 X33.0917 Y4.7847
G01 X33.1216 Y4.7288
G01 X33.1301 Y4.7107
G01 X33.1331 Y4.7034
G01 X33.1397 Y4.6846
G01 X33.1452 Y4.6627
G01 X33.1488 Y4.6404
G01 X33.1497 Y4.6326
G01 X33.1507 Y4.6100
G01 X33.1495 Y4.5848
G01 X33.1458 Y4.5599
G01 X33.1411 Y4.5405
G01 X33.1380 Y4.5305
G01 X33.1301 Y4.5093
G01 X33.1204 Y4.4889
G01 X33.1089 Y4.4695
G01 X33.0941 Y4.4491
G01 X33.0791 Y4.4322
G01 X33.0717 Y4.4247
G01 X33.0588 Y4.4131
G01 X33.0527 Y4.4082
G01 X33.0344 Y4.3950
G01 X33.0126 Y4.3822
G01 X32.9921 Y4.3727
G01 X32.9659 Y4.3635
G01 X32.9440 Y4.3581
G01 X32.9242 Y4.3550
G01 X32.9164 Y4.3541
G01 X32.8965 Y4.3532
G01 X32.7164 Y4.3531
G01 X32.6912 Y4.3544
G01 X32.6663 Y4.3581
G01 X32.6469 Y4.3628
G01 X32.6393 Y4.3650
G01 X32.6230 Y4.3708
G01 X32.6133 Y4.3748
G01 X32.5953 Y4.3835
G01 X32.5737 Y4.3964
G01 X32.5534 Y4.4114
G01 X32.5366 Y4.4265
G01 X31.7032 Y5.2599
G01 X31.6881 Y5.2767
G01 X31.6731 Y5.2970
G01 X31.6601 Y5.3186
G01 X31.6493 Y5.3414
G01 X31.6408 Y5.3651
G01 X31.6347 Y5.3896
G01 X31.6310 Y5.4145
G01 X31.6298 Y5.4371
G01 X31.6298 Y6.0484
G01 X31.6229 Y6.1185
G01 X31.6061 Y6.1737
G01 X31.5789 Y6.2246
G01 X31.5423 Y6.2693
G01 X31.5074 Y6.2981
G01 X31.4922 Y6.3121
G01 X31.4783 Y6.3274
G01 X31.4731 Y6.3336
G01 X31.4609 Y6.3503
G01 X31.4489 Y6.3703
G01 X31.4451 Y6.3774
G01 X31.4365 Y6.3962
G01 X31.4279 Y6.4208
G01 X31.4258 Y6.4287
G01 X31.4214 Y6.4488
G01 X31.4184 Y6.4720
G01 X31.4176 Y6.4980
G01 X31.4192 Y6.5213
G01 X31.4206 Y6.5320
G01 X31.4238 Y6.5496
G01 X31.4258 Y6.5575
G01 X31.4317 Y6.5773
G01 X31.4404 Y6.5990
G01 X31.4861 Y6.6974
G01 X31.5231 Y6.8492
G01 X31.5297 Y7.0053
G01 X31.5058 Y7.1597
G01 X31.4875 Y7.2098
G01 X31.4172 Y7.1395
G01 X31.4277 Y7.0963
G01 X31.4368 Y7.0355
G01 X31.4376 Y7.0277
G01 X31.4408 Y6.9610
G01 X31.4376 Y6.8943
G01 X31.4368 Y6.8865
G01 X31.4272 Y6.8231
G01 X31.4118 Y6.7609
G01 X31.4087 Y6.7508
G01 X31.3889 Y6.6954
G01 X31.3860 Y6.6881
G01 X31.3573 Y6.6278
G01 X31.3245 Y6.5728
G01 X31.3187 Y6.5640
G01 X31.2804 Y6.5126
G01 X31.2338 Y6.4612
G01 X31.1864 Y6.4181
G01 X31.1783 Y6.4114
G01 X31.1310 Y6.3763
G01 X31.1222 Y6.3705
G01 X31.0672 Y6.3377
G01 X31.0045 Y6.3080
G01 X30.9392 Y6.2846
G01 X30.8770 Y6.2689
G01 X30.8667 Y6.2669
G01 X30.8085 Y6.2582
G01 X30.7981 Y6.2572
G01 X30.7340 Y6.2542
G01 X30.6647 Y6.2576
G01 X30.5961 Y6.2678
G01 X30.5339 Y6.2832
G01 X30.5238 Y6.2863
G01 X30.4684 Y6.3061
G01 X30.4587 Y6.3101
G01 X30.4008 Y6.3377
G01 X30.3413 Y6.3733
G01 X30.2856 Y6.4146
G01 X30.2380 Y6.4576
G01 X30.2306 Y6.4650
G01 X30.1876 Y6.5126
G01 X30.1493 Y6.5640
G01 X30.1435 Y6.5728
G01 X30.1107 Y6.6278
G01 X30.0831 Y6.6857
G01 X30.0791 Y6.6954
G01 X30.0593 Y6.7508
G01 X30.0569 Y6.7583
G01 X30.0408 Y6.8231
G01 X30.0312 Y6.8865
G01 X30.0302 Y6.8969
G01 X30.0272 Y6.9584
G01 X30.0273 Y6.9662
G01 X30.0302 Y7.0251
G01 X30.0309 Y7.0329
G01 X30.0408 Y7.0989
G01 X30.0508 Y7.1395
G01 X29.9756 Y7.2148
G01 X29.9638 Y7.1970
G01 X29.9482 Y7.1776
G01 X29.9309 Y7.1599
G01 X29.9160 Y7.1471
G01 X29.9099 Y7.1423
G01 X29.8958 Y7.1326
G01 X29.8870 Y7.1272
G01 X29.8698 Y7.1177
G01 X29.8470 Y7.1078
G01 X29.8234 Y7.1002
G01 X29.8043 Y7.0958
G01 X29.7941 Y7.0941
G01 X29.7771 Y7.0920
G01 X29.7694 Y7.0916
G01 X29.7498 Y7.0912
G01 X29.7250 Y7.0930
G01 X29.7005 Y7.0972
G01 X29.6791 Y7.1030
G01 X29.6717 Y7.1054
G01 X29.6510 Y7.1136
G01 X29.6311 Y7.1235
G01 X29.6144 Y7.1338
G01 X29.6080 Y7.1381
G01 X29.5903 Y7.1517
G01 X29.5740 Y7.1668
G01 X29.5687 Y7.1724
G01 X29.5557 Y7.1872
G01 X29.5441 Y7.2030
G01 X29.5397 Y7.2094
G01 X29.5285 Y7.2287
G01 X29.5181 Y7.2512
G01 X29.5114 Y7.2697
G01 X29.5091 Y7.2771
G01 X29.5039 Y7.2987
G01 X29.5003 Y7.3232
G01 X29.4991 Y7.3480
G01 X29.4991 Y11.0097
G01 X29.5001 Y11.0323
G01 X29.5018 Y11.0490
G01 X29.4913 Y11.1555
G01 X29.4602 Y11.2579
G01 X29.4098 Y11.3522
G01 X29.3419 Y11.4349
G01 X29.3289 Y11.4456
G01 X29.3141 Y11.4590
G01 X29.3009 Y11.4722
G01 X29.2875 Y11.4870
G01 X29.2723 Y11.5071
G01 X29.2604 Y11.5263
G01 X29.2566 Y11.5332
G01 X29.2470 Y11.5537
G01 X29.2393 Y11.5749
G01 X29.2372 Y11.5825
G01 X29.2324 Y11.6019
G01 X29.2290 Y11.6242
G01 X29.2283 Y11.6320
G01 X29.2275 Y11.6546
G01 X29.2287 Y11.6772
G01 X29.2315 Y11.6969
G01 X29.2330 Y11.7047
G01 X29.2386 Y11.7266
G01 X29.2470 Y11.7503
G01 X29.2555 Y11.7684
G01 X29.2591 Y11.7754
G01 X29.2708 Y11.7947
G01 X29.2842 Y11.8129
G01 X29.2892 Y11.8189
G01 X29.3027 Y11.8336
G01 X29.3214 Y11.8506
G01 X29.3395 Y11.8641
G01 X29.3461 Y11.8684
G01 X29.3633 Y11.8785
G01 X29.3837 Y11.8883
G01 X29.4048 Y11.8962
G01 X29.4149 Y11.8992
G01 X29.4343 Y11.9039
G01 X29.4566 Y11.9073
G01 X29.4817 Y11.9088
G01 X29.5076 Y11.9089
G01 X29.5354 Y11.9073
G01 X29.5577 Y11.9039
G01 X29.5771 Y11.8992
G01 X29.5847 Y11.8970
G01 X29.6059 Y11.8893
G01 X29.6264 Y11.8798
G01 X29.6333 Y11.8760
G01 X29.6503 Y11.8656
G01 X29.6685 Y11.8522
G01 X29.6893 Y11.8336
G01 X32.6082 Y8.9147
G01 X32.6234 Y8.8981
G01 X32.6341 Y8.8851
G01 X32.7168 Y8.8172
G01 X32.8111 Y8.7668
G01 X32.9135 Y8.7357
G01 X32.9276 Y8.7342
G01 X32.9448 Y8.7316
G01 X32.9525 Y8.7300
G01 X32.9743 Y8.7242
G01 X32.9979 Y8.7155
G01 X33.0206 Y8.7045
G01 X33.0378 Y8.6942
G01 X33.0442 Y8.6898
G01 X33.0602 Y8.6778
G01 X33.0751 Y8.6645
G01 X33.0807 Y8.6590
G01 X33.0941 Y8.6442
G01 X33.1108 Y8.6219
G01 X33.1238 Y8.6003
G01 X33.1346 Y8.5775
G01 X33.1431 Y8.5538
G01 X33.1492 Y8.5293
G01 X33.1529 Y8.5044
G01 X33.1541 Y8.4792
G01 X33.1529 Y8.4540
G01 X33.1492 Y8.4291
G01 X33.1431 Y8.4047
G01 X33.1346 Y8.3809
G01 X33.1250 Y8.3605
G01 X33.1136 Y8.3409
G01 X33.1078 Y8.3322
G01 X33.0974 Y8.3183
G01 X33.0661 Y8.2801
G01 X33.0170 Y8.1881
G01 X32.9867 Y8.0883
G01 X32.9752 Y7.9719
G01 X32.9752 Y7.5221
G01 X32.9867 Y7.4057
G01 X33.0170 Y7.3059
G01 X33.0661 Y7.2139
G01 X33.1323 Y7.1333
G01 X33.2129 Y7.0671
G01 X33.3049 Y7.0180
G01 X33.4047 Y6.9877
G01 X33.5211 Y6.9762
G01 X34.0709 Y6.9762
G01 X34.1873 Y6.9877
G01 X34.2871 Y7.0180
G01 X34.3791 Y7.0671
G01 X34.4597 Y7.1333
G01 X34.4755 Y7.1525
G01 X34.4889 Y7.1672
G01 X34.5074 Y7.1844
G01 X34.5296 Y7.2011
G01 X34.5513 Y7.2140
G01 X34.5741 Y7.2248
G01 X34.5953 Y7.2325
G01 X34.6028 Y7.2347
G01 X34.6222 Y7.2394
G01 X34.6420 Y7.2425
G01 X34.6498 Y7.2433
G01 X34.6697 Y7.2443
G01 X34.6975 Y7.2431
G01 X34.7199 Y7.2399
G01 X34.7276 Y7.2383
G01 X34.7469 Y7.2333
G01 X34.7658 Y7.2267
G01 X34.7731 Y7.2238
G01 X34.7934 Y7.2140
G01 X34.8151 Y7.2011
G01 X34.8373 Y7.1844
G01 X34.8558 Y7.1672
G01 X34.8692 Y7.1525
G01 X34.8838 Y7.1348
G01 X34.9132 Y7.1106
G01 X34.9467 Y7.0927
G01 X34.9831 Y7.0817
G01 X35.0327 Y7.0768
G01 X35.1891 Y7.0779
G01 X35.1891 Y7.1723
G01 X35.1586 Y7.1800
G01 X35.1316 Y7.1895
G01 X35.1220 Y7.1935
G01 X35.0962 Y7.2059
G01 X35.0716 Y7.2204
G01 X35.0629 Y7.2262
G01 X35.0401 Y7.2434
G01 X35.0150 Y7.2660
G01 X34.9924 Y7.2911
G01 X34.9752 Y7.3139
G01 X34.9694 Y7.3226
G01 X34.9549 Y7.3472
G01 X34.9404 Y7.3777
G01 X34.9307 Y7.4046
G01 X34.9276 Y7.4146
G01 X34.9203 Y7.4449
G01 X34.9159 Y7.4758
G01 X34.9142 Y7.5095
G01 X34.9142 Y7.9845
G01 X34.9159 Y8.0182
G01 X34.9199 Y8.0465
G01 X34.9220 Y8.0568
G01 X34.9290 Y8.0844
G01 X34.9404 Y8.1163
G01 X34.9525 Y8.1421
G01 X34.9574 Y8.1514
G01 X34.9722 Y8.1758
G01 X34.9891 Y8.1988
G01 X34.9958 Y8.2069
G01 X35.0150 Y8.2280
G01 X35.0401 Y8.2506
G01 X35.0672 Y8.2708
G01 X35.0939 Y8.2869
G01 X35.1009 Y8.2905
G01 X35.1267 Y8.3026
G01 X35.1586 Y8.3140
G01 X35.1913 Y8.3222
G01 X35.2196 Y8.3265
G01 X35.2300 Y8.3275
G01 X35.2585 Y8.3288
G01 X35.8335 Y8.3288
G01 X35.8646 Y8.3274
G01 X35.8955 Y8.3231
G01 X35.9058 Y8.3210
G01 X35.9334 Y8.3140
G01 X35.9653 Y8.3026
G01 X35.9911 Y8.2905
G01 X36.0004 Y8.2856
G01 X36.0248 Y8.2708
G01 X36.0499 Y8.2523
G01 X36.0732 Y8.2316
G01 X36.0806 Y8.2242
G01 X36.0996 Y8.2029
G01 X36.1183 Y8.1779
G01 X36.1226 Y8.1714
G01 X36.1384 Y8.1445
G01 X36.1506 Y8.1187
G01 X36.1562 Y8.1039
G01 X36.2653 Y8.1039
G01 X36.2662 Y8.2104
G01 X36.2613 Y8.2599
G01 X36.2503 Y8.2963
G01 X36.2204 Y8.3522
G01 X36.2099 Y8.3751
G01 X36.2031 Y8.3939
G01 X36.2009 Y8.4015
G01 X36.1962 Y8.4209
G01 X36.1932 Y8.4406
G01 X36.1923 Y8.4484
G01 X36.1913 Y8.4684
G01 X36.1923 Y8.4936
G01 X36.1957 Y8.5185
G01 X36.2009 Y8.5405
G01 X36.2040 Y8.5505
G01 X36.2099 Y8.5669
G01 X36.2130 Y8.5741
G01 X36.2216 Y8.5921
G01 X36.2346 Y8.6137
G01 X36.2496 Y8.6340
G01 X36.2629 Y8.6488
G01 X36.2684 Y8.6545
G01 X36.2852 Y8.6696
G01 X36.3054 Y8.6846
G01 X36.3225 Y8.6950
G01 X36.3294 Y8.6988
G01 X36.3499 Y8.7083
G01 X36.3736 Y8.7168
G01 X36.3929 Y8.7218
G01 X36.4032 Y8.7238
G01 X36.4256 Y8.7269
G01 X36.4482 Y8.7279
G01 X36.7038 Y8.7279
G01 X36.7316 Y8.7263
G01 X36.7539 Y8.7229
G01 X36.7733 Y8.7182
G01 X36.7809 Y8.7160
G01 X36.8021 Y8.7083
G01 X36.8226 Y8.6988
G01 X36.8295 Y8.6950
G01 X36.8465 Y8.6846
G01 X36.8647 Y8.6712
G01 X36.8854 Y8.6526
G01 X36.9024 Y8.6340
G01 X36.9174 Y8.6137
G01 X36.9316 Y8.5898
G01 X36.9411 Y8.5693
G01 X37.0514 Y8.3032
G01 X37.2750 Y7.9685
G01 X37.5595 Y7.6840
G01 X37.8942 Y7.4604
G01 X38.2660 Y7.3063
G01 X38.6608 Y7.2278
G01 X39.0632 Y7.2278
G01 X39.4580 Y7.3063
G01 X39.8298 Y7.4604
G01 X40.1645 Y7.6840
G01 X40.4490 Y7.9685
G01 X40.6726 Y8.3032
G01 X40.8267 Y8.6750
G01 X40.9052 Y9.0698
G01 X40.9052 Y9.4722
G01 X40.8267 Y9.8670
G01 X40.6726 Y10.2388
G01 X40.4490 Y10.5735
G01 X40.1645 Y10.8580
G01 X39.8298 Y11.0816
G01 X39.4580 Y11.2357
G01 X39.0632 Y11.3142
G01 X38.6608 Y11.3142
G01 X38.2660 Y11.2357
G01 X37.8942 Y11.0816
G01 X37.5595 Y10.8580
G01 X37.2750 Y10.5735
G01 X37.0514 Y10.2388
G01 X36.9411 Y9.9727
G01 X36.9316 Y9.9522
G01 X36.9174 Y9.9283
G01 X36.9024 Y9.9080
G01 X36.8854 Y9.8894
G01 X36.8647 Y9.8708
G01 X36.8465 Y9.8574
G01 X36.8295 Y9.8470
G01 X36.8226 Y9.8432
G01 X36.8021 Y9.8337
G01 X36.7809 Y9.8260
G01 X36.7733 Y9.8238
G01 X36.7539 Y9.8191
G01 X36.7316 Y9.8157
G01 X36.7038 Y9.8141
G01 X36.4515 Y9.8141
G01 X36.4289 Y9.8151
G01 X36.4066 Y9.8182
G01 X36.3963 Y9.8202
G01 X36.3744 Y9.8260
G01 X36.3508 Y9.8347
G01 X36.3304 Y9.8445
G01 X36.3088 Y9.8574
G01 X36.2885 Y9.8724
G01 X36.2737 Y9.8857
G01 X36.2663 Y9.8932
G01 X36.2546 Y9.9060
G01 X36.2497 Y9.9122
G01 X36.2379 Y9.9283
G01 X36.2250 Y9.9499
G01 X36.2142 Y9.9727
G01 X36.2073 Y9.9915
G01 X36.2043 Y10.0015
G01 X36.1991 Y10.0235
G01 X36.1959 Y10.0458
G01 X36.1948 Y10.0658
G01 X36.1947 Y10.0736
G01 X36.1959 Y10.0962
G01 X36.1991 Y10.1185
G01 X36.2007 Y10.1262
G01 X36.2057 Y10.1456
G01 X36.2123 Y10.1644
G01 X36.2152 Y10.1717
G01 X36.2250 Y10.1921
G01 X36.2379 Y10.2137
G01 X36.2513 Y10.2319
G01 X36.2759 Y10.2619
G01 X36.3250 Y10.3539
G01 X36.3553 Y10.4537
G01 X36.3668 Y10.5701
G01 X36.3668 Y11.0199
G01 X36.3553 Y11.1363
G01 X36.3250 Y11.2361
G01 X36.2759 Y11.3281
G01 X36.2097 Y11.4087
G01 X36.1291 Y11.4749
G01 X36.0371 Y11.5240
G01 X35.9373 Y11.5543
G01 X35.8209 Y11.5658
G01 X35.2711 Y11.5658
G01 X35.1547 Y11.5543
G01 X35.0549 Y11.5240
G01 X34.9629 Y11.4749
G01 X34.8823 Y11.4087
G01 X34.8665 Y11.3895
G01 X34.8531 Y11.3748
G01 X34.8346 Y11.3576
G01 X34.8124 Y11.3409
G01 X34.7907 Y11.3280
G01 X34.7704 Y11.3182
G01 X34.7631 Y11.3153
G01 X34.7442 Y11.3087
G01 X34.7249 Y11.3037
G01 X34.7172 Y11.3021
G01 X34.6948 Y11.2989
G01 X34.6696 Y11.2976
G01 X34.6471 Y11.2987
G01 X34.6393 Y11.2995
G01 X34.6195 Y11.3026
G01 X34.6001 Y11.3073
G01 X34.5926 Y11.3095
G01 X34.5713 Y11.3172
G01 X34.5463 Y11.3292
G01 X34.5269 Y11.3409
G01 X34.5047 Y11.3576
G01 X34.4862 Y11.3748
G01 X34.4728 Y11.3895
G01 X34.4582 Y11.4072
G01 X34.4288 Y11.4314
G01 X34.3953 Y11.4493
G01 X34.3589 Y11.4603
G01 X34.3093 Y11.4652
G01 X34.1529 Y11.4641
G01 X34.1529 Y11.3697
G01 X34.1834 Y11.3620
G01 X34.2104 Y11.3525
G01 X34.2200 Y11.3485
G01 X34.2458 Y11.3361
G01 X34.2748 Y11.3188
G01 X34.2978 Y11.3019
G01 X34.3039 Y11.2970
G01 X34.3232 Y11.2796
G01 X34.3306 Y11.2722
G01 X34.3496 Y11.2509
G01 X34.3698 Y11.2238
G01 X34.3871 Y11.1948
G01 X34.3995 Y11.1690
G01 X34.4026 Y11.1618
G01 X34.4113 Y11.1374
G01 X34.4144 Y11.1274
G01 X34.4212 Y11.0997
G01 X34.4259 Y11.0688
G01 X34.4265 Y11.0610
G01 X34.4278 Y11.0325
G01 X34.4278 Y10.5575
G01 X34.4261 Y10.5238
G01 X34.4221 Y10.4955
G01 X34.4200 Y10.4852
G01 X34.4137 Y10.4601
G01 X34.4113 Y10.4526
G01 X34.4006 Y10.4233
G01 X34.3884 Y10.3975
G01 X34.3846 Y10.3906
G01 X34.3698 Y10.3662
G01 X34.3496 Y10.3391
G01 X34.3270 Y10.3140
G01 X34.3019 Y10.2914
G01 X34.2791 Y10.2742
G01 X34.2704 Y10.2684
G01 X34.2458 Y10.2539
G01 X34.2153 Y10.2394
G01 X34.1834 Y10.2280
G01 X34.1558 Y10.2210
G01 X34.1455 Y10.2189
G01 X34.1172 Y10.2149
G01 X34.0835 Y10.2132
G01 X33.5085 Y10.2132
G01 X33.4800 Y10.2145
G01 X33.4722 Y10.2151
G01 X33.4413 Y10.2198
G01 X33.4136 Y10.2266
G01 X33.4036 Y10.2297
G01 X33.3767 Y10.2394
G01 X33.3509 Y10.2515
G01 X33.3416 Y10.2564
G01 X33.3172 Y10.2712
G01 X33.2921 Y10.2897
G01 X33.2688 Y10.3104
G01 X33.2614 Y10.3178
G01 X33.2424 Y10.3391
G01 X33.2237 Y10.3641
G01 X33.2194 Y10.3706
G01 X33.2036 Y10.3975
G01 X33.1914 Y10.4233
G01 X33.1858 Y10.4381
G01 X33.0399 Y10.4381
G01 X33.0102 Y10.4085
G01 X32.9954 Y10.3951
G01 X32.9893 Y10.3901
G01 X32.9731 Y10.3784
G01 X32.9538 Y10.3667
G01 X32.9468 Y10.3630
G01 X32.9263 Y10.3536
G01 X32.9050 Y10.3461
G01 X32.8857 Y10.3411
G01 X32.8780 Y10.3395
G01 X32.8556 Y10.3363
G01 X32.8304 Y10.3351
G01 X32.8105 Y10.3359
G01 X32.8027 Y10.3366
G01 X32.7803 Y10.3400
G01 X32.7584 Y10.3454
G01 X32.7509 Y10.3478
G01 X32.7321 Y10.3546
G01 X32.7093 Y10.3654
G01 X32.6899 Y10.3769
G01 X32.6834 Y10.3814
G01 X32.6675 Y10.3934
G01 X32.6507 Y10.4085
G01 X30.2508 Y12.8083
G01 X30.2356 Y12.8249
G01 X30.2249 Y12.8379
G01 X30.1451 Y12.9034
G01 X30.1264 Y12.9204
G01 X30.1095 Y12.9390
G01 X30.0944 Y12.9593
G01 X30.0815 Y12.9809
G01 X30.0707 Y13.0037
G01 X30.0622 Y13.0274
G01 X30.0561 Y13.0519
G01 X30.0524 Y13.0768
G01 X30.0512 Y13.0994
G01 X30.0513 Y13.1072
G01 X30.0524 Y13.1272
G01 X30.0561 Y13.1521
G01 X30.0622 Y13.1766
G01 X30.0707 Y13.2003
G01 X30.0815 Y13.2231
G01 X30.0944 Y13.2447
G01 X30.1095 Y13.2650
G01 X30.1228 Y13.2798
G01 X30.1283 Y13.2855
G01 X30.1431 Y13.2989
G01 X30.1610 Y13.3126
G01 X30.1697 Y13.3184
G01 X30.1846 Y13.3273
G01 X30.1916 Y13.3309
G01 X30.2097 Y13.3393
G01 X30.2335 Y13.3478
G01 X30.2579 Y13.3539
G01 X30.2828 Y13.3576
G01 X30.3080 Y13.3589
G01 X32.7183 Y13.3589
G01 X32.7409 Y13.3579
G01 X32.7685 Y13.3539
G01 X32.7954 Y13.3470
G01 X32.8142 Y13.3403
G01 X32.8214 Y13.3372
G01 X32.8394 Y13.3285
G01 X32.8566 Y13.3184
G01 X32.8632 Y13.3141
G01 X32.8813 Y13.3006
G01 X32.9000 Y13.2836
G01 X32.9169 Y13.2650
G01 X32.9304 Y13.2469
G01 X32.9347 Y13.2403
G01 X32.9449 Y13.2231
G01 X32.9557 Y13.2003
G01 X32.9642 Y13.1766
G01 X32.9697 Y13.1547
G01 X32.9740 Y13.1272
G01 X32.9747 Y13.1156
G01 X32.9867 Y12.9937
G01 X33.0170 Y12.8939
G01 X33.0661 Y12.8019
G01 X33.1323 Y12.7213
G01 X33.2129 Y12.6551
G01 X33.3049 Y12.6060
G01 X33.4047 Y12.5757
G01 X33.5211 Y12.5642
G01 X34.0709 Y12.5642
G01 X34.1873 Y12.5757
G01 X34.2871 Y12.6060
G01 X34.3791 Y12.6551
G01 X34.4597 Y12.7213
G01 X34.4755 Y12.7405
G01 X34.4889 Y12.7552
G01 X34.5074 Y12.7724
G01 X34.5296 Y12.7891
G01 X34.5513 Y12.8020
G01 X34.5741 Y12.8128
G01 X34.5978 Y12.8213
G01 X34.6222 Y12.8274
G01 X34.6446 Y12.8308
G01 X34.6524 Y12.8315
G01 X34.6724 Y12.8324
G01 X34.6923 Y12.8315
G01 X34.7001 Y12.8308
G01 X34.7225 Y12.8274
G01 X34.7444 Y12.8220
G01 X34.7519 Y12.8197
G01 X34.7707 Y12.8128
G01 X34.7911 Y12.8032
G01 X34.8151 Y12.7891
G01 X34.8373 Y12.7724
G01 X34.8558 Y12.7552
G01 X34.8692 Y12.7405
G01 X34.8838 Y12.7228
G01 X34.9132 Y12.6986
G01 X34.9467 Y12.6807
G01 X34.9831 Y12.6697
G01 X35.0327 Y12.6648
G01 X35.1891 Y12.6659
G01 X35.1891 Y12.7603
G01 X35.1586 Y12.7680
G01 X35.1316 Y12.7775
G01 X35.1220 Y12.7815
G01 X35.0962 Y12.7939
G01 X35.0716 Y12.8084
G01 X35.0629 Y12.8142
G01 X35.0401 Y12.8314
G01 X35.0150 Y12.8540
G01 X34.9924 Y12.8791
G01 X34.9752 Y12.9019
G01 X34.9694 Y12.9106
G01 X34.9549 Y12.9352
G01 X34.9404 Y12.9657
G01 X34.9307 Y12.9926
G01 X34.9283 Y13.0001
G01 X34.9220 Y13.0252
G01 X34.9199 Y13.0355
G01 X34.9159 Y13.0638
G01 X34.9142 Y13.0975
G01 X34.9142 Y13.5725
G01 X34.9155 Y13.6010
G01 X34.9161 Y13.6088
G01 X34.9208 Y13.6397
G01 X34.9276 Y13.6674
G01 X34.9307 Y13.6774
G01 X34.9394 Y13.7018
G01 X34.9425 Y13.7090
G01 X34.9549 Y13.7348
G01 X34.9722 Y13.7638
G01 X34.9924 Y13.7909
G01 X35.0114 Y13.8122
G01 X35.0169 Y13.8178
G01 X35.0381 Y13.8370
G01 X35.0629 Y13.8558
G01 X35.0716 Y13.8616
G01 X35.0939 Y13.8749
G01 X35.1009 Y13.8785
G01 X35.1267 Y13.8906
G01 X35.1586 Y13.9020
G01 X35.1913 Y13.9102
G01 X35.2222 Y13.9149
G01 X35.2300 Y13.9155
G01 X35.2585 Y13.9168
G01 X35.8335 Y13.9168
G01 X35.8672 Y13.9151
G01 X35.8955 Y13.9111
G01 X35.9058 Y13.9090
G01 X35.9334 Y13.9020
G01 X35.9653 Y13.8906
G01 X35.9911 Y13.8785
G01 X36.0004 Y13.8736
G01 X36.0248 Y13.8588
G01 X36.0499 Y13.8403
G01 X36.0732 Y13.8196
G01 X36.0806 Y13.8122
G01 X36.0996 Y13.7909
G01 X36.1183 Y13.7659
G01 X36.1226 Y13.7594
G01 X36.1384 Y13.7325
G01 X36.1506 Y13.7067
G01 X36.1562 Y13.6919
G01 X36.2653 Y13.6919
G01 X36.2662 Y13.7984
G01 X36.2613 Y13.8479
G01 X36.2503 Y13.8843
G01 X36.2204 Y13.9402
G01 X36.2119 Y13.9583
G01 X36.2089 Y13.9656
G01 X36.2023 Y13.9844
G01 X36.1968 Y14.0063
G01 X36.1932 Y14.0286
G01 X36.1921 Y14.0390
G01 X36.1913 Y14.0590
G01 X36.1925 Y14.0842
G01 X36.1962 Y14.1091
G01 X36.2016 Y14.1310
G01 X36.2099 Y14.1549
G01 X36.2193 Y14.1754
G01 X36.2242 Y14.1846
G01 X36.2361 Y14.2039
G01 X36.2496 Y14.2220
G01 X36.2665 Y14.2406
G01 X36.2852 Y14.2576
G01 X36.3054 Y14.2726
G01 X36.3271 Y14.2855
G01 X36.3499 Y14.2963
G01 X36.3736 Y14.3048
G01 X36.3929 Y14.3098
G01 X36.4006 Y14.3114
G01 X36.4204 Y14.3143
G01 X36.4455 Y14.3158
G01 X36.7064 Y14.3158
G01 X36.7316 Y14.3143
G01 X36.7513 Y14.3114
G01 X36.7590 Y14.3098
G01 X36.7784 Y14.3048
G01 X36.7972 Y14.2982
G01 X36.8045 Y14.2953
G01 X36.8226 Y14.2868
G01 X36.8465 Y14.2726
G01 X36.8668 Y14.2576
G01 X36.8854 Y14.2406
G01 X36.9007 Y14.2240
G01 X36.9056 Y14.2178
G01 X36.9174 Y14.2017
G01 X36.9278 Y14.1847
G01 X36.9316 Y14.1778
G01 X36.9401 Y14.1597
G01 X37.0514 Y13.8912
G01 X37.2750 Y13.5565
G01 X37.5595 Y13.2720
G01 X37.8942 Y13.0484
G01 X38.2660 Y12.8943
G01 X38.6608 Y12.8158
G01 X39.0632 Y12.8158
G01 X39.4580 Y12.8943
G01 X39.8298 Y13.0484
G01 X40.1645 Y13.2720
G01 X40.4490 Y13.5565
G01 X40.6726 Y13.8912
G01 X40.8267 Y14.2630
G01 X40.9052 Y14.6578
G01 X40.9052 Y15.0602
G01 X40.8267 Y15.4550
G01 X40.6726 Y15.8268
G01 X40.4490 Y16.1615
G01 X40.1645 Y16.4460
G01 X39.8298 Y16.6696
G01 X39.4580 Y16.8237
G01 X39.0632 Y16.9022
G01 X38.6608 Y16.9022
G01 X38.2660 Y16.8237
G01 X37.8942 Y16.6696
G01 X37.5595 Y16.4460
G01 X37.2750 Y16.1615
G01 X37.0514 Y15.8268
G01 X36.9411 Y15.5607
G01 X36.9316 Y15.5402
G01 X36.9174 Y15.5163
G01 X36.9024 Y15.4960
G01 X36.8854 Y15.4774
G01 X36.8647 Y15.4588
G01 X36.8465 Y15.4454
G01 X36.8295 Y15.4350
G01 X36.8226 Y15.4312
G01 X36.8021 Y15.4217
G01 X36.7809 Y15.4140
G01 X36.7733 Y15.4118
G01 X36.7539 Y15.4071
G01 X36.7316 Y15.4037
G01 X36.7038 Y15.4021
G01 X36.4515 Y15.4021
G01 X36.4263 Y15.4034
G01 X36.4014 Y15.4071
G01 X36.3820 Y15.4118
G01 X36.3720 Y15.4148
G01 X36.3556 Y15.4207
G01 X36.3484 Y15.4238
G01 X36.3304 Y15.4325
G01 X36.3088 Y15.4454
G01 X36.2885 Y15.4604
G01 X36.2737 Y15.4737
G01 X36.2663 Y15.4812
G01 X36.2546 Y15.4940
G01 X36.2497 Y15.5002
G01 X36.2379 Y15.5163
G01 X36.2250 Y15.5379
G01 X36.2142 Y15.5607
G01 X36.2073 Y15.5795
G01 X36.2043 Y15.5895
G01 X36.1991 Y15.6115
G01 X36.1959 Y15.6338
G01 X36.1948 Y15.6538
G01 X36.1947 Y15.6616
G01 X36.1959 Y15.6842
G01 X36.1991 Y15.7065
G01 X36.2007 Y15.7142
G01 X36.2057 Y15.7336
G01 X36.2123 Y15.7524
G01 X36.2152 Y15.7597
G01 X36.2250 Y15.7801
G01 X36.2379 Y15.8017
G01 X36.2513 Y15.8199
G01 X36.2759 Y15.8499
G01 X36.3250 Y15.9419
G01 X36.3553 Y16.0417
G01 X36.3668 Y16.1581
G01 X36.3668 Y16.6079
G01 X36.3553 Y16.7243
G01 X36.3250 Y16.8241
G01 X36.2759 Y16.9161
G01 X36.2097 Y16.9967
G01 X36.1291 Y17.0629
G01 X36.0371 Y17.1120
G01 X35.9373 Y17.1423
G01 X35.8209 Y17.1538
G01 X35.2711 Y17.1538
G01 X35.1547 Y17.1423
G01 X35.0549 Y17.1120
G01 X34.9629 Y17.0629
G01 X34.8823 Y16.9967
G01 X34.8665 Y16.9775
G01 X34.8531 Y16.9628
G01 X34.8346 Y16.9456
G01 X34.8124 Y16.9289
G01 X34.7907 Y16.9160
G01 X34.7704 Y16.9062
G01 X34.7631 Y16.9033
G01 X34.7442 Y16.8967
G01 X34.7249 Y16.8917
G01 X34.7172 Y16.8901
G01 X34.6948 Y16.8869
G01 X34.6696 Y16.8856
G01 X34.6471 Y16.8867
G01 X34.6393 Y16.8875
G01 X34.6195 Y16.8906
G01 X34.6001 Y16.8953
G01 X34.5926 Y16.8975
G01 X34.5713 Y16.9052
G01 X34.5463 Y16.9172
G01 X34.5269 Y16.9289
G01 X34.5047 Y16.9456
G01 X34.4862 Y16.9628
G01 X34.4728 Y16.9775
G01 X34.4582 Y16.9952
G01 X34.4288 Y17.0194
G01 X34.3953 Y17.0373
G01 X34.3589 Y17.0483
G01 X34.3093 Y17.0532
G01 X34.1529 Y17.0521
G01 X34.1529 Y16.9577
G01 X34.1834 Y16.9500
G01 X34.2104 Y16.9405
G01 X34.2200 Y16.9365
G01 X34.2458 Y16.9241
G01 X34.2704 Y16.9096
G01 X34.2791 Y16.9038
G01 X34.3019 Y16.8866
G01 X34.3270 Y16.8640
G01 X34.3496 Y16.8389
G01 X34.3668 Y16.8161
G01 X34.3726 Y16.8074
G01 X34.3871 Y16.7828
G01 X34.3995 Y16.7570
G01 X34.4035 Y16.7474
G01 X34.4130 Y16.7204
G01 X34.4206 Y16.6902
G01 X34.4221 Y16.6825
G01 X34.4261 Y16.6542
G01 X34.4278 Y16.6231
G01 X34.4277 Y16.1403
G01 X34.4261 Y16.1118
G01 X34.4221 Y16.0835
G01 X34.4206 Y16.0758
G01 X34.4144 Y16.0506
G01 X34.4113 Y16.0406
G01 X34.4016 Y16.0137
G01 X34.3871 Y15.9832
G01 X34.3698 Y15.9542
G01 X34.3529 Y15.9312
G01 X34.3462 Y15.9231
G01 X34.3288 Y15.9039
G01 X34.3232 Y15.8984
G01 X34.3019 Y15.8794
G01 X34.2791 Y15.8622
G01 X34.2704 Y15.8564
G01 X34.2458 Y15.8419
G01 X34.2153 Y15.8274
G01 X34.1834 Y15.8160
G01 X34.1507 Y15.8078
G01 X34.1172 Y15.8029
G01 X34.0835 Y15.8012
G01 X33.5059 Y15.8012
G01 X33.4748 Y15.8029
G01 X33.4465 Y15.8069
G01 X33.4362 Y15.8090
G01 X33.4086 Y15.8160
G01 X33.3767 Y15.8274
G01 X33.3509 Y15.8395
G01 X33.3416 Y15.8444
G01 X33.3151 Y15.8607
G01 X33.2901 Y15.8794
G01 X33.2688 Y15.8984
G01 X33.2614 Y15.9058
G01 X33.2407 Y15.9291
G01 X33.2222 Y15.9542
G01 X33.2061 Y15.9809
G01 X33.1914 Y16.0113
G01 X33.1858 Y16.0261
G01 X33.0767 Y16.0261
G01 X33.0758 Y15.9196
G01 X33.0807 Y15.8701
G01 X33.0917 Y15.8337
G01 X33.1096 Y15.8002
G01 X33.1232 Y15.7836
G01 X33.1351 Y15.7675
G01 X33.1483 Y15.7460
G01 X33.1604 Y15.7210
G01 X33.1689 Y15.6972
G01 X33.1744 Y15.6753
G01 X33.1759 Y15.6676
G01 X33.1787 Y15.6478
G01 X33.1798 Y15.6279
G01 X33.1799 Y15.6200
G01 X33.1787 Y15.5975
G01 X33.1744 Y15.5700
G01 X33.1689 Y15.5481
G01 X33.1613 Y15.5268
G01 X33.1519 Y15.5062
G01 X33.1470 Y15.4970
G01 X33.1366 Y15.4799
G01 X33.1232 Y15.4617
G01 X33.0661 Y15.3921
G01 X33.0170 Y15.3001
G01 X32.9867 Y15.2003
G01 X32.9752 Y15.0839
G01 X32.9752 Y14.7020
G01 X32.9744 Y14.6820
G01 X32.9733 Y14.6716
G01 X32.9697 Y14.6493
G01 X32.9642 Y14.6274
G01 X32.9566 Y14.6061
G01 X32.9472 Y14.5856
G01 X32.9423 Y14.5763
G01 X32.9319 Y14.5593
G01 X32.9185 Y14.5411
G01 X32.9135 Y14.5351
G01 X32.8981 Y14.5185
G01 X32.8813 Y14.5034
G01 X32.8653 Y14.4914
G01 X32.8589 Y14.4870
G01 X32.8394 Y14.4755
G01 X32.8190 Y14.4657
G01 X32.8118 Y14.4628
G01 X32.7929 Y14.4562
G01 X32.7710 Y14.4506
G01 X32.7487 Y14.4470
G01 X32.7409 Y14.4461
G01 X32.7183 Y14.4451
G01 X22.5507 Y14.4451
G01 X22.5281 Y14.4461
G01 X22.5005 Y14.4501
G01 X22.4761 Y14.4562
G01 X22.4524 Y14.4647
G01 X22.4273 Y14.4767
G01 X22.4058 Y14.4899
G01 X22.3897 Y14.5018
G01 X22.3837 Y14.5069
G01 X22.3709 Y14.5185
G01 X22.3654 Y14.5242
G01 X22.3521 Y14.5390
G01 X22.3401 Y14.5550
G01 X22.3343 Y14.5637
G01 X22.3254 Y14.5786
G01 X22.3218 Y14.5856
G01 X22.3124 Y14.6061
G01 X22.3041 Y14.6300
G01 X22.2987 Y14.6519
G01 X22.2953 Y14.6742
G01 X22.2869 Y14.7595
G01 X22.2701 Y14.8147
G01 X22.2429 Y14.8656
G01 X22.2063 Y14.9103
G01 X22.1616 Y14.9469
G01 X22.1107 Y14.9741
G01 X22.0555 Y14.9909
G01 X21.9854 Y14.9978
G01 X21.5194 Y14.9978
G01 X21.4969 Y14.9990
G01 X21.4745 Y15.0022
G01 X21.4525 Y15.0074
G01 X21.4425 Y15.0105
G01 X21.4237 Y15.0173
G01 X21.4009 Y15.0281
G01 X21.3793 Y15.0411
G01 X21.3632 Y15.0529
G01 X21.3551 Y15.0595
G01 X21.3386 Y15.0749
G01 X21.3235 Y15.0917
G01 X21.3099 Y15.1098
G01 X21.2981 Y15.1290
G01 X21.2931 Y15.1383
G01 X21.2847 Y15.1564
G01 X21.2762 Y15.1801
G01 X21.2701 Y15.2045
G01 X21.2670 Y15.2243
G01 X21.2660 Y15.2347
G01 X21.2652 Y15.2573
G01 X21.2664 Y15.2798
G01 X21.2701 Y15.3048
G01 X21.2762 Y15.3292
G01 X21.2847 Y15.3530
G01 X21.2955 Y15.3758
G01 X21.3084 Y15.3974
G01 X21.3235 Y15.4176
G01 X21.3386 Y15.4344
G01 X21.6687 Y15.7646
G01 X21.6874 Y15.7816
G01 X21.7077 Y15.7966
G01 X21.7247 Y15.8070
G01 X21.7316 Y15.8108
G01 X21.7521 Y15.8203
G01 X21.7758 Y15.8288
G01 X21.7951 Y15.8338
G01 X21.8054 Y15.8358
G01 X21.8278 Y15.8389
G01 X21.8504 Y15.8399
G01 X30.4407 Y15.8399
G01 X30.4633 Y15.8389
G01 X30.4800 Y15.8372
G01 X30.5865 Y15.8477
G01 X30.6889 Y15.8788
G01 X30.7832 Y15.9292
G01 X30.8659 Y15.9971
G01 X30.8766 Y16.0101
G01 X30.8918 Y16.0267
G01 X32.5347 Y17.6696
G01 X32.5534 Y17.6866
G01 X32.5737 Y17.7016
G01 X32.5953 Y17.7145
G01 X32.6205 Y17.7263
G01 X32.6418 Y17.7338
G01 X32.6663 Y17.7399
G01 X32.6912 Y17.7436
G01 X32.7164 Y17.7449
G01 X36.0966 Y17.7449
G01 X36.1192 Y17.7439
G01 X36.1359 Y17.7422
G01 X36.2424 Y17.7527
G01 X36.3448 Y17.7838
G01 X36.4391 Y17.8342
G01 X36.5218 Y17.9021
G01 X36.5325 Y17.9151
G01 X36.5478 Y17.9317
G01 X38.2901 Y19.6740
G01 X38.3087 Y19.6910
G01 X38.3290 Y19.7060
G01 X38.3506 Y19.7189
G01 X38.3710 Y19.7287
G01 X38.3971 Y19.7382
G01 X38.4216 Y19.7443
G01 X38.4465 Y19.7480
G01 X38.4717 Y19.7493
G01 X38.4969 Y19.7480
G01 X38.5218 Y19.7443
G01 X38.5463 Y19.7382
G01 X38.5700 Y19.7297
G01 X38.5928 Y19.7189
G01 X38.6100 Y19.7088
G01 X38.6187 Y19.7030
G01 X38.6367 Y19.6893
G01 X38.6533 Y19.6740
G01 X38.7683 Y19.5591
G01 X38.9555 Y19.4340
G01 X39.1636 Y19.3478
G01 X39.3844 Y19.3039
G01 X39.6096 Y19.3039
G01 X39.8304 Y19.3478
G01 X40.0385 Y19.4340
G01 X40.2257 Y19.5591
G01 X40.3849 Y19.7183
G01 X40.5100 Y19.9055
G01 X40.5962 Y20.1136
G01 X40.6401 Y20.3344
G01 X40.6401 Y20.5596
G01 X40.5962 Y20.7804
G01 X40.5100 Y20.9885
G01 X40.3849 Y21.1757
G01 X40.2257 Y21.3349
G01 X40.0385 Y21.4600
G01 X39.9862 Y21.4818
G01 X39.9682 Y21.4905
G01 X39.9466 Y21.5034
G01 X39.9284 Y21.5168
G01 X39.9224 Y21.5219
G01 X39.9077 Y21.5354
G01 X39.8924 Y21.5520
G01 X39.8757 Y21.5743
G01 X39.8628 Y21.5959
G01 X39.8520 Y21.6187
G01 X39.8443 Y21.6399
G01 X39.8421 Y21.6475
G01 X39.8374 Y21.6669
G01 X39.8343 Y21.6866
G01 X39.8335 Y21.6944
G01 X39.8326 Y21.7118
G01 X39.8325 Y21.7196
G01 X39.8335 Y21.7396
G01 X39.8369 Y21.7645
G01 X39.8421 Y21.7865
G01 X39.8452 Y21.7965
G01 X39.8520 Y21.8153
G01 X39.8628 Y21.8381
G01 X39.8743 Y21.8575
G01 X39.8788 Y21.8640
G01 X39.8908 Y21.8800
G01 X39.9077 Y21.8986
G01 X39.9264 Y21.9156
G01 X39.9488 Y21.9320
G01 X39.9682 Y21.9435
G01 X39.9862 Y21.9522
G01 X40.0385 Y21.9740
G01 X40.2257 Y22.0991
G01 X40.3849 Y22.2583
G01 X40.5100 Y22.4455
G01 X40.5962 Y22.6536
G01 X40.6401 Y22.8744
G01 X40.6401 Y23.0996
G01 X40.5962 Y23.3204
G01 X40.5100 Y23.5285
G01 X40.3849 Y23.7157
G01 X40.2257 Y23.8749
G01 X40.0385 Y24.0000
G01 X39.9862 Y24.0218
G01 X39.9682 Y24.0305
G01 X39.9488 Y24.0420
G01 X39.9264 Y24.0584
G01 X39.9059 Y24.0772
G01 X39.8891 Y24.0961
G01 X39.8772 Y24.1121
G01 X39.8729 Y24.1187
G01 X39.8640 Y24.1336
G01 X39.8604 Y24.1406
G01 X39.8520 Y24.1587
G01 X39.8452 Y24.1775
G01 X39.8428 Y24.1850
G01 X39.8374 Y24.2069
G01 X39.8337 Y24.2318
G01 X39.8325 Y24.2570
G01 X39.8337 Y24.2822
G01 X39.8374 Y24.3071
G01 X39.8421 Y24.3265
G01 X39.8452 Y24.3365
G01 X39.8510 Y24.3529
G01 X39.8541 Y24.3601
G01 X39.8628 Y24.3781
G01 X39.8757 Y24.3997
G01 X39.8908 Y24.4200
G01 X39.9059 Y24.4368
G01 X39.9264 Y24.4556
G01 X39.9488 Y24.4720
G01 X39.9682 Y24.4835
G01 X39.9862 Y24.4922
G01 X40.0385 Y24.5140
G01 X40.2257 Y24.6391
G01 X40.3849 Y24.7983
G01 X40.5100 Y24.9855
G01 X40.5962 Y25.1936
G01 X40.6401 Y25.4144
G01 X40.6401 Y25.6396
G01 X40.5962 Y25.8604
G01 X40.5100 Y26.0685
G01 X40.3849 Y26.2557
G01 X40.2257 Y26.4149
G01 X40.0186 Y26.5534
G01 X40.0005 Y26.5669
G01 X39.9856 Y26.5802
G01 X39.9799 Y26.5857
G01 X39.9648 Y26.6026
G01 X39.9498 Y26.6229
G01 X39.9368 Y26.6445
G01 X39.9261 Y26.6673
G01 X39.9176 Y26.6911
G01 X39.9115 Y26.7156
G01 X39.9078 Y26.7406
G01 X39.9066 Y26.7658
G01 X39.9075 Y26.7858
G01 X39.9082 Y26.7936
G01 X39.9116 Y26.8160
G01 X39.9170 Y26.8379
G01 X39.9194 Y26.8454
G01 X39.9263 Y26.8642
G01 X39.9348 Y26.8823
G01 X39.9384 Y26.8893
G01 X39.9502 Y26.9086
G01 X39.9653 Y26.9289
G01 X39.9804 Y26.9456
G01 X39.9861 Y26.9511
G01 X40.0010 Y26.9644
G01 X40.0170 Y26.9764
G01 X40.0235 Y26.9808
G01 X40.0430 Y26.9923
G01 X40.0658 Y27.0031
G01 X40.0896 Y27.0115
G01 X40.1141 Y27.0175
G01 X40.1391 Y27.0212
G01 X40.1643 Y27.0223
G01 X40.3348 Y27.0217
G01 X40.3849 Y27.0267
G01 X40.4213 Y27.0377
G01 X40.4548 Y27.0556
G01 X40.4842 Y27.0798
G01 X40.5084 Y27.1092
G01 X40.5263 Y27.1427
G01 X40.5373 Y27.1791
G01 X40.5423 Y27.2292
G01 X40.5406 Y27.7101
G01 X40.4538 Y27.7101
G01 X40.4538 Y27.2170
G01 X40.4533 Y27.2065
G01 X40.4522 Y27.1987
G01 X40.4506 Y27.1910
G01 X40.4476 Y27.1810
G01 X40.4435 Y27.1713
G01 X40.4386 Y27.1621
G01 X40.4328 Y27.1534
G01 X40.4279 Y27.1472
G01 X40.4225 Y27.1415
G01 X40.4148 Y27.1344
G01 X40.4085 Y27.1297
G01 X40.3996 Y27.1241
G01 X40.3927 Y27.1205
G01 X40.3830 Y27.1164
G01 X40.3755 Y27.1141
G01 X40.3653 Y27.1118
G01 X40.3549 Y27.1105
G01 X40.3470 Y27.1102
G01 X38.6470 Y27.1102
G01 X38.6391 Y27.1105
G01 X38.6313 Y27.1114
G01 X38.6236 Y27.1128
G01 X38.6135 Y27.1156
G01 X38.6061 Y27.1183
G01 X38.5990 Y27.1216
G01 X38.5921 Y27.1254
G01 X38.5855 Y27.1297
G01 X38.5792 Y27.1344
G01 X38.5734 Y27.1397
G01 X38.5644 Y27.1492
G01 X38.5597 Y27.1555
G01 X38.5554 Y27.1621
G01 X38.5494 Y27.1737
G01 X38.5464 Y27.1810
G01 X38.5441 Y27.1885
G01 X38.5423 Y27.1962
G01 X38.5410 Y27.2039
G01 X38.5402 Y27.2170
G01 X38.5402 Y27.7101
G01 X38.4534 Y27.7101
G01 X38.4517 Y27.2292
G01 X38.4567 Y27.1791
G01 X38.4677 Y27.1427
G01 X38.4856 Y27.1092
G01 X38.5098 Y27.0798
G01 X38.5392 Y27.0556
G01 X38.5727 Y27.0377
G01 X38.6091 Y27.0267
G01 X38.6592 Y27.0217
G01 X38.8297 Y27.0223
G01 X38.8549 Y27.0212
G01 X38.8799 Y27.0175
G01 X38.9044 Y27.0115
G01 X38.9282 Y27.0031
G01 X38.9510 Y26.9923
G01 X38.9705 Y26.9808
G01 X38.9770 Y26.9764
G01 X38.9930 Y26.9644
G01 X39.0079 Y26.9511
G01 X39.0136 Y26.9456
G01 X39.0287 Y26.9289
G01 X39.0438 Y26.9086
G01 X39.0556 Y26.8893
G01 X39.0592 Y26.8823
G01 X39.0677 Y26.8642
G01 X39.0746 Y26.8454
G01 X39.0770 Y26.8379
G01 X39.0824 Y26.8160
G01 X39.0858 Y26.7936
G01 X39.0865 Y26.7858
G01 X39.0874 Y26.7632
G01 X39.0864 Y26.7432
G01 X39.0856 Y26.7354
G01 X39.0825 Y26.7156
G01 X39.0778 Y26.6962
G01 X39.0756 Y26.6886
G01 X39.0698 Y26.6722
G01 X39.0669 Y26.6649
G01 X39.0572 Y26.6445
G01 X39.0442 Y26.6229
G01 X39.0292 Y26.6026
G01 X39.0122 Y26.5839
G01 X38.9935 Y26.5669
G01 X38.9754 Y26.5534
G01 X38.7683 Y26.4149
G01 X38.6487 Y26.2954
G01 X38.6321 Y26.2801
G01 X38.6259 Y26.2752
G01 X38.6098 Y26.2634
G01 X38.5882 Y26.2505
G01 X38.5654 Y26.2397
G01 X38.5442 Y26.2320
G01 X38.5223 Y26.2262
G01 X38.5120 Y26.2242
G01 X38.4923 Y26.2214
G01 X38.4671 Y26.2201
G01 X36.0037 Y26.2201
G01 X35.9811 Y26.2211
G01 X35.9570 Y26.2235
G01 X35.8211 Y26.2101
G01 X35.6905 Y26.1705
G01 X35.5701 Y26.1061
G01 X35.4645 Y26.0195
G01 X35.4491 Y26.0008
G01 X35.4339 Y25.9841
G01 X32.6998 Y23.2500
G01 X32.6830 Y23.2349
G01 X32.6670 Y23.2229
G01 X32.6605 Y23.2185
G01 X32.6411 Y23.2070
G01 X32.6183 Y23.1962
G01 X32.5995 Y23.1893
G01 X32.5895 Y23.1863
G01 X32.5675 Y23.1811
G01 X32.5452 Y23.1779
G01 X32.5200 Y23.1766
G01 X32.4948 Y23.1779
G01 X32.4699 Y23.1816
G01 X32.4454 Y23.1877
G01 X32.4217 Y23.1962
G01 X32.3989 Y23.2070
G01 X32.3751 Y23.2214
G01 X32.3570 Y23.2349
G01 X32.3384 Y23.2519
G01 X31.8251 Y23.7651
G01 X31.8099 Y23.7818
G01 X31.7945 Y23.8005
G01 X31.6889 Y23.8871
G01 X31.5685 Y23.9515
G01 X31.4333 Y23.9925
G01 X31.4244 Y23.9943
G01 X31.4051 Y23.9993
G01 X31.3814 Y24.0078
G01 X31.3633 Y24.0162
G01 X31.3563 Y24.0198
G01 X31.3391 Y24.0301
G01 X31.3188 Y24.0449
G01 X31.2980 Y24.0635
G01 X31.2828 Y24.0801
G01 X31.2691 Y24.0981
G01 X31.2633 Y24.1068
G01 X31.2531 Y24.1240
G01 X31.2423 Y24.1468
G01 X31.2346 Y24.1680
G01 X31.2324 Y24.1756
G01 X31.2277 Y24.1950
G01 X31.2243 Y24.2173
G01 X31.2228 Y24.2451
G01 X31.2228 Y24.6454
G01 X31.2111 Y24.7642
G01 X31.1801 Y24.8664
G01 X31.1298 Y24.9605
G01 X31.0621 Y25.0431
G01 X30.9795 Y25.1108
G01 X30.8854 Y25.1611
G01 X30.7832 Y25.1921
G01 X30.6644 Y25.2038
G01 X26.7396 Y25.2038
G01 X26.6208 Y25.1921
G01 X26.5186 Y25.1611
G01 X26.4245 Y25.1108
G01 X26.3419 Y25.0431
G01 X26.2742 Y24.9605
G01 X26.2239 Y24.8664
G01 X26.1929 Y24.7642
G01 X26.1812 Y24.6454
G01 X26.1812 Y21.9706
G01 X26.1929 Y21.8518
G01 X26.2239 Y21.7496
G01 X26.2742 Y21.6555
G01 X26.3419 Y21.5730
G01 X26.3573 Y21.5593
G01 X26.3647 Y21.5518
G01 X26.3780 Y21.5370
G01 X26.3900 Y21.5210
G01 X26.3958 Y21.5123
G01 X26.4072 Y21.4928
G01 X26.4168 Y21.4723
G01 X26.4245 Y21.4511
G01 X26.4309 Y21.4267
G01 X26.4345 Y21.4044
G01 X26.4355 Y21.3940
G01 X26.4363 Y21.3766
G01 X26.4362 Y21.3688
G01 X26.4351 Y21.3488
G01 X26.4314 Y21.3239
G01 X26.4253 Y21.2994
G01 X26.4168 Y21.2757
G01 X26.4060 Y21.2529
G01 X26.3958 Y21.2357
G01 X26.3916 Y21.2291
G01 X26.3780 Y21.2110
G01 X26.3629 Y21.1942
G01 X26.3573 Y21.1887
G01 X26.3424 Y21.1754
G01 X26.3265 Y21.1634
G01 X26.3200 Y21.1590
G01 X26.3005 Y21.1475
G01 X26.2802 Y21.1377
G01 X26.2729 Y21.1348
G01 X26.2540 Y21.1282
G01 X26.2347 Y21.1232
G01 X26.2270 Y21.1216
G01 X26.2046 Y21.1184
G01 X26.1795 Y21.1171
G01 X24.8745 Y21.1171
G01 X24.8520 Y21.1181
G01 X24.8244 Y21.1221
G01 X24.8025 Y21.1275
G01 X24.7787 Y21.1357
G01 X24.7581 Y21.1451
G01 X24.7512 Y21.1487
G01 X24.7363 Y21.1576
G01 X24.7275 Y21.1634
G01 X24.7096 Y21.1771
G01 X24.6948 Y21.1905
G01 X24.6893 Y21.1962
G01 X24.6760 Y21.2110
G01 X24.6610 Y21.2313
G01 X24.6480 Y21.2529
G01 X24.6372 Y21.2757
G01 X24.6287 Y21.2994
G01 X24.6226 Y21.3239
G01 X24.6189 Y21.3488
G01 X24.6177 Y21.3714
G01 X24.6189 Y21.3992
G01 X24.6221 Y21.4215
G01 X24.6238 Y21.4292
G01 X24.6287 Y21.4486
G01 X24.6362 Y21.4699
G01 X24.6456 Y21.4904
G01 X24.6493 Y21.4974
G01 X24.6610 Y21.5167
G01 X24.6760 Y21.5370
G01 X24.6929 Y21.5556
G01 X24.7121 Y21.5730
G01 X24.7798 Y21.6555
G01 X24.8301 Y21.7496
G01 X24.8611 Y21.8518
G01 X24.8728 Y21.9706
G01 X24.8728 Y24.6454
G01 X24.8611 Y24.7642
G01 X24.8301 Y24.8664
G01 X24.7798 Y24.9605
G01 X24.7121 Y25.0431
G01 X24.6295 Y25.1108
G01 X24.5354 Y25.1611
G01 X24.4332 Y25.1921
G01 X24.3144 Y25.2038
G01 X20.3896 Y25.2038
G01 X20.2708 Y25.1921
G01 X20.1686 Y25.1611
G01 X20.0745 Y25.1108
G01 X19.9919 Y25.0431
G01 X19.9242 Y24.9605
G01 X19.8739 Y24.8664
G01 X19.8429 Y24.7642
G01 X19.8312 Y24.6454
G01 X19.8312 Y24.2580
G01 X19.8300 Y24.2328
G01 X19.8272 Y24.2131
G01 X19.8257 Y24.2053
G01 X19.8216 Y24.1885
G01 X19.8185 Y24.1785
G01 X19.8117 Y24.1597
G01 X19.8009 Y24.1369
G01 X19.7879 Y24.1153
G01 X19.7761 Y24.0992
G01 X19.7695 Y24.0911
G01 X19.7578 Y24.0782
G01 X19.7522 Y24.0727
G01 X19.7373 Y24.0594
G01 X19.7213 Y24.0474
G01 X19.7149 Y24.0430
G01 X19.6954 Y24.0315
G01 X19.6750 Y24.0217
G01 X19.6678 Y24.0188
G01 X19.6489 Y24.0122
G01 X19.6270 Y24.0066
G01 X19.5995 Y24.0024
G01 X19.5770 Y24.0012
G01 X19.5394 Y24.0013
G01 X19.5221 Y24.0021
G01 X19.4980 Y24.0045
G01 X19.3621 Y23.9911
G01 X19.2315 Y23.9515
G01 X19.1111 Y23.8871
G01 X19.0055 Y23.8005
G01 X18.9901 Y23.7818
G01 X18.9767 Y23.7670
G01 X18.9116 Y23.7019
G01 X18.8950 Y23.6866
G01 X18.8749 Y23.6714
G01 X18.8557 Y23.6595
G01 X18.8464 Y23.6546
G01 X18.8307 Y23.6472
G01 X18.8234 Y23.6443
G01 X18.8046 Y23.6377
G01 X18.7852 Y23.6327
G01 X18.7775 Y23.6311
G01 X18.7604 Y23.6285
G01 X18.7526 Y23.6276
G01 X18.7326 Y23.6267
G01 X18.7100 Y23.6275
G01 X18.7022 Y23.6282
G01 X18.6825 Y23.6311
G01 X18.6580 Y23.6370
G01 X18.6317 Y23.6462
G01 X18.6112 Y23.6558
G01 X18.5873 Y23.6699
G01 X18.5691 Y23.6833
G01 X18.5631 Y23.6884
G01 X18.5484 Y23.7019
G01 X18.5349 Y23.7166
G01 X18.5298 Y23.7226
G01 X18.5164 Y23.7408
G01 X18.5047 Y23.7601
G01 X18.5011 Y23.7671
G01 X18.4927 Y23.7852
G01 X18.4858 Y23.8040
G01 X18.4835 Y23.8115
G01 X18.4781 Y23.8334
G01 X18.4744 Y23.8583
G01 X18.4731 Y23.8835
G01 X18.4731 Y26.0243
G01 X18.4741 Y26.0469
G01 X18.4765 Y26.0710
G01 X18.4631 Y26.2069
G01 X18.4244 Y26.3344
G01 X18.4235 Y26.3375
G01 X18.3591 Y26.4579
G01 X18.2725 Y26.5635
G01 X18.2538 Y26.5789
G01 X18.2371 Y26.5941
G01 X15.9351 Y28.8961
G01 X15.9199 Y28.9128
G01 X15.9045 Y28.9315
G01 X15.7989 Y29.0181
G01 X15.6785 Y29.0825
G01 X15.5479 Y29.1221
G01 X15.4120 Y29.1355
G01 X15.3879 Y29.1331
G01 X15.3653 Y29.1321
G01 X15.1647 Y29.1321
G01 X15.1421 Y29.1331
G01 X15.1343 Y29.1340
G01 X15.1145 Y29.1371
G01 X15.0901 Y29.1432
G01 X15.0664 Y29.1517
G01 X15.0483 Y29.1601
G01 X15.0390 Y29.1650
G01 X15.0198 Y29.1769
G01 X15.0017 Y29.1904
G01 X14.9849 Y29.2055
G01 X14.9695 Y29.2221
G01 X14.9629 Y29.2302
G01 X14.9511 Y29.2463
G01 X14.9381 Y29.2679
G01 X14.9273 Y29.2907
G01 X14.9205 Y29.3095
G01 X14.9174 Y29.3195
G01 X14.9122 Y29.3415
G01 X14.9090 Y29.3638
G01 X14.9078 Y29.3864
G01 X14.9078 Y29.6764
G01 X14.9009 Y29.7465
G01 X14.8841 Y29.8017
G01 X14.8569 Y29.8526
G01 X14.8203 Y29.8973
G01 X14.7756 Y29.9339
G01 X14.7247 Y29.9611
G01 X14.6695 Y29.9779
G01 X14.5994 Y29.9848
G01 X12.3246 Y29.9848
G01 X12.2545 Y29.9779
G01 X12.1993 Y29.9611
G01 X12.1484 Y29.9339
G01 X12.1037 Y29.8973
G01 X12.0671 Y29.8526
G01 X12.0399 Y29.8017
G01 X12.0231 Y29.7465
G01 X12.0162 Y29.6764
G01 X12.0162 Y29.3980
G01 X12.0150 Y29.3728
G01 X12.0113 Y29.3479
G01 X12.0052 Y29.3234
G01 X11.9967 Y29.2997
G01 X11.9846 Y29.2746
G01 X11.9744 Y29.2575
G01 X11.9699 Y29.2510
G01 X11.9579 Y29.2350
G01 X11.9446 Y29.2202
G01 X11.9391 Y29.2145
G01 X11.9223 Y29.1994
G01 X11.9021 Y29.1844
G01 X11.8827 Y29.1727
G01 X11.8757 Y29.1691
G01 X11.8576 Y29.1607
G01 X11.8389 Y29.1538
G01 X11.8314 Y29.1515
G01 X11.8095 Y29.1461
G01 X11.7845 Y29.1424
G01 X11.7593 Y29.1411
G01 X6.2844 Y29.1412
G01 X6.2619 Y29.1424
G01 X6.2344 Y29.1466
G01 X6.2100 Y29.1530
G01 X6.1912 Y29.1597
G01 X6.1840 Y29.1628
G01 X6.1637 Y29.1727
G01 X6.1465 Y29.1830
G01 X6.1401 Y29.1874
G01 X6.1241 Y29.1994
G01 X6.1092 Y29.2127
G01 X6.1036 Y29.2182
G01 X6.0919 Y29.2311
G01 X6.0869 Y29.2371
G01 X6.0735 Y29.2553
G01 X6.0593 Y29.2792
G01 X6.0497 Y29.2997
G01 X6.0016 Y29.4158
G01 X5.7780 Y29.7505
G01 X5.4935 Y30.0350
G01 X5.1588 Y30.2586
G01 X4.7870 Y30.4127
G01 X4.3922 Y30.4912
G01 X3.9898 Y30.4912
G01 X3.5950 Y30.4127
G01 X3.2232 Y30.2586
G01 X2.8885 Y30.0350
G01 X2.6040 Y29.7505
G01 X2.3804 Y29.4158
G01 X2.2263 Y29.0440
G01 X2.1478 Y28.6492
G01 X2.1478 Y28.2468
G01 X2.2263 Y27.8520
G01 X2.3804 Y27.4802
G01 X2.6040 Y27.1455
G01 X2.8885 Y26.8610
G01 X3.2232 Y26.6374
G01 X3.5950 Y26.4833
G01 X3.9898 Y26.4048
G01 X4.3922 Y26.4048
G01 X4.7870 Y26.4833
G01 X5.1588 Y26.6374
G01 X5.4935 Y26.8610
G01 X5.7780 Y27.1455
G01 X6.0016 Y27.4802
G01 X6.0497 Y27.5963
G01 X6.0582 Y27.6144
G01 X6.0618 Y27.6214
G01 X6.0721 Y27.6385
G01 X6.0869 Y27.6589
G01 X6.1054 Y27.6796
G01 X6.1241 Y27.6966
G01 X6.1444 Y27.7116
G01 X6.1660 Y27.7245
G01 X6.1888 Y27.7353
G01 X6.2125 Y27.7438
G01 X6.2370 Y27.7499
G01 X6.2619 Y27.7536
G01 X6.2871 Y27.7549
G01 X11.7593 Y27.7549
G01 X11.7819 Y27.7539
G01 X11.7897 Y27.7530
G01 X11.8095 Y27.7499
G01 X11.8289 Y27.7452
G01 X11.8364 Y27.7430
G01 X11.8576 Y27.7353
G01 X11.8781 Y27.7258
G01 X11.8850 Y27.7220
G01 X11.9021 Y27.7116
G01 X11.9203 Y27.6982
G01 X11.9263 Y27.6931
G01 X11.9428 Y27.6778
G01 X11.9579 Y27.6610
G01 X11.9699 Y27.6450
G01 X11.9744 Y27.6385
G01 X11.9859 Y27.6191
G01 X11.9976 Y27.5939
G01 X12.0052 Y27.5726
G01 X12.0107 Y27.5507
G01 X12.0143 Y27.5284
G01 X12.0154 Y27.5180
G01 X12.0162 Y27.4980
G01 X12.0162 Y27.2016
G01 X12.0231 Y27.1315
G01 X12.0399 Y27.0763
G01 X12.0671 Y27.0254
G01 X12.1037 Y26.9807
G01 X12.1484 Y26.9441
G01 X12.1993 Y26.9169
G01 X12.2545 Y26.9001
G01 X12.3246 Y26.8932
G01 X14.5994 Y26.8932
G01 X14.6695 Y26.9001
G01 X14.7247 Y26.9169
G01 X14.7756 Y26.9441
G01 X14.8203 Y26.9807
G01 X14.8569 Y27.0254
G01 X14.8841 Y27.0763
G01 X14.9009 Y27.1315
G01 X14.9078 Y27.2016
G01 X14.9078 Y27.3455
G01 X14.9090 Y27.3680
G01 X14.9122 Y27.3904
G01 X14.9188 Y27.4174
G01 X14.9273 Y27.4411
G01 X14.9381 Y27.4639
G01 X14.9496 Y27.4834
G01 X14.9541 Y27.4898
G01 X14.9661 Y27.5058
G01 X14.9794 Y27.5207
G01 X14.9849 Y27.5263
G01 X15.0017 Y27.5414
G01 X15.0198 Y27.5549
G01 X15.0264 Y27.5592
G01 X15.0436 Y27.5694
G01 X15.0616 Y27.5780
G01 X15.0688 Y27.5811
G01 X15.0901 Y27.5887
G01 X15.1171 Y27.5953
G01 X15.1369 Y27.5982
G01 X15.1447 Y27.5989
G01 X15.1647 Y27.5997
G01 X15.1846 Y27.5989
G01 X15.1924 Y27.5982
G01 X15.2096 Y27.5957
G01 X15.2199 Y27.5936
G01 X15.2417 Y27.5879
G01 X15.2605 Y27.5811
G01 X15.2678 Y27.5780
G01 X15.2858 Y27.5694
G01 X15.3074 Y27.5564
G01 X15.3276 Y27.5414
G01 X15.3463 Y27.5245
G01 X17.0116 Y25.8591
G01 X17.0286 Y25.8405
G01 X17.0421 Y25.8224
G01 X17.0464 Y25.8158
G01 X17.0565 Y25.7986
G01 X17.0652 Y25.7806
G01 X17.0683 Y25.7734
G01 X17.0758 Y25.7521
G01 X17.0819 Y25.7276
G01 X17.0850 Y25.7079
G01 X17.0859 Y25.7001
G01 X17.0869 Y25.6775
G01 X17.0869 Y23.1427
G01 X17.0854 Y23.1149
G01 X17.0819 Y23.0925
G01 X17.0758 Y23.0681
G01 X17.0673 Y23.0444
G01 X17.0565 Y23.0216
G01 X17.0436 Y22.9999
G01 X17.0286 Y22.9797
G01 X17.0116 Y22.9610
G01 X16.9909 Y22.9425
G01 X16.9727 Y22.9291
G01 X16.9511 Y22.9161
G01 X16.9283 Y22.9053
G01 X16.9021 Y22.8961
G01 X16.8801 Y22.8907
G01 X16.8552 Y22.8870
G01 X16.8326 Y22.8858
G01 X16.7926 Y22.8858
G01 X16.7225 Y22.8789
G01 X16.6673 Y22.8621
G01 X16.6164 Y22.8349
G01 X16.5717 Y22.7983
G01 X16.5351 Y22.7536
G01 X16.5079 Y22.7027
G01 X16.4911 Y22.6475
G01 X16.4842 Y22.5774
G01 X16.4842 Y20.6026
G01 X16.4911 Y20.5325
G01 X16.5079 Y20.4773
G01 X16.5351 Y20.4264
G01 X16.5717 Y20.3817
G01 X16.6164 Y20.3451
G01 X16.6673 Y20.3179
G01 X16.7225 Y20.3011
G01 X16.7926 Y20.2942
G01 X16.9136 Y20.2942
G01 X16.9362 Y20.2932
G01 X16.9637 Y20.2893
G01 X16.9907 Y20.2824
G01 X17.0119 Y20.2747
G01 X17.0324 Y20.2651
G01 X17.0519 Y20.2537
G01 X17.0606 Y20.2479
G01 X17.0766 Y20.2359
G01 X17.0952 Y20.2190
G01 X17.1122 Y20.2003
G01 X17.1257 Y20.1822
G01 X17.1376 Y20.1630
G01 X17.1425 Y20.1537
G01 X17.1509 Y20.1356
G01 X17.1594 Y20.1119
G01 X17.1655 Y20.0875
G01 X17.1686 Y20.0677
G01 X17.1696 Y20.0573
G01 X17.1704 Y20.0347
G01 X17.1692 Y20.0122
G01 X17.1664 Y19.9924
G01 X17.1650 Y19.9847
G01 X17.1594 Y19.9628
G01 X17.1519 Y19.9415
G01 X17.1488 Y19.9342
G01 X17.1413 Y19.9186
G01 X17.1257 Y19.8893
G01 X17.1147 Y19.8529
G01 X17.1098 Y19.8033
G01 X17.1109 Y19.6469
G01 X17.2053 Y19.6469
G01 X17.2130 Y19.6774
G01 X17.2225 Y19.7044
G01 X17.2265 Y19.7140
G01 X17.2389 Y19.7398
G01 X17.2534 Y19.7644
G01 X17.2592 Y19.7731
G01 X17.2764 Y19.7959
G01 X17.2990 Y19.8210
G01 X17.3241 Y19.8436
G01 X17.3469 Y19.8608
G01 X17.3556 Y19.8666
G01 X17.3802 Y19.8811
G01 X17.4107 Y19.8956
G01 X17.4376 Y19.9053
G01 X17.4451 Y19.9077
G01 X17.4702 Y19.9140
G01 X17.4805 Y19.9161
G01 X17.5088 Y19.9201
G01 X17.5425 Y19.9218
G01 X18.0175 Y19.9218
G01 X18.0460 Y19.9205
G01 X18.0538 Y19.9199
G01 X18.0847 Y19.9152
G01 X18.1174 Y19.9070
G01 X18.1493 Y19.8956
G01 X18.1751 Y19.8835
G01 X18.1821 Y19.8799
G01 X18.2044 Y19.8666
G01 X18.2131 Y19.8608
G01 X18.2359 Y19.8436
G01 X18.2591 Y19.8228
G01 X18.2646 Y19.8172
G01 X18.2836 Y19.7959
G01 X18.3038 Y19.7688
G01 X18.3211 Y19.7398
G01 X18.3356 Y19.7093
G01 X18.3470 Y19.6774
G01 X18.3552 Y19.6447
G01 X18.3601 Y19.6112
G01 X18.3617 Y19.5827
G01 X18.3618 Y19.0025
G01 X18.3604 Y18.9714
G01 X18.3595 Y18.9636
G01 X18.3552 Y18.9353
G01 X18.3484 Y18.9076
G01 X18.3453 Y18.8976
G01 X18.3356 Y18.8707
G01 X18.3235 Y18.8449
G01 X18.3199 Y18.8379
G01 X18.3052 Y18.8134
G01 X18.3008 Y18.8069
G01 X18.2836 Y18.7841
G01 X18.2610 Y18.7590
G01 X18.2359 Y18.7364
G01 X18.2088 Y18.7162
G01 X18.1798 Y18.6989
G01 X18.1493 Y18.6844
G01 X18.1174 Y18.6730
G01 X18.0847 Y18.6648
G01 X18.0512 Y18.6599
G01 X18.0175 Y18.6582
G01 X17.5425 Y18.6582
G01 X17.5088 Y18.6599
G01 X17.4805 Y18.6639
G01 X17.4702 Y18.6660
G01 X17.4426 Y18.6730
G01 X17.4107 Y18.6844
G01 X17.3802 Y18.6989
G01 X17.3556 Y18.7134
G01 X17.3469 Y18.7192
G01 X17.3261 Y18.7347
G01 X17.3201 Y18.7398
G01 X17.2990 Y18.7590
G01 X17.2764 Y18.7841
G01 X17.2562 Y18.8112
G01 X17.2414 Y18.8356
G01 X17.2365 Y18.8449
G01 X17.2254 Y18.8683
G01 X17.2225 Y18.8756
G01 X17.2130 Y18.9026
G01 X17.2053 Y18.9331
G01 X17.1109 Y18.9331
G01 X17.1098 Y18.7767
G01 X17.1147 Y18.7271
G01 X17.1257 Y18.6907
G01 X17.1436 Y18.6572
G01 X17.1678 Y18.6278
G01 X17.1855 Y18.6132
G01 X17.2002 Y18.5998
G01 X17.2057 Y18.5942
G01 X17.2207 Y18.5773
G01 X17.2341 Y18.5591
G01 X17.2444 Y18.5420
G01 X17.2494 Y18.5328
G01 X17.2588 Y18.5122
G01 X17.2663 Y18.4909
G01 X17.2724 Y18.4665
G01 X17.2761 Y18.4415
G01 X17.2772 Y18.4216
G01 X17.2773 Y18.4137
G01 X17.2765 Y18.3964
G01 X17.2755 Y18.3860
G01 X17.2724 Y18.3662
G01 X17.2663 Y18.3418
G01 X17.2578 Y18.3181
G01 X17.2470 Y18.2953
G01 X17.2341 Y18.2736
G01 X17.2223 Y18.2575
G01 X17.2156 Y18.2494
G01 X17.2002 Y18.2329
G01 X17.1855 Y18.2195
G01 X17.1663 Y18.2037
G01 X17.1001 Y18.1231
G01 X17.0510 Y18.0311
G01 X17.0220 Y17.9356
G01 X17.0125 Y17.9095
G01 X17.0027 Y17.8891
G01 X16.9926 Y17.8719
G01 X16.9867 Y17.8632
G01 X16.9731 Y17.8452
G01 X16.9596 Y17.8304
G01 X16.9540 Y17.8249
G01 X16.9391 Y17.8116
G01 X16.9232 Y17.7996
G01 X16.9167 Y17.7952
G01 X16.8973 Y17.7836
G01 X16.8745 Y17.7729
G01 X16.8507 Y17.7644
G01 X16.8289 Y17.7588
G01 X16.8211 Y17.7574
G01 X16.8014 Y17.7546
G01 X16.7814 Y17.7534
G01 X16.7736 Y17.7533
G01 X16.7510 Y17.7546
G01 X16.7261 Y17.7583
G01 X16.7067 Y17.7630
G01 X16.6966 Y17.7660
G01 X16.6803 Y17.7719
G01 X16.6731 Y17.7750
G01 X16.6551 Y17.7836
G01 X16.6335 Y17.7966
G01 X16.6132 Y17.8116
G01 X16.5964 Y17.8267
G01 X15.3978 Y19.0253
G01 X15.3826 Y19.0419
G01 X15.3719 Y19.0549
G01 X15.2892 Y19.1228
G01 X15.1949 Y19.1732
G01 X15.0925 Y19.2043
G01 X14.9860 Y19.2148
G01 X14.9693 Y19.2131
G01 X14.9467 Y19.2121
G01 X13.2142 Y19.2121
G01 X13.1890 Y19.2134
G01 X13.1641 Y19.2171
G01 X13.1397 Y19.2232
G01 X13.1184 Y19.2307
G01 X13.1111 Y19.2338
G01 X13.0931 Y19.2425
G01 X13.0759 Y19.2526
G01 X13.0693 Y19.2569
G01 X13.0513 Y19.2704
G01 X13.0326 Y19.2874
G01 X13.0140 Y19.3081
G01 X13.0006 Y19.3263
G01 X12.9529 Y19.3977
G01 X12.7937 Y19.5569
G01 X12.6065 Y19.6820
G01 X12.3984 Y19.7682
G01 X12.1776 Y19.8121
G01 X11.9524 Y19.8121
G01 X11.7316 Y19.7682
G01 X11.5235 Y19.6820
G01 X11.3363 Y19.5569
G01 X11.1771 Y19.3977
G01 X11.1412 Y19.3441
G01 X11.1279 Y19.3259
G01 X11.1093 Y19.3051
G01 X11.0886 Y19.2866
G01 X11.0704 Y19.2732
G01 X11.0488 Y19.2602
G01 X11.0260 Y19.2495
G01 X11.0072 Y19.2426
G01 X10.9972 Y19.2396
G01 X10.9752 Y19.2344
G01 X10.9528 Y19.2311
G01 X10.9303 Y19.2299
G01 X10.9025 Y19.2311
G01 X10.8775 Y19.2348
G01 X10.8531 Y19.2410
G01 X10.8318 Y19.2485
G01 X10.8246 Y19.2516
G01 X10.8066 Y19.2602
G01 X10.7894 Y19.2704
G01 X10.7828 Y19.2747
G01 X10.7688 Y19.2850
G01 X10.7627 Y19.2899
G01 X10.7479 Y19.3033
G01 X10.7308 Y19.3218
G01 X10.7141 Y19.3441
G01 X10.7011 Y19.3657
G01 X10.6903 Y19.3885
G01 X10.6818 Y19.4122
G01 X10.6757 Y19.4367
G01 X10.6720 Y19.4616
G01 X10.6708 Y19.4842
G01 X10.6708 Y19.5064
G01 X10.6639 Y19.5765
G01 X10.6471 Y19.6317
G01 X10.6199 Y19.6826
G01 X10.5833 Y19.7273
G01 X10.5386 Y19.7639
G01 X10.4877 Y19.7911
G01 X10.4325 Y19.8079
G01 X10.3624 Y19.8148
G01 X8.6876 Y19.8148
G01 X8.6175 Y19.8079
G01 X8.5623 Y19.7911
G01 X8.5114 Y19.7639
G01 X8.4667 Y19.7273
G01 X8.4301 Y19.6826
G01 X8.4029 Y19.6317
G01 X8.3861 Y19.5765
G01 X8.3792 Y19.5064
G01 X8.3792 Y17.8316
G01 X8.3861 Y17.7615
G01 X8.4029 Y17.7063
G01 X8.4301 Y17.6554
G01 X8.4667 Y17.6107
G01 X8.5114 Y17.5741
G01 X8.5623 Y17.5469
G01 X8.6175 Y17.5301
G01 X8.6876 Y17.5232
G01 X8.7289 Y17.5232
G01 X8.7515 Y17.5220
G01 X8.7764 Y17.5183
G01 X8.7984 Y17.5129
G01 X8.8246 Y17.5037
G01 X8.8451 Y17.4941
G01 X8.8520 Y17.4903
G01 X8.8690 Y17.4799
G01 X8.8851 Y17.4681
G01 X8.8913 Y17.4632
G01 X8.9080 Y17.4480
G01 X8.9249 Y17.4293
G01 X8.9399 Y17.4091
G01 X8.9529 Y17.3874
G01 X8.9646 Y17.3622
G01 X8.9721 Y17.3409
G01 X8.9787 Y17.3139
G01 X8.9820 Y17.2915
G01 X8.9897 Y17.2125
G01 X9.0208 Y17.1102
G01 X9.0712 Y17.0158
G01 X9.1391 Y16.9331
G01 X9.1521 Y16.9224
G01 X9.1687 Y16.9072
G01 X9.4142 Y16.6617
G01 X9.4294 Y16.6451
G01 X9.4401 Y16.6321
G01 X9.5228 Y16.5642
G01 X9.6171 Y16.5138
G01 X9.7195 Y16.4827
G01 X9.8260 Y16.4722
G01 X9.8427 Y16.4739
G01 X9.8653 Y16.4749
G01 X14.7756 Y16.4749
G01 X14.8008 Y16.4736
G01 X14.8257 Y16.4699
G01 X14.8477 Y16.4645
G01 X14.8552 Y16.4622
G01 X14.8739 Y16.4553
G01 X14.8967 Y16.4445
G01 X14.9161 Y16.4330
G01 X14.9226 Y16.4286
G01 X14.9386 Y16.4166
G01 X14.9554 Y16.4015
G01 X15.9322 Y15.4246
G01 X15.9473 Y15.4078
G01 X15.9623 Y15.3876
G01 X15.9753 Y15.3660
G01 X15.9861 Y15.3432
G01 X15.9946 Y15.3194
G01 X16.0007 Y15.2950
G01 X16.0044 Y15.2701
G01 X16.0056 Y15.2449
G01 X16.0044 Y15.2197
G01 X16.0007 Y15.1948
G01 X15.9946 Y15.1703
G01 X15.9861 Y15.1466
G01 X15.9753 Y15.1238
G01 X15.9623 Y15.1022
G01 X15.9473 Y15.0819
G01 X15.9285 Y15.0614
G01 X15.9117 Y15.0463
G01 X15.8914 Y15.0313
G01 X15.8698 Y15.0183
G01 X15.8518 Y15.0097
G01 X15.8446 Y15.0066
G01 X15.8233 Y14.9991
G01 X15.8040 Y14.9941
G01 X15.7952 Y14.9923
G01 X15.7353 Y14.9741
G01 X15.6844 Y14.9469
G01 X15.6397 Y14.9103
G01 X15.6031 Y14.8656
G01 X15.5759 Y14.8147
G01 X15.5591 Y14.7595
G01 X15.5503 Y14.6716
G01 X15.5467 Y14.6493
G01 X15.5404 Y14.6249
G01 X15.5327 Y14.6037
G01 X15.5206 Y14.5786
G01 X15.5074 Y14.5571
G01 X15.4955 Y14.5411
G01 X15.4905 Y14.5351
G01 X15.4788 Y14.5222
G01 X15.4732 Y14.5167
G01 X15.4583 Y14.5034
G01 X15.4423 Y14.4914
G01 X15.4359 Y14.4870
G01 X15.4187 Y14.4767
G01 X15.3984 Y14.4668
G01 X15.3912 Y14.4637
G01 X15.3699 Y14.4562
G01 X15.3455 Y14.4501
G01 X15.3205 Y14.4464
G01 X15.2953 Y14.4451
G01 X10.9277 Y14.4451
G01 X10.8999 Y14.4467
G01 X10.8801 Y14.4496
G01 X10.8724 Y14.4512
G01 X10.8531 Y14.4562
G01 X10.8342 Y14.4628
G01 X10.8270 Y14.4657
G01 X10.8066 Y14.4755
G01 X10.7849 Y14.4884
G01 X10.7667 Y14.5018
G01 X10.7607 Y14.5069
G01 X10.7460 Y14.5204
G01 X10.7325 Y14.5351
G01 X10.7275 Y14.5411
G01 X10.7141 Y14.5593
G01 X10.7011 Y14.5809
G01 X10.6903 Y14.6037
G01 X10.6818 Y14.6274
G01 X10.6757 Y14.6519
G01 X10.6723 Y14.6742
G01 X10.6708 Y14.7020
G01 X10.6708 Y14.9344
G01 X10.6639 Y15.0045
G01 X10.6471 Y15.0597
G01 X10.6199 Y15.1106
G01 X10.5833 Y15.1553
G01 X10.5386 Y15.1919
G01 X10.4877 Y15.2191
G01 X10.4325 Y15.2359
G01 X10.3624 Y15.2428
G01 X8.6876 Y15.2428
G01 X8.6175 Y15.2359
G01 X8.5623 Y15.2191
G01 X8.5114 Y15.1919
G01 X8.4667 Y15.1553
G01 X8.4301 Y15.1106
G01 X8.4029 Y15.0597
G01 X8.3861 Y15.0045
G01 X8.3792 Y14.9344
G01 X8.3792 Y13.2596
G01 X8.3861 Y13.1895
G01 X8.4029 Y13.1343
G01 X8.4301 Y13.0834
G01 X8.4667 Y13.0387
G01 X8.5114 Y13.0021
G01 X8.5623 Y12.9749
G01 X8.6175 Y12.9581
G01 X8.6876 Y12.9512
G01 X8.9071 Y12.9512
G01 X8.9345 Y12.9497
G01 X8.9539 Y12.9469
G01 X8.9615 Y12.9453
G01 X8.9806 Y12.9405
G01 X8.9992 Y12.9340
G01 X9.0064 Y12.9312
G01 X9.0243 Y12.9229
G01 X9.0458 Y12.9105
G01 X9.0681 Y12.8945
G01 X9.0848 Y12.8798
G01 X9.0903 Y12.8743
G01 X9.1036 Y12.8598
G01 X9.1156 Y12.8442
G01 X9.1201 Y12.8379
G01 X9.1317 Y12.8189
G01 X9.1417 Y12.7990
G01 X9.1447 Y12.7918
G01 X9.1515 Y12.7734
G01 X9.1568 Y12.7544
G01 X9.1585 Y12.7468
G01 X9.1621 Y12.7249
G01 X9.1639 Y12.6975
G01 X9.1632 Y12.6752
G01 X9.1602 Y12.6506
G01 X9.1548 Y12.6263
G01 X9.1488 Y12.6076
G01 X9.1461 Y12.6003
G01 X9.1393 Y12.5846
G01 X9.1347 Y12.5754
G01 X9.1235 Y12.5561
G01 X9.1092 Y12.5358
G01 X9.0947 Y12.5189
G01 X9.0807 Y12.5051
G01 X9.0729 Y12.4983
G01 X9.0553 Y12.4846
G01 X9.0366 Y12.4725
G01 X8.9139 Y12.4008
G01 X8.7610 Y12.2654
G01 X8.6375 Y12.1028
G01 X8.5457 Y11.9139
G01 X8.6376 Y11.9139
G01 X8.6432 Y11.9279
G01 X8.6788 Y12.0034
G01 X8.6838 Y12.0126
G01 X8.7294 Y12.0886
G01 X8.7854 Y12.1640
G01 X8.8484 Y12.2336
G01 X8.9140 Y12.2932
G01 X8.9221 Y12.2998
G01 X8.9891 Y12.3495
G01 X8.9979 Y12.3554
G01 X9.0740 Y12.4008
G01 X9.1541 Y12.4388
G01 X9.1637 Y12.4429
G01 X9.2473 Y12.4726
G01 X9.3383 Y12.4954
G01 X9.4260 Y12.5086
G01 X9.4364 Y12.5096
G01 X9.5250 Y12.5138
G01 X9.6136 Y12.5096
G01 X9.6240 Y12.5086
G01 X9.7117 Y12.4954
G01 X9.8027 Y12.4726
G01 X9.8863 Y12.4429
G01 X9.8959 Y12.4388
G01 X9.9760 Y12.4008
G01 X10.0521 Y12.3554
G01 X10.0609 Y12.3495
G01 X10.1279 Y12.2998
G01 X10.1360 Y12.2932
G01 X10.2016 Y12.2336
G01 X10.2646 Y12.1640
G01 X10.3206 Y12.0886
G01 X10.3662 Y12.0126
G01 X10.3712 Y12.0034
G01 X10.4068 Y11.9279
G01 X10.4124 Y11.9139
G01 X10.5043 Y11.9139
G01 X10.4125 Y12.1028
G01 X10.2890 Y12.2654
G01 X10.1361 Y12.4008
G01 X10.0134 Y12.4725
G01 X9.9947 Y12.4846
G01 X9.9751 Y12.4999
G01 X9.9589 Y12.5152
G01 X9.9519 Y12.5228
G01 X9.9377 Y12.5399
G01 X9.9237 Y12.5605
G01 X9.9141 Y12.5776
G01 X9.9107 Y12.5846
G01 X9.9039 Y12.6003
G01 X9.9012 Y12.6076
G01 X9.8952 Y12.6263
G01 X9.8908 Y12.6455
G01 X9.8894 Y12.6531
G01 X9.8868 Y12.6752
G01 X9.8861 Y12.7001
G01 X9.8879 Y12.7249
G01 X9.8920 Y12.7494
G01 X9.8977 Y12.7709
G01 X9.9002 Y12.7782
G01 X9.9073 Y12.7966
G01 X9.9159 Y12.8143
G01 X9.9196 Y12.8211
G01 X9.9314 Y12.8400
G01 X9.9464 Y12.8598
G01 X9.9615 Y12.8762
G01 X9.9671 Y12.8815
G01 X9.9819 Y12.8945
G01 X9.9978 Y12.9062
G01 X10.0042 Y12.9105
G01 X10.0234 Y12.9217
G01 X10.0484 Y12.9332
G01 X10.0694 Y12.9405
G01 X10.0885 Y12.9453
G01 X10.0986 Y12.9473
G01 X10.1207 Y12.9502
G01 X10.1429 Y12.9512
G01 X10.3624 Y12.9512
G01 X10.4325 Y12.9581
G01 X10.4877 Y12.9749
G01 X10.5386 Y13.0021
G01 X10.5833 Y13.0387
G01 X10.6199 Y13.0834
G01 X10.6471 Y13.1343
G01 X10.6616 Y13.1815
G01 X10.6684 Y13.2003
G01 X10.6769 Y13.2184
G01 X10.6805 Y13.2254
G01 X10.6922 Y13.2447
G01 X10.7089 Y13.2670
G01 X10.7241 Y13.2836
G01 X10.7388 Y13.2971
G01 X10.7449 Y13.3022
G01 X10.7631 Y13.3156
G01 X10.7847 Y13.3285
G01 X10.8027 Y13.3372
G01 X10.8099 Y13.3403
G01 X10.8312 Y13.3478
G01 X10.8556 Y13.3539
G01 X10.8754 Y13.3570
G01 X10.8832 Y13.3579
G01 X10.9058 Y13.3589
G01 X13.4693 Y13.3589
G01 X13.4892 Y13.3580
G01 X13.4970 Y13.3573
G01 X13.5168 Y13.3544
G01 X13.5388 Y13.3492
G01 X13.5488 Y13.3462
G01 X13.5651 Y13.3403
G01 X13.5723 Y13.3372
G01 X13.5903 Y13.3285
G01 X13.6120 Y13.3156
G01 X13.6322 Y13.3006
G01 X13.6509 Y13.2836
G01 X13.6678 Y13.2650
G01 X13.6828 Y13.2447
G01 X13.6958 Y13.2231
G01 X13.7044 Y13.2051
G01 X13.7075 Y13.1979
G01 X13.7134 Y13.1815
G01 X13.7165 Y13.1715
G01 X13.7217 Y13.1495
G01 X13.7251 Y13.1246
G01 X13.7261 Y13.0994
G01 X13.7251 Y13.0794
G01 X13.7242 Y13.0716
G01 X13.7212 Y13.0519
G01 X13.7165 Y13.0325
G01 X13.7143 Y13.0249
G01 X13.7085 Y13.0086
G01 X13.7055 Y13.0013
G01 X13.6970 Y12.9832
G01 X13.6843 Y12.9615
G01 X13.6695 Y12.9411
G01 X13.6281 Y12.8906
G01 X13.6009 Y12.8397
G01 X13.5841 Y12.7845
G01 X13.5772 Y12.7144
G01 X13.5772 Y12.1896
G01 X13.5843 Y12.1180
G01 X13.5881 Y12.1021
G01 X13.5915 Y12.0798
G01 X13.5930 Y12.0520
G01 X13.5915 Y12.0242
G01 X13.5881 Y12.0019
G01 X13.5843 Y11.9860
G01 X13.5772 Y11.9144
G01 X13.5772 Y11.3896
G01 X13.5841 Y11.3195
G01 X13.6009 Y11.2643
G01 X13.6281 Y11.2134
G01 X13.6317 Y11.2089
G01 X13.8045 Y11.2089
G01 X13.8115 Y11.2143
G01 X13.8181 Y11.2186
G01 X13.8250 Y11.2224
G01 X13.8346 Y11.2266
G01 X13.8445 Y11.2299
G01 X13.8522 Y11.2317
G01 X13.8625 Y11.2333
G01 X13.8704 Y11.2338
G01 X15.4730 Y11.2338
G01 X15.4809 Y11.2335
G01 X15.4913 Y11.2322
G01 X15.4990 Y11.2306
G01 X15.5090 Y11.2276
G01 X15.5163 Y11.2246
G01 X15.5256 Y11.2199
G01 X15.5345 Y11.2143
G01 X15.5415 Y11.2089
G01 X15.7143 Y11.2089
G01 X15.7179 Y11.2134
G01 X15.7451 Y11.2643
G01 X15.7619 Y11.3195
G01 X15.7688 Y11.3896
G01 X15.7688 Y11.9144
G01 X15.7617 Y11.9860
G01 X15.7579 Y12.0019
G01 X15.7545 Y12.0242
G01 X15.7530 Y12.0520
G01 X15.7545 Y12.0798
G01 X15.7579 Y12.1021
G01 X15.7617 Y12.1180
G01 X15.7688 Y12.1896
G01 X15.7688 Y12.5493
G01 X15.7700 Y12.5745
G01 X15.7732 Y12.5969
G01 X15.7784 Y12.6189
G01 X15.7815 Y12.6289
G01 X15.7883 Y12.6476
G01 X15.7991 Y12.6704
G01 X15.8121 Y12.6921
G01 X15.8239 Y12.7082
G01 X15.8288 Y12.7143
G01 X15.8440 Y12.7310
G01 X15.8627 Y12.7479
G01 X15.8787 Y12.7599
G01 X15.8851 Y12.7644
G01 X15.9046 Y12.7759
G01 X15.9274 Y12.7867
G01 X15.9461 Y12.7935
G01 X15.9536 Y12.7959
G01 X15.9755 Y12.8013
G01 X16.0005 Y12.8050
G01 X16.0257 Y12.8062
G01 X16.3854 Y12.8062
G01 X16.4570 Y12.8133
G01 X16.4729 Y12.8171
G01 X16.4952 Y12.8205
G01 X16.5230 Y12.8220
G01 X16.5508 Y12.8205
G01 X16.5731 Y12.8171
G01 X16.5890 Y12.8133
G01 X16.6606 Y12.8062
G01 X17.1854 Y12.8062
G01 X17.2570 Y12.8133
G01 X17.2729 Y12.8171
G01 X17.2952 Y12.8205
G01 X17.3230 Y12.8220
G01 X17.3508 Y12.8205
G01 X17.3731 Y12.8171
G01 X17.3890 Y12.8133
G01 X17.4606 Y12.8062
G01 X17.9854 Y12.8062
G01 X18.0570 Y12.8133
G01 X18.0729 Y12.8171
G01 X18.0952 Y12.8205
G01 X18.1230 Y12.8220
G01 X18.1508 Y12.8205
G01 X18.1731 Y12.8171
G01 X18.1890 Y12.8133
G01 X18.2606 Y12.8062
G01 X18.7854 Y12.8062
G01 X18.8570 Y12.8133
G01 X18.8729 Y12.8171
G01 X18.8952 Y12.8205
G01 X18.9230 Y12.8220
G01 X18.9508 Y12.8205
G01 X18.9731 Y12.8171
G01 X18.9890 Y12.8133
G01 X19.0606 Y12.8062
G01 X19.5854 Y12.8062
G01 X19.6570 Y12.8133
G01 X19.6729 Y12.8171
G01 X19.6952 Y12.8205
G01 X19.7230 Y12.8220
G01 X19.7508 Y12.8205
G01 X19.7731 Y12.8171
G01 X19.7890 Y12.8133
G01 X19.8606 Y12.8062
G01 X20.3854 Y12.8062
G01 X20.4570 Y12.8133
G01 X20.4729 Y12.8171
G01 X20.4952 Y12.8205
G01 X20.5230 Y12.8220
G01 X20.5508 Y12.8205
G01 X20.5731 Y12.8171
G01 X20.5890 Y12.8133
G01 X20.6606 Y12.8062
G01 X21.1854 Y12.8062
G01 X21.2570 Y12.8133
G01 X21.2729 Y12.8171
G01 X21.2952 Y12.8205
G01 X21.3178 Y12.8219
G01 X21.3256 Y12.8220
G01 X21.3508 Y12.8205
G01 X21.3731 Y12.8171
G01 X21.3890 Y12.8133
G01 X21.4606 Y12.8062
G01 X21.8230 Y12.8062
G01 X21.8429 Y12.8052
G01 X21.8507 Y12.8043
G01 X21.8705 Y12.8013
G01 X21.8924 Y12.7959
G01 X21.9186 Y12.7867
G01 X21.9391 Y12.7771
G01 X21.9460 Y12.7733
G01 X21.9631 Y12.7629
G01 X21.9792 Y12.7511
G01 X21.9853 Y12.7462
G01 X22.0020 Y12.7310
G01 X22.0189 Y12.7123
G01 X22.0324 Y12.6942
G01 X22.0367 Y12.6876
G01 X22.0469 Y12.6704
G01 X22.0555 Y12.6524
G01 X22.0586 Y12.6452
G01 X22.0654 Y12.6264
G01 X22.0711 Y12.6046
G01 X22.0732 Y12.5943
G01 X22.0760 Y12.5745
G01 X22.0772 Y12.5520
G01 X22.0772 Y12.1896
G01 X22.0843 Y12.1180
G01 X22.0881 Y12.1021
G01 X22.0915 Y12.0798
G01 X22.0930 Y12.0520
G01 X22.0915 Y12.0242
G01 X22.0881 Y12.0019
G01 X22.0843 Y11.9860
G01 X22.0772 Y11.9144
G01 X22.0772 Y11.3896
G01 X22.0843 Y11.3180
G01 X22.0881 Y11.3021
G01 X22.0915 Y11.2798
G01 X22.0930 Y11.2520
G01 X22.0915 Y11.2242
G01 X22.0881 Y11.2019
G01 X22.0843 Y11.1860
G01 X22.0772 Y11.1144
G01 X22.0772 Y10.5896
G01 X22.0841 Y10.5195
G01 X22.1009 Y10.4643
G01 X22.1281 Y10.4134
G01 X22.1317 Y10.4089
G01 X22.3045 Y10.4089
G01 X22.3115 Y10.4143
G01 X22.3181 Y10.4186
G01 X22.3273 Y10.4235
G01 X22.3346 Y10.4266
G01 X22.3420 Y10.4292
G01 X22.3522 Y10.4317
G01 X22.3625 Y10.4333
G01 X22.3704 Y10.4338
G01 X23.9730 Y10.4338
G01 X23.9809 Y10.4335
G01 X23.9913 Y10.4322
G01 X23.9990 Y10.4306
G01 X24.0090 Y10.4276
G01 X24.0163 Y10.4246
G01 X24.0256 Y10.4199
G01 X24.0345 Y10.4143
G01 X24.0415 Y10.4089
G01 X24.2143 Y10.4089
G01 X24.2179 Y10.4134
G01 X24.2451 Y10.4643
G01 X24.2619 Y10.5195
G01 X24.2688 Y10.5896
G01 X24.2688 Y10.8520
G01 X24.2696 Y10.8720
G01 X24.2707 Y10.8824
G01 X24.2732 Y10.8995
G01 X24.2749 Y10.9072
G01 X24.2798 Y10.9266
G01 X24.2883 Y10.9503
G01 X24.2979 Y10.9708
G01 X24.3017 Y10.9777
G01 X24.3121 Y10.9947
G01 X24.3271 Y11.0150
G01 X24.3422 Y11.0318
G01 X24.3478 Y11.0373
G01 X24.3627 Y11.0506
G01 X24.3787 Y11.0626
G01 X24.3874 Y11.0684
G01 X24.4069 Y11.0798
G01 X24.4274 Y11.0893
G01 X24.4461 Y11.0962
G01 X24.4536 Y11.0985
G01 X24.4755 Y11.1039
G01 X24.4979 Y11.1073
G01 X24.5057 Y11.1080
G01 X24.5257 Y11.1089
G01 X28.0216 Y11.1089
G01 X28.0468 Y11.1076
G01 X28.0692 Y11.1044
G01 X28.0769 Y11.1028
G01 X28.0962 Y11.0978
G01 X28.1150 Y11.0912
G01 X28.1223 Y11.0883
G01 X28.1427 Y11.0785
G01 X28.1665 Y11.0641
G01 X28.1846 Y11.0506
G01 X28.2014 Y11.0355
G01 X28.3376 Y10.8993
G01 X28.3546 Y10.8806
G01 X28.3696 Y10.8603
G01 X28.3825 Y10.8387
G01 X28.3912 Y10.8207
G01 X28.3943 Y10.8135
G01 X28.4002 Y10.7972
G01 X28.4032 Y10.7871
G01 X28.4084 Y10.7652
G01 X28.4119 Y10.7402
G01 X28.4129 Y10.7176
G01 X28.4129 Y6.5628
G01 X28.4120 Y6.5429
G01 X28.4110 Y6.5324
G01 X28.4084 Y6.5153
G01 X28.4068 Y6.5076
G01 X28.4010 Y6.4858
G01 X28.3923 Y6.4621
G01 X28.3825 Y6.4417
G01 X28.3696 Y6.4201
G01 X28.3546 Y6.3999
G01 X28.3395 Y6.3831
G01 X28.3229 Y6.3677
G01 X28.3148 Y6.3610
G01 X28.2965 Y6.3478
G01 X28.2748 Y6.3351
G01 X28.2543 Y6.3255
G01 X28.2306 Y6.3170
G01 X28.2061 Y6.3109
G01 X28.1864 Y6.3078
G01 X28.1759 Y6.3068
G01 X28.1586 Y6.3060
G01 X28.1508 Y6.3061
G01 X28.1308 Y6.3072
G01 X28.1059 Y6.3109
G01 X28.0814 Y6.3170
G01 X28.0626 Y6.3236
G01 X28.0553 Y6.3265
G01 X28.0349 Y6.3363
G01 X28.0155 Y6.3478
G01 X27.9536 Y6.3891
G01 X27.9314 Y6.4058
G01 X27.9147 Y6.4211
G01 X27.8978 Y6.4397
G01 X27.8827 Y6.4600
G01 X27.8710 Y6.4793
G01 X27.8590 Y6.5044
G01 X27.8513 Y6.5256
G01 X27.8491 Y6.5332
G01 X27.8444 Y6.5526
G01 X27.8413 Y6.5723
G01 X27.8405 Y6.5801
G01 X27.8394 Y6.6027
G01 X27.8407 Y6.6279
G01 X27.8444 Y6.6528
G01 X27.8498 Y6.6747
G01 X27.8653 Y6.7261
G01 X27.8702 Y6.7756
G01 X27.8693 Y6.8821
G01 X27.7602 Y6.8821
G01 X27.7546 Y6.8673
G01 X27.7399 Y6.8369
G01 X27.7238 Y6.8102
G01 X27.7053 Y6.7851
G01 X27.6846 Y6.7618
G01 X27.6772 Y6.7544
G01 X27.6559 Y6.7354
G01 X27.6309 Y6.7167
G01 X27.6044 Y6.7004
G01 X27.5951 Y6.6955
G01 X27.5693 Y6.6834
G01 X27.5374 Y6.6720
G01 X27.5098 Y6.6650
G01 X27.4995 Y6.6629
G01 X27.4712 Y6.6589
G01 X27.4375 Y6.6572
G01 X26.8625 Y6.6572
G01 X26.8288 Y6.6589
G01 X26.8005 Y6.6629
G01 X26.7902 Y6.6650
G01 X26.7651 Y6.6713
G01 X26.7576 Y6.6737
G01 X26.7307 Y6.6834
G01 X26.7049 Y6.6955
G01 X26.6956 Y6.7004
G01 X26.6712 Y6.7152
G01 X26.6441 Y6.7354
G01 X26.6228 Y6.7544
G01 X26.6154 Y6.7618
G01 X26.5964 Y6.7831
G01 X26.5792 Y6.8059
G01 X26.5734 Y6.8146
G01 X26.5589 Y6.8392
G01 X26.5444 Y6.8697
G01 X26.5330 Y6.9016
G01 X26.5248 Y6.9343
G01 X26.5199 Y6.9678
