(G-CODE GENERATED BY FLATCAM v8.994 - www.flatcam.org - Version Date: 2020/11/7)

(Name: teste-tqfp-F_Cu.gbr_iso_combined_2_cnc)
(Type: G-code from Geometry)
(Units: MM)

(Created on Monday, 27 June 2022 at 18:52)

(This preprocessor is the default preprocessor used by FlatCAM.)
(It is made to work with MACH3 compatible motion controllers.)

(TOOL DIAMETER: 0.2136 mm)
(Feedrate_XY: 300.0 mm/min)
(Feedrate_Z: 200.0 mm/min)
(Feedrate rapids 1500.0 mm/min)

(Z_Cut: -0.1 mm)
(Z_Move: 2.0 mm)
(Z Start: None mm)
(Z End: 2.0 mm)
(X,Y End: 0.0000, 0.0000 mm)
(Steps per circle: 64)
(Preprocessor Geometry: default)

(X range:    0.0704 ...   10.5976  mm)
(Y range:    0.0704 ...   10.5976  mm)

(Spindle Speed: 10000.0 RPM)
G21
G90
G94

G01 F300.00

M5
G00 Z2.0000
G00 X0.0000 Y0.0000
T2
M6    
(MSG, Change to Tool Dia = 0.2136)
M0
G00 Z2.0000

M03 S10000.0
G01 F300.00
G00 X0.2579 Y2.0470
G01 F200.00
G01 Z-0.1000
G01 F300.00
G01 X0.2735 Y2.0457
G01 X0.2840 Y2.0454
G01 X1.8840 Y2.0454
G01 X1.8945 Y2.0457
G01 X1.9049 Y2.0464
G01 X1.9205 Y2.0485
G01 X1.9359 Y2.0518
G01 X1.9510 Y2.0562
G01 X1.9609 Y2.0597
G01 X1.9706 Y2.0637
G01 X1.9847 Y2.0706
G01 X1.9983 Y2.0785
G01 X2.0112 Y2.0874
G01 X2.0235 Y2.0973
G01 X2.0350 Y2.1080
G01 X2.0457 Y2.1195
G01 X2.0524 Y2.1276
G01 X2.0586 Y2.1360
G01 X2.0672 Y2.1492
G01 X2.0748 Y2.1630
G01 X2.0813 Y2.1773
G01 X2.0868 Y2.1920
G01 X2.0912 Y2.2071
G01 X2.0945 Y2.2225
G01 X2.0960 Y2.2329
G01 X2.0973 Y2.2485
G01 X2.0976 Y2.2590
G01 X2.0976 Y2.8090
G01 X2.0973 Y2.8195
G01 X2.0960 Y2.8351
G01 X2.0935 Y2.8507
G01 X2.0899 Y2.8660
G01 X2.0851 Y2.8810
G01 X2.0793 Y2.8956
G01 X2.0724 Y2.9097
G01 X2.0645 Y2.9233
G01 X2.0572 Y2.9340
G01 X2.0645 Y2.9447
G01 X2.0724 Y2.9583
G01 X2.0793 Y2.9724
G01 X2.0851 Y2.9870
G01 X2.0899 Y3.0020
G01 X2.0935 Y3.0173
G01 X2.0960 Y3.0329
G01 X2.0973 Y3.0485
G01 X2.0976 Y3.0590
G01 X2.0975 Y3.6142
G01 X2.0966 Y3.6299
G01 X2.0945 Y3.6455
G01 X2.0912 Y3.6609
G01 X2.0868 Y3.6760
G01 X2.0813 Y3.6907
G01 X2.0748 Y3.7050
G01 X2.0672 Y3.7188
G01 X2.0572 Y3.7340
G01 X2.0645 Y3.7447
G01 X2.0724 Y3.7583
G01 X2.0793 Y3.7724
G01 X2.0851 Y3.7870
G01 X2.0899 Y3.8020
G01 X2.0935 Y3.8173
G01 X2.0960 Y3.8329
G01 X2.0973 Y3.8485
G01 X2.0976 Y3.8590
G01 X2.0975 Y4.4142
G01 X2.0966 Y4.4299
G01 X2.0945 Y4.4455
G01 X2.0912 Y4.4609
G01 X2.0868 Y4.4760
G01 X2.0813 Y4.4907
G01 X2.0748 Y4.5050
G01 X2.0672 Y4.5188
G01 X2.0572 Y4.5340
G01 X2.0645 Y4.5447
G01 X2.0724 Y4.5583
G01 X2.0793 Y4.5724
G01 X2.0851 Y4.5870
G01 X2.0899 Y4.6020
G01 X2.0935 Y4.6173
G01 X2.0960 Y4.6329
G01 X2.0973 Y4.6485
G01 X2.0976 Y4.6590
G01 X2.0976 Y5.2090
G01 X2.0973 Y5.2195
G01 X2.0966 Y5.2299
G01 X2.0945 Y5.2455
G01 X2.0912 Y5.2609
G01 X2.0868 Y5.2760
G01 X2.0813 Y5.2907
G01 X2.0748 Y5.3050
G01 X2.0672 Y5.3188
G01 X2.0572 Y5.3340
G01 X2.0645 Y5.3447
G01 X2.0724 Y5.3583
G01 X2.0793 Y5.3724
G01 X2.0851 Y5.3870
G01 X2.0899 Y5.4020
G01 X2.0935 Y5.4173
G01 X2.0960 Y5.4329
G01 X2.0973 Y5.4485
G01 X2.0976 Y5.4590
G01 X2.0976 Y6.0090
G01 X2.0973 Y6.0195
G01 X2.0966 Y6.0299
G01 X2.0945 Y6.0455
G01 X2.0912 Y6.0609
G01 X2.0868 Y6.0760
G01 X2.0813 Y6.0907
G01 X2.0748 Y6.1050
G01 X2.0672 Y6.1188
G01 X2.0572 Y6.1340
G01 X2.0645 Y6.1447
G01 X2.0724 Y6.1583
G01 X2.0793 Y6.1724
G01 X2.0851 Y6.1870
G01 X2.0899 Y6.2020
G01 X2.0935 Y6.2173
G01 X2.0960 Y6.2329
G01 X2.0973 Y6.2485
G01 X2.0976 Y6.2590
G01 X2.0976 Y6.8090
G01 X2.0973 Y6.8195
G01 X2.0966 Y6.8299
G01 X2.0945 Y6.8455
G01 X2.0912 Y6.8609
G01 X2.0868 Y6.8760
G01 X2.0813 Y6.8907
G01 X2.0748 Y6.9050
G01 X2.0672 Y6.9188
G01 X2.0572 Y6.9340
G01 X2.0645 Y6.9447
G01 X2.0724 Y6.9583
G01 X2.0793 Y6.9724
G01 X2.0851 Y6.9870
G01 X2.0899 Y7.0020
G01 X2.0935 Y7.0173
G01 X2.0960 Y7.0329
G01 X2.0973 Y7.0485
G01 X2.0976 Y7.0590
G01 X2.0976 Y7.6090
G01 X2.0973 Y7.6195
G01 X2.0966 Y7.6299
G01 X2.0945 Y7.6455
G01 X2.0912 Y7.6609
G01 X2.0868 Y7.6760
G01 X2.0813 Y7.6907
G01 X2.0748 Y7.7050
G01 X2.0672 Y7.7188
G01 X2.0572 Y7.7340
G01 X2.0645 Y7.7447
G01 X2.0724 Y7.7583
G01 X2.0793 Y7.7724
G01 X2.0851 Y7.7870
G01 X2.0899 Y7.8020
G01 X2.0935 Y7.8173
G01 X2.0960 Y7.8329
G01 X2.0973 Y7.8485
G01 X2.0976 Y7.8590
G01 X2.0975 Y8.4142
G01 X2.0966 Y8.4299
G01 X2.0945 Y8.4455
G01 X2.0924 Y8.4558
G01 X2.0899 Y8.4660
G01 X2.0851 Y8.4810
G01 X2.0813 Y8.4907
G01 X2.0771 Y8.5003
G01 X2.0699 Y8.5143
G01 X2.0645 Y8.5233
G01 X2.0586 Y8.5320
G01 X2.0491 Y8.5445
G01 X2.0387 Y8.5563
G01 X2.0274 Y8.5673
G01 X2.0154 Y8.5774
G01 X2.0070 Y8.5836
G01 X1.9983 Y8.5895
G01 X1.9847 Y8.5974
G01 X1.9706 Y8.6043
G01 X1.9560 Y8.6101
G01 X1.9460 Y8.6134
G01 X1.9359 Y8.6162
G01 X1.9205 Y8.6195
G01 X1.9101 Y8.6210
G01 X1.8945 Y8.6223
G01 X1.8840 Y8.6226
G01 X0.2840 Y8.6226
G01 X0.2683 Y8.6220
G01 X0.2527 Y8.6203
G01 X0.2372 Y8.6174
G01 X0.2220 Y8.6134
G01 X0.2071 Y8.6083
G01 X0.1927 Y8.6021
G01 X0.1833 Y8.5974
G01 X0.1742 Y8.5922
G01 X0.1610 Y8.5836
G01 X0.1485 Y8.5741
G01 X0.1367 Y8.5637
G01 X0.1257 Y8.5524
G01 X0.1156 Y8.5404
G01 X0.1094 Y8.5320
G01 X0.1035 Y8.5233
G01 X0.0981 Y8.5143
G01 X0.0932 Y8.5050
G01 X0.0867 Y8.4907
G01 X0.0812 Y8.4760
G01 X0.0768 Y8.4609
G01 X0.0735 Y8.4455
G01 X0.0720 Y8.4351
G01 X0.0707 Y8.4195
G01 X0.0704 Y8.4090
G01 X0.0704 Y7.8590
G01 X0.0707 Y7.8485
G01 X0.0720 Y7.8329
G01 X0.0745 Y7.8173
G01 X0.0781 Y7.8020
G01 X0.0829 Y7.7870
G01 X0.0887 Y7.7724
G01 X0.0956 Y7.7583
G01 X0.1035 Y7.7447
G01 X0.1108 Y7.7340
G01 X0.1035 Y7.7233
G01 X0.0956 Y7.7097
G01 X0.0887 Y7.6956
G01 X0.0829 Y7.6810
G01 X0.0781 Y7.6660
G01 X0.0745 Y7.6507
G01 X0.0720 Y7.6351
G01 X0.0707 Y7.6195
G01 X0.0704 Y7.6090
G01 X0.0705 Y7.0538
G01 X0.0714 Y7.0381
G01 X0.0735 Y7.0225
G01 X0.0768 Y7.0071
G01 X0.0812 Y6.9920
G01 X0.0867 Y6.9773
G01 X0.0932 Y6.9630
G01 X0.1008 Y6.9492
G01 X0.1108 Y6.9340
G01 X0.1035 Y6.9233
G01 X0.0956 Y6.9097
G01 X0.0887 Y6.8956
G01 X0.0829 Y6.8810
G01 X0.0781 Y6.8660
G01 X0.0745 Y6.8507
G01 X0.0720 Y6.8351
G01 X0.0707 Y6.8195
G01 X0.0704 Y6.8090
G01 X0.0705 Y6.2538
G01 X0.0714 Y6.2381
G01 X0.0735 Y6.2225
G01 X0.0768 Y6.2071
G01 X0.0812 Y6.1920
G01 X0.0867 Y6.1773
G01 X0.0932 Y6.1630
G01 X0.1008 Y6.1492
G01 X0.1108 Y6.1340
G01 X0.1035 Y6.1233
G01 X0.0956 Y6.1097
G01 X0.0887 Y6.0956
G01 X0.0829 Y6.0810
G01 X0.0781 Y6.0660
G01 X0.0745 Y6.0507
G01 X0.0720 Y6.0351
G01 X0.0707 Y6.0195
G01 X0.0704 Y6.0090
G01 X0.0704 Y5.4590
G01 X0.0707 Y5.4485
G01 X0.0714 Y5.4381
G01 X0.0735 Y5.4225
G01 X0.0768 Y5.4071
G01 X0.0812 Y5.3920
G01 X0.0867 Y5.3773
G01 X0.0932 Y5.3630
G01 X0.1008 Y5.3492
G01 X0.1108 Y5.3340
G01 X0.1035 Y5.3233
G01 X0.0956 Y5.3097
G01 X0.0887 Y5.2956
G01 X0.0829 Y5.2810
G01 X0.0781 Y5.2660
G01 X0.0745 Y5.2507
G01 X0.0720 Y5.2351
G01 X0.0707 Y5.2195
G01 X0.0704 Y5.2090
G01 X0.0704 Y4.6590
G01 X0.0707 Y4.6485
G01 X0.0714 Y4.6381
G01 X0.0735 Y4.6225
G01 X0.0768 Y4.6071
G01 X0.0812 Y4.5920
G01 X0.0867 Y4.5773
G01 X0.0932 Y4.5630
G01 X0.1008 Y4.5492
G01 X0.1108 Y4.5340
G01 X0.1035 Y4.5233
G01 X0.0956 Y4.5097
G01 X0.0887 Y4.4956
G01 X0.0829 Y4.4810
G01 X0.0781 Y4.4660
G01 X0.0745 Y4.4507
G01 X0.0720 Y4.4351
G01 X0.0707 Y4.4195
G01 X0.0704 Y4.4090
G01 X0.0704 Y3.8590
G01 X0.0710 Y3.8433
G01 X0.0727 Y3.8277
G01 X0.0756 Y3.8122
G01 X0.0781 Y3.8020
G01 X0.0812 Y3.7920
G01 X0.0867 Y3.7773
G01 X0.0932 Y3.7630
G01 X0.1008 Y3.7492
G01 X0.1108 Y3.7340
G01 X0.1035 Y3.7233
G01 X0.0956 Y3.7097
G01 X0.0887 Y3.6956
G01 X0.0829 Y3.6810
G01 X0.0781 Y3.6660
G01 X0.0745 Y3.6507
G01 X0.0720 Y3.6351
G01 X0.0707 Y3.6195
G01 X0.0704 Y3.6090
G01 X0.0704 Y3.0590
G01 X0.0710 Y3.0433
G01 X0.0727 Y3.0277
G01 X0.0756 Y3.0122
G01 X0.0781 Y3.0020
G01 X0.0812 Y2.9920
G01 X0.0867 Y2.9773
G01 X0.0932 Y2.9630
G01 X0.1008 Y2.9492
G01 X0.1108 Y2.9340
G01 X0.1035 Y2.9233
G01 X0.0956 Y2.9097
G01 X0.0887 Y2.8956
G01 X0.0829 Y2.8810
G01 X0.0781 Y2.8660
G01 X0.0745 Y2.8507
G01 X0.0720 Y2.8351
G01 X0.0707 Y2.8195
G01 X0.0704 Y2.8090
G01 X0.0705 Y2.2538
G01 X0.0710 Y2.2433
G01 X0.0720 Y2.2329
G01 X0.0745 Y2.2173
G01 X0.0768 Y2.2071
G01 X0.0796 Y2.1970
G01 X0.0829 Y2.1870
G01 X0.0867 Y2.1773
G01 X0.0932 Y2.1630
G01 X0.0981 Y2.1537
G01 X0.1035 Y2.1447
G01 X0.1094 Y2.1360
G01 X0.1156 Y2.1276
G01 X0.1257 Y2.1156
G01 X0.1367 Y2.1043
G01 X0.1445 Y2.0973
G01 X0.1526 Y2.0906
G01 X0.1610 Y2.0844
G01 X0.1697 Y2.0785
G01 X0.1787 Y2.0731
G01 X0.1880 Y2.0682
G01 X0.1974 Y2.0637
G01 X0.2071 Y2.0597
G01 X0.2220 Y2.0546
G01 X0.2372 Y2.0506
G01 X0.2475 Y2.0485
G01 X0.2579 Y2.0470
G00 Z2.0000
G00 X0.2709 Y2.1530
G01 F200.00
G01 Z-0.1000
G01 F300.00
G01 X0.2840 Y2.1522
G01 X1.8840 Y2.1522
G01 X1.8945 Y2.1527
G01 X1.9048 Y2.1543
G01 X1.9150 Y2.1568
G01 X1.9249 Y2.1603
G01 X1.9366 Y2.1661
G01 X1.9433 Y2.1702
G01 X1.9497 Y2.1748
G01 X1.9557 Y2.1799
G01 X1.9613 Y2.1854
G01 X1.9666 Y2.1912
G01 X1.9713 Y2.1975
G01 X1.9782 Y2.2087
G01 X1.9816 Y2.2157
G01 X1.9846 Y2.2230
G01 X1.9869 Y2.2305
G01 X1.9887 Y2.2382
G01 X1.9905 Y2.2511
G01 X1.9908 Y2.2590
G01 X1.9908 Y2.8116
G01 X1.9900 Y2.8221
G01 X1.9887 Y2.8298
G01 X1.9862 Y2.8400
G01 X1.9827 Y2.8499
G01 X1.9794 Y2.8570
G01 X1.9756 Y2.8639
G01 X1.9713 Y2.8705
G01 X1.9666 Y2.8768
G01 X1.9613 Y2.8826
G01 X1.9557 Y2.8881
G01 X1.9497 Y2.8932
G01 X1.9433 Y2.8978
G01 X1.9366 Y2.9019
G01 X1.9297 Y2.9055
G01 X1.9175 Y2.9104
G01 X1.9100 Y2.9126
G01 X1.9023 Y2.9142
G01 X1.8945 Y2.9153
G01 X1.8866 Y2.9158
G01 X0.2840 Y2.9158
G01 X0.2735 Y2.9153
G01 X0.2632 Y2.9137
G01 X0.2530 Y2.9112
G01 X0.2431 Y2.9077
G01 X0.2314 Y2.9019
G01 X0.2247 Y2.8978
G01 X0.2183 Y2.8932
G01 X0.2123 Y2.8881
G01 X0.2067 Y2.8826
G01 X0.1982 Y2.8726
G01 X0.1911 Y2.8616
G01 X0.1875 Y2.8547
G01 X0.1844 Y2.8474
G01 X0.1804 Y2.8350
G01 X0.1788 Y2.8273
G01 X0.1777 Y2.8195
G01 X0.1772 Y2.8090
G01 X0.1773 Y2.2538
G01 X0.1784 Y2.2433
G01 X0.1798 Y2.2356
G01 X0.1818 Y2.2280
G01 X0.1853 Y2.2181
G01 X0.1898 Y2.2087
G01 X0.1952 Y2.1997
G01 X0.2014 Y2.1912
G01 X0.2067 Y2.1854
G01 X0.2123 Y2.1799
G01 X0.2204 Y2.1732
G01 X0.2291 Y2.1674
G01 X0.2360 Y2.1636
G01 X0.2431 Y2.1603
G01 X0.2530 Y2.1568
G01 X0.2632 Y2.1543
G01 X0.2709 Y2.1530
G00 Z2.0000
G00 X0.2709 Y2.9530
G01 F200.00
G01 Z-0.1000
G01 F300.00
G01 X0.2840 Y2.9522
G01 X1.8840 Y2.9522
G01 X1.8945 Y2.9527
G01 X1.9048 Y2.9543
G01 X1.9150 Y2.9568
G01 X1.9249 Y2.9603
G01 X1.9366 Y2.9661
G01 X1.9433 Y2.9702
G01 X1.9497 Y2.9748
G01 X1.9557 Y2.9799
G01 X1.9613 Y2.9854
G01 X1.9666 Y2.9912
G01 X1.9713 Y2.9975
G01 X1.9782 Y3.0087
G01 X1.9816 Y3.0157
G01 X1.9846 Y3.0230
G01 X1.9869 Y3.0305
G01 X1.9887 Y3.0382
G01 X1.9905 Y3.0511
G01 X1.9908 Y3.0590
G01 X1.9908 Y3.6116
G01 X1.9900 Y3.6221
G01 X1.9887 Y3.6298
G01 X1.9862 Y3.6400
G01 X1.9827 Y3.6499
G01 X1.9794 Y3.6570
G01 X1.9756 Y3.6639
G01 X1.9713 Y3.6705
G01 X1.9666 Y3.6768
G01 X1.9613 Y3.6826
G01 X1.9557 Y3.6881
G01 X1.9497 Y3.6932
G01 X1.9433 Y3.6978
G01 X1.9366 Y3.7019
G01 X1.9297 Y3.7055
G01 X1.9175 Y3.7104
G01 X1.9100 Y3.7126
G01 X1.9023 Y3.7142
G01 X1.8945 Y3.7153
G01 X1.8866 Y3.7158
G01 X0.2840 Y3.7158
G01 X0.2735 Y3.7153
G01 X0.2632 Y3.7137
G01 X0.2530 Y3.7112
G01 X0.2431 Y3.7077
G01 X0.2314 Y3.7019
G01 X0.2247 Y3.6978
G01 X0.2183 Y3.6932
G01 X0.2123 Y3.6881
G01 X0.2067 Y3.6826
G01 X0.1982 Y3.6726
G01 X0.1911 Y3.6616
G01 X0.1875 Y3.6547
G01 X0.1844 Y3.6474
G01 X0.1804 Y3.6350
G01 X0.1788 Y3.6273
G01 X0.1777 Y3.6195
G01 X0.1772 Y3.6090
G01 X0.1773 Y3.0538
G01 X0.1784 Y3.0433
G01 X0.1798 Y3.0356
G01 X0.1818 Y3.0280
G01 X0.1853 Y3.0181
G01 X0.1898 Y3.0087
G01 X0.1952 Y2.9997
G01 X0.2014 Y2.9912
G01 X0.2067 Y2.9854
G01 X0.2123 Y2.9799
G01 X0.2204 Y2.9732
G01 X0.2291 Y2.9674
G01 X0.2360 Y2.9636
G01 X0.2431 Y2.9603
G01 X0.2530 Y2.9568
G01 X0.2632 Y2.9543
G01 X0.2709 Y2.9530
G00 Z2.0000
G00 X0.2709 Y3.7530
G01 F200.00
G01 Z-0.1000
G01 F300.00
G01 X0.2840 Y3.7522
G01 X1.8840 Y3.7522
G01 X1.8945 Y3.7527
G01 X1.9048 Y3.7543
G01 X1.9150 Y3.7568
G01 X1.9249 Y3.7603
G01 X1.9366 Y3.7661
G01 X1.9433 Y3.7702
G01 X1.9497 Y3.7748
G01 X1.9557 Y3.7799
G01 X1.9613 Y3.7854
G01 X1.9666 Y3.7912
G01 X1.9713 Y3.7975
G01 X1.9782 Y3.8087
G01 X1.9816 Y3.8157
G01 X1.9846 Y3.8230
G01 X1.9869 Y3.8305
G01 X1.9887 Y3.8382
G01 X1.9905 Y3.8511
G01 X1.9908 Y3.8590
G01 X1.9908 Y4.4116
G01 X1.9900 Y4.4221
G01 X1.9887 Y4.4298
G01 X1.9862 Y4.4400
G01 X1.9827 Y4.4499
G01 X1.9794 Y4.4570
G01 X1.9756 Y4.4639
G01 X1.9682 Y4.4747
G01 X1.9631 Y4.4807
G01 X1.9576 Y4.4863
G01 X1.9518 Y4.4916
G01 X1.9455 Y4.4963
G01 X1.9389 Y4.5006
G01 X1.9320 Y4.5044
G01 X1.9249 Y4.5077
G01 X1.9175 Y4.5104
G01 X1.9100 Y4.5126
G01 X1.9023 Y4.5142
G01 X1.8945 Y4.5153
G01 X1.8866 Y4.5158
G01 X0.2840 Y4.5158
G01 X0.2735 Y4.5153
G01 X0.2632 Y4.5137
G01 X0.2530 Y4.5112
G01 X0.2431 Y4.5077
G01 X0.2314 Y4.5019
G01 X0.2247 Y4.4978
G01 X0.2183 Y4.4932
G01 X0.2085 Y4.4845
G01 X0.2031 Y4.4788
G01 X0.1982 Y4.4726
G01 X0.1911 Y4.4616
G01 X0.1875 Y4.4547
G01 X0.1844 Y4.4474
G01 X0.1804 Y4.4350
G01 X0.1788 Y4.4273
G01 X0.1777 Y4.4195
G01 X0.1772 Y4.4090
G01 X0.1773 Y3.8538
G01 X0.1784 Y3.8433
G01 X0.1798 Y3.8356
G01 X0.1818 Y3.8280
G01 X0.1853 Y3.8181
G01 X0.1898 Y3.8087
G01 X0.1952 Y3.7997
G01 X0.2014 Y3.7912
G01 X0.2067 Y3.7854
G01 X0.2123 Y3.7799
G01 X0.2204 Y3.7732
G01 X0.2291 Y3.7674
G01 X0.2360 Y3.7636
G01 X0.2431 Y3.7603
G01 X0.2530 Y3.7568
G01 X0.2632 Y3.7543
G01 X0.2709 Y3.7530
G00 Z2.0000
G00 X0.2709 Y4.5530
G01 F200.00
G01 Z-0.1000
G01 F300.00
G01 X0.2840 Y4.5522
G01 X1.8840 Y4.5522
G01 X1.8945 Y4.5527
G01 X1.9048 Y4.5543
G01 X1.9150 Y4.5568
G01 X1.9249 Y4.5603
G01 X1.9320 Y4.5636
G01 X1.9389 Y4.5674
G01 X1.9455 Y4.5717
G01 X1.9518 Y4.5764
G01 X1.9613 Y4.5854
G01 X1.9666 Y4.5912
G01 X1.9713 Y4.5975
G01 X1.9756 Y4.6041
G01 X1.9794 Y4.6110
G01 X1.9846 Y4.6230
G01 X1.9869 Y4.6305
G01 X1.9887 Y4.6382
G01 X1.9905 Y4.6511
G01 X1.9908 Y4.6590
G01 X1.9908 Y5.2116
G01 X1.9900 Y5.2221
G01 X1.9887 Y5.2298
G01 X1.9862 Y5.2400
G01 X1.9827 Y5.2499
G01 X1.9794 Y5.2570
G01 X1.9756 Y5.2639
G01 X1.9682 Y5.2747
G01 X1.9631 Y5.2807
G01 X1.9576 Y5.2863
G01 X1.9518 Y5.2916
G01 X1.9455 Y5.2963
G01 X1.9389 Y5.3006
G01 X1.9320 Y5.3044
G01 X1.9249 Y5.3077
G01 X1.9175 Y5.3104
G01 X1.9100 Y5.3126
G01 X1.9023 Y5.3142
G01 X1.8945 Y5.3153
G01 X1.8866 Y5.3158
G01 X0.2840 Y5.3158
G01 X0.2735 Y5.3153
G01 X0.2632 Y5.3137
G01 X0.2530 Y5.3112
G01 X0.2431 Y5.3077
G01 X0.2314 Y5.3019
G01 X0.2247 Y5.2978
G01 X0.2183 Y5.2932
G01 X0.2085 Y5.2845
G01 X0.2031 Y5.2788
G01 X0.1982 Y5.2726
G01 X0.1911 Y5.2616
G01 X0.1875 Y5.2547
G01 X0.1844 Y5.2474
G01 X0.1804 Y5.2350
G01 X0.1788 Y5.2273
G01 X0.1777 Y5.2195
G01 X0.1772 Y5.2090
G01 X0.1773 Y4.6538
G01 X0.1784 Y4.6433
G01 X0.1798 Y4.6356
G01 X0.1818 Y4.6280
G01 X0.1853 Y4.6181
G01 X0.1898 Y4.6087
G01 X0.1938 Y4.6019
G01 X0.1998 Y4.5933
G01 X0.2049 Y4.5873
G01 X0.2123 Y4.5799
G01 X0.2204 Y4.5732
G01 X0.2291 Y4.5674
G01 X0.2360 Y4.5636
G01 X0.2456 Y4.5594
G01 X0.2530 Y4.5568
G01 X0.2632 Y4.5543
G01 X0.2709 Y4.5530
G00 Z2.0000
G00 X0.2709 Y5.3530
G01 F200.00
G01 Z-0.1000
G01 F300.00
G01 X0.2840 Y5.3522
G01 X1.8840 Y5.3522
G01 X1.8945 Y5.3527
G01 X1.9048 Y5.3543
G01 X1.9150 Y5.3568
G01 X1.9249 Y5.3603
G01 X1.9320 Y5.3636
G01 X1.9389 Y5.3674
G01 X1.9455 Y5.3717
G01 X1.9518 Y5.3764
G01 X1.9613 Y5.3854
G01 X1.9666 Y5.3912
G01 X1.9713 Y5.3975
G01 X1.9756 Y5.4041
G01 X1.9794 Y5.4110
G01 X1.9846 Y5.4230
G01 X1.9869 Y5.4305
G01 X1.9887 Y5.4382
G01 X1.9905 Y5.4511
G01 X1.9908 Y5.4590
G01 X1.9908 Y6.0116
G01 X1.9900 Y6.0221
G01 X1.9887 Y6.0298
G01 X1.9862 Y6.0400
G01 X1.9827 Y6.0499
G01 X1.9769 Y6.0616
G01 X1.9728 Y6.0683
G01 X1.9682 Y6.0747
G01 X1.9631 Y6.0807
G01 X1.9576 Y6.0863
G01 X1.9518 Y6.0916
G01 X1.9455 Y6.0963
G01 X1.9389 Y6.1006
G01 X1.9320 Y6.1044
G01 X1.9249 Y6.1077
G01 X1.9175 Y6.1104
G01 X1.9100 Y6.1126
G01 X1.9023 Y6.1142
G01 X1.8945 Y6.1153
G01 X1.8866 Y6.1158
G01 X0.2840 Y6.1158
G01 X0.2735 Y6.1153
G01 X0.2632 Y6.1137
G01 X0.2530 Y6.1112
G01 X0.2431 Y6.1077
G01 X0.2314 Y6.1019
G01 X0.2247 Y6.0978
G01 X0.2183 Y6.0932
G01 X0.2085 Y6.0845
G01 X0.2031 Y6.0788
G01 X0.1982 Y6.0726
G01 X0.1911 Y6.0616
G01 X0.1875 Y6.0547
G01 X0.1844 Y6.0474
G01 X0.1804 Y6.0350
G01 X0.1788 Y6.0273
G01 X0.1777 Y6.0195
G01 X0.1772 Y6.0090
G01 X0.1773 Y5.4538
G01 X0.1784 Y5.4433
G01 X0.1798 Y5.4356
G01 X0.1818 Y5.4280
G01 X0.1853 Y5.4181
G01 X0.1898 Y5.4087
G01 X0.1938 Y5.4019
G01 X0.1998 Y5.3933
G01 X0.2049 Y5.3873
G01 X0.2123 Y5.3799
G01 X0.2204 Y5.3732
G01 X0.2291 Y5.3674
G01 X0.2360 Y5.3636
G01 X0.2456 Y5.3594
G01 X0.2530 Y5.3568
G01 X0.2632 Y5.3543
G01 X0.2709 Y5.3530
G00 Z2.0000
G00 X0.2709 Y6.1530
G01 F200.00
G01 Z-0.1000
G01 F300.00
G01 X0.2840 Y6.1522
G01 X1.8840 Y6.1522
G01 X1.8945 Y6.1527
G01 X1.9048 Y6.1543
G01 X1.9150 Y6.1568
G01 X1.9249 Y6.1603
G01 X1.9320 Y6.1636
G01 X1.9389 Y6.1674
G01 X1.9455 Y6.1717
G01 X1.9518 Y6.1764
G01 X1.9613 Y6.1854
G01 X1.9666 Y6.1912
G01 X1.9713 Y6.1975
G01 X1.9756 Y6.2041
G01 X1.9794 Y6.2110
G01 X1.9846 Y6.2230
G01 X1.9869 Y6.2305
G01 X1.9887 Y6.2382
G01 X1.9905 Y6.2511
G01 X1.9908 Y6.2590
G01 X1.9908 Y6.8116
G01 X1.9900 Y6.8221
G01 X1.9887 Y6.8298
G01 X1.9862 Y6.8400
G01 X1.9827 Y6.8499
G01 X1.9794 Y6.8570
G01 X1.9756 Y6.8639
G01 X1.9682 Y6.8747
G01 X1.9631 Y6.8807
G01 X1.9576 Y6.8863
G01 X1.9518 Y6.8916
G01 X1.9455 Y6.8963
G01 X1.9389 Y6.9006
G01 X1.9320 Y6.9044
G01 X1.9249 Y6.9077
G01 X1.9175 Y6.9104
G01 X1.9100 Y6.9126
G01 X1.9023 Y6.9142
G01 X1.8945 Y6.9153
G01 X1.8866 Y6.9158
G01 X0.2840 Y6.9158
G01 X0.2735 Y6.9153
G01 X0.2632 Y6.9137
G01 X0.2530 Y6.9112
G01 X0.2431 Y6.9077
G01 X0.2314 Y6.9019
G01 X0.2247 Y6.8978
G01 X0.2183 Y6.8932
G01 X0.2085 Y6.8845
G01 X0.2031 Y6.8788
G01 X0.1982 Y6.8726
G01 X0.1911 Y6.8616
G01 X0.1875 Y6.8547
G01 X0.1844 Y6.8474
G01 X0.1804 Y6.8350
G01 X0.1788 Y6.8273
G01 X0.1777 Y6.8195
G01 X0.1772 Y6.8090
G01 X0.1773 Y6.2538
G01 X0.1784 Y6.2433
G01 X0.1798 Y6.2356
G01 X0.1818 Y6.2280
G01 X0.1853 Y6.2181
G01 X0.1898 Y6.2087
G01 X0.1938 Y6.2019
G01 X0.1998 Y6.1933
G01 X0.2049 Y6.1873
G01 X0.2123 Y6.1799
G01 X0.2204 Y6.1732
G01 X0.2291 Y6.1674
G01 X0.2360 Y6.1636
G01 X0.2456 Y6.1594
G01 X0.2530 Y6.1568
G01 X0.2632 Y6.1543
G01 X0.2709 Y6.1530
G00 Z2.0000
G00 X0.2761 Y6.9525
G01 F200.00
G01 Z-0.1000
G01 F300.00
G01 X0.2840 Y6.9522
G01 X1.8840 Y6.9522
G01 X1.8945 Y6.9527
G01 X1.9048 Y6.9543
G01 X1.9150 Y6.9568
G01 X1.9249 Y6.9603
G01 X1.9320 Y6.9636
G01 X1.9389 Y6.9674
G01 X1.9455 Y6.9717
G01 X1.9518 Y6.9764
G01 X1.9613 Y6.9854
G01 X1.9666 Y6.9912
G01 X1.9713 Y6.9975
G01 X1.9756 Y7.0041
G01 X1.9794 Y7.0110
G01 X1.9846 Y7.0230
G01 X1.9869 Y7.0305
G01 X1.9887 Y7.0382
G01 X1.9905 Y7.0511
G01 X1.9908 Y7.0590
G01 X1.9908 Y7.6116
G01 X1.9900 Y7.6221
G01 X1.9887 Y7.6298
G01 X1.9862 Y7.6400
G01 X1.9827 Y7.6499
G01 X1.9769 Y7.6616
G01 X1.9728 Y7.6683
G01 X1.9682 Y7.6747
G01 X1.9631 Y7.6807
G01 X1.9576 Y7.6863
G01 X1.9518 Y7.6916
G01 X1.9455 Y7.6963
G01 X1.9389 Y7.7006
G01 X1.9320 Y7.7044
G01 X1.9249 Y7.7077
G01 X1.9175 Y7.7104
G01 X1.9100 Y7.7126
G01 X1.9023 Y7.7142
G01 X1.8945 Y7.7153
G01 X1.8866 Y7.7158
G01 X0.2840 Y7.7158
G01 X0.2735 Y7.7153
G01 X0.2632 Y7.7137
G01 X0.2530 Y7.7112
G01 X0.2431 Y7.7077
G01 X0.2314 Y7.7019
G01 X0.2247 Y7.6978
G01 X0.2183 Y7.6932
G01 X0.2085 Y7.6845
G01 X0.2031 Y7.6788
G01 X0.1982 Y7.6726
G01 X0.1911 Y7.6616
G01 X0.1875 Y7.6547
G01 X0.1844 Y7.6474
G01 X0.1804 Y7.6350
G01 X0.1788 Y7.6273
G01 X0.1777 Y7.6195
G01 X0.1772 Y7.6090
G01 X0.1773 Y7.0538
G01 X0.1784 Y7.0433
G01 X0.1798 Y7.0356
G01 X0.1826 Y7.0255
G01 X0.1864 Y7.0157
G01 X0.1898 Y7.0087
G01 X0.1952 Y6.9997
G01 X0.2014 Y6.9912
G01 X0.2085 Y6.9835
G01 X0.2162 Y6.9764
G01 X0.2225 Y6.9717
G01 X0.2314 Y6.9661
G01 X0.2407 Y6.9614
G01 X0.2505 Y6.9576
G01 X0.2580 Y6.9554
G01 X0.2683 Y6.9534
G01 X0.2761 Y6.9525
G00 Z2.0000
G00 X0.2735 Y7.7527
G01 F200.00
G01 Z-0.1000
G01 F300.00
G01 X0.2840 Y7.7522
G01 X1.8840 Y7.7522
G01 X1.8945 Y7.7527
G01 X1.9048 Y7.7543
G01 X1.9150 Y7.7568
G01 X1.9249 Y7.7603
G01 X1.9366 Y7.7661
G01 X1.9433 Y7.7702
G01 X1.9497 Y7.7748
G01 X1.9557 Y7.7799
G01 X1.9613 Y7.7854
G01 X1.9698 Y7.7954
G01 X1.9742 Y7.8019
G01 X1.9782 Y7.8087
G01 X1.9816 Y7.8157
G01 X1.9846 Y7.8230
G01 X1.9869 Y7.8305
G01 X1.9887 Y7.8382
G01 X1.9905 Y7.8511
G01 X1.9908 Y7.8590
G01 X1.9908 Y8.4116
G01 X1.9900 Y8.4221
G01 X1.9887 Y8.4298
G01 X1.9862 Y8.4400
G01 X1.9827 Y8.4499
G01 X1.9769 Y8.4616
G01 X1.9728 Y8.4683
G01 X1.9682 Y8.4747
G01 X1.9631 Y8.4807
G01 X1.9576 Y8.4863
G01 X1.9518 Y8.4916
G01 X1.9455 Y8.4963
G01 X1.9389 Y8.5006
G01 X1.9320 Y8.5044
G01 X1.9249 Y8.5077
G01 X1.9175 Y8.5104
G01 X1.9100 Y8.5126
G01 X1.9023 Y8.5142
G01 X1.8945 Y8.5153
G01 X1.8866 Y8.5158
G01 X0.2840 Y8.5158
G01 X0.2735 Y8.5153
G01 X0.2632 Y8.5137
G01 X0.2530 Y8.5112
G01 X0.2431 Y8.5077
G01 X0.2360 Y8.5044
G01 X0.2291 Y8.5006
G01 X0.2183 Y8.4932
G01 X0.2123 Y8.4881
G01 X0.2067 Y8.4826
G01 X0.1982 Y8.4726
G01 X0.1938 Y8.4661
G01 X0.1898 Y8.4593
G01 X0.1844 Y8.4474
G01 X0.1818 Y8.4400
G01 X0.1798 Y8.4324
G01 X0.1777 Y8.4195
G01 X0.1772 Y8.4090
G01 X0.1773 Y7.8538
G01 X0.1784 Y7.8433
G01 X0.1798 Y7.8356
G01 X0.1818 Y7.8280
G01 X0.1853 Y7.8181
G01 X0.1898 Y7.8087
G01 X0.1952 Y7.7997
G01 X0.1998 Y7.7933
G01 X0.2067 Y7.7854
G01 X0.2123 Y7.7799
G01 X0.2204 Y7.7732
G01 X0.2291 Y7.7674
G01 X0.2360 Y7.7636
G01 X0.2456 Y7.7594
G01 X0.2555 Y7.7561
G01 X0.2632 Y7.7543
G01 X0.2735 Y7.7527
G00 Z2.0000
G00 X2.2485 Y8.6777
G01 F200.00
G01 Z-0.1000
G01 F300.00
G01 X2.2590 Y8.6772
G01 X2.8090 Y8.6772
G01 X2.8195 Y8.6777
G01 X2.8273 Y8.6788
G01 X2.8350 Y8.6804
G01 X2.8425 Y8.6826
G01 X2.8499 Y8.6853
G01 X2.8570 Y8.6886
G01 X2.8639 Y8.6924
G01 X2.8705 Y8.6967
G01 X2.8768 Y8.7014
G01 X2.8863 Y8.7104
G01 X2.8916 Y8.7162
G01 X2.8963 Y8.7225
G01 X2.9006 Y8.7291
G01 X2.9044 Y8.7360
G01 X2.9077 Y8.7431
G01 X2.9104 Y8.7505
G01 X2.9126 Y8.7580
G01 X2.9142 Y8.7657
G01 X2.9153 Y8.7735
G01 X2.9158 Y8.7840
G01 X2.9157 Y10.3892
G01 X2.9150 Y10.3971
G01 X2.9132 Y10.4074
G01 X2.9112 Y10.4150
G01 X2.9086 Y10.4224
G01 X2.9055 Y10.4297
G01 X2.9019 Y10.4366
G01 X2.8978 Y10.4433
G01 X2.8932 Y10.4497
G01 X2.8881 Y10.4557
G01 X2.8826 Y10.4613
G01 X2.8768 Y10.4666
G01 X2.8705 Y10.4713
G01 X2.8639 Y10.4756
G01 X2.8570 Y10.4794
G01 X2.8499 Y10.4827
G01 X2.8425 Y10.4854
G01 X2.8324 Y10.4882
G01 X2.8247 Y10.4896
G01 X2.8169 Y10.4905
G01 X2.8090 Y10.4908
G01 X2.2590 Y10.4908
G01 X2.2485 Y10.4903
G01 X2.2407 Y10.4892
G01 X2.2330 Y10.4876
G01 X2.2255 Y10.4854
G01 X2.2181 Y10.4827
G01 X2.2110 Y10.4794
G01 X2.2041 Y10.4756
G01 X2.1933 Y10.4682
G01 X2.1873 Y10.4631
G01 X2.1817 Y10.4576
G01 X2.1764 Y10.4518
G01 X2.1717 Y10.4455
G01 X2.1674 Y10.4389
G01 X2.1636 Y10.4320
G01 X2.1603 Y10.4249
G01 X2.1576 Y10.4175
G01 X2.1554 Y10.4100
G01 X2.1538 Y10.4023
G01 X2.1527 Y10.3945
G01 X2.1522 Y10.3840
G01 X2.1523 Y8.7788
G01 X2.1534 Y8.7683
G01 X2.1548 Y8.7606
G01 X2.1568 Y8.7530
G01 X2.1603 Y8.7431
G01 X2.1648 Y8.7337
G01 X2.1688 Y8.7269
G01 X2.1748 Y8.7183
G01 X2.1817 Y8.7104
G01 X2.1873 Y8.7049
G01 X2.1954 Y8.6982
G01 X2.2019 Y8.6938
G01 X2.2110 Y8.6886
G01 X2.2206 Y8.6844
G01 X2.2305 Y8.6811
G01 X2.2382 Y8.6793
G01 X2.2485 Y8.6777
G00 Z2.0000
G00 X3.0329 Y8.5720
G01 F200.00
G01 Z-0.1000
G01 F300.00
G01 X3.0485 Y8.5707
G01 X3.0590 Y8.5704
G01 X3.6090 Y8.5704
G01 X3.6195 Y8.5707
G01 X3.6351 Y8.5720
G01 X3.6507 Y8.5745
G01 X3.6660 Y8.5781
G01 X3.6810 Y8.5829
G01 X3.6956 Y8.5887
G01 X3.7097 Y8.5956
G01 X3.7233 Y8.6035
G01 X3.7340 Y8.6108
G01 X3.7492 Y8.6008
G01 X3.7630 Y8.5932
G01 X3.7773 Y8.5867
G01 X3.7920 Y8.5812
G01 X3.8071 Y8.5768
G01 X3.8173 Y8.5745
G01 X3.8277 Y8.5727
G01 X3.8433 Y8.5710
G01 X3.8590 Y8.5704
G01 X4.4090 Y8.5704
G01 X4.4195 Y8.5707
G01 X4.4351 Y8.5720
G01 X4.4507 Y8.5745
G01 X4.4660 Y8.5781
G01 X4.4810 Y8.5829
G01 X4.4956 Y8.5887
G01 X4.5097 Y8.5956
G01 X4.5233 Y8.6035
G01 X4.5340 Y8.6108
G01 X4.5492 Y8.6008
G01 X4.5630 Y8.5932
G01 X4.5773 Y8.5867
G01 X4.5920 Y8.5812
G01 X4.6071 Y8.5768
G01 X4.6173 Y8.5745
G01 X4.6277 Y8.5727
G01 X4.6433 Y8.5710
G01 X4.6590 Y8.5704
G01 X5.2090 Y8.5704
G01 X5.2195 Y8.5707
G01 X5.2351 Y8.5720
G01 X5.2507 Y8.5745
G01 X5.2660 Y8.5781
G01 X5.2810 Y8.5829
G01 X5.2956 Y8.5887
G01 X5.3097 Y8.5956
G01 X5.3233 Y8.6035
G01 X5.3340 Y8.6108
G01 X5.3492 Y8.6008
G01 X5.3630 Y8.5932
G01 X5.3773 Y8.5867
G01 X5.3920 Y8.5812
G01 X5.4071 Y8.5768
G01 X5.4173 Y8.5745
G01 X5.4277 Y8.5727
G01 X5.4433 Y8.5710
G01 X5.4590 Y8.5704
G01 X6.0090 Y8.5704
G01 X6.0195 Y8.5707
G01 X6.0351 Y8.5720
G01 X6.0507 Y8.5745
G01 X6.0660 Y8.5781
G01 X6.0810 Y8.5829
G01 X6.0956 Y8.5887
G01 X6.1097 Y8.5956
G01 X6.1233 Y8.6035
G01 X6.1340 Y8.6108
G01 X6.1492 Y8.6008
G01 X6.1630 Y8.5932
G01 X6.1773 Y8.5867
G01 X6.1920 Y8.5812
G01 X6.2071 Y8.5768
G01 X6.2225 Y8.5735
G01 X6.2381 Y8.5714
G01 X6.2538 Y8.5705
G01 X6.8090 Y8.5704
G01 X6.8195 Y8.5707
G01 X6.8351 Y8.5720
G01 X6.8507 Y8.5745
G01 X6.8660 Y8.5781
G01 X6.8810 Y8.5829
G01 X6.8956 Y8.5887
G01 X6.9097 Y8.5956
G01 X6.9233 Y8.6035
G01 X6.9340 Y8.6108
G01 X6.9492 Y8.6008
G01 X6.9630 Y8.5932
G01 X6.9773 Y8.5867
G01 X6.9920 Y8.5812
G01 X7.0071 Y8.5768
G01 X7.0225 Y8.5735
G01 X7.0381 Y8.5714
G01 X7.0538 Y8.5705
G01 X7.6090 Y8.5704
G01 X7.6195 Y8.5707
G01 X7.6351 Y8.5720
G01 X7.6507 Y8.5745
G01 X7.6660 Y8.5781
G01 X7.6810 Y8.5829
G01 X7.6956 Y8.5887
G01 X7.7097 Y8.5956
G01 X7.7233 Y8.6035
G01 X7.7340 Y8.6108
G01 X7.7447 Y8.6035
G01 X7.7583 Y8.5956
G01 X7.7724 Y8.5887
G01 X7.7870 Y8.5829
G01 X7.8020 Y8.5781
G01 X7.8173 Y8.5745
G01 X7.8329 Y8.5720
G01 X7.8485 Y8.5707
G01 X7.8590 Y8.5704
G01 X8.4142 Y8.5705
G01 X8.4299 Y8.5714
G01 X8.4455 Y8.5735
G01 X8.4609 Y8.5768
G01 X8.4760 Y8.5812
G01 X8.4907 Y8.5867
G01 X8.5050 Y8.5932
G01 X8.5188 Y8.6008
G01 X8.5320 Y8.6094
G01 X8.5445 Y8.6189
G01 X8.5563 Y8.6293
G01 X8.5673 Y8.6406
G01 X8.5774 Y8.6526
G01 X8.5866 Y8.6653
G01 X8.5949 Y8.6787
G01 X8.6021 Y8.6927
G01 X8.6083 Y8.7071
G01 X8.6134 Y8.7220
G01 X8.6174 Y8.7372
G01 X8.6203 Y8.7527
G01 X8.6220 Y8.7683
G01 X8.6226 Y8.7840
G01 X8.6226 Y10.3840
G01 X8.6220 Y10.3997
G01 X8.6210 Y10.4101
G01 X8.6195 Y10.4205
G01 X8.6162 Y10.4359
G01 X8.6118 Y10.4510
G01 X8.6063 Y10.4657
G01 X8.5998 Y10.4800
G01 X8.5949 Y10.4893
G01 X8.5895 Y10.4983
G01 X8.5806 Y10.5112
G01 X8.5707 Y10.5235
G01 X8.5600 Y10.5350
G01 X8.5485 Y10.5457
G01 X8.5362 Y10.5556
G01 X8.5233 Y10.5645
G01 X8.5097 Y10.5724
G01 X8.4956 Y10.5793
G01 X8.4810 Y10.5851
G01 X8.4710 Y10.5884
G01 X8.4609 Y10.5912
G01 X8.4455 Y10.5945
G01 X8.4299 Y10.5966
G01 X8.4142 Y10.5975
G01 X7.8590 Y10.5976
G01 X7.8485 Y10.5973
G01 X7.8329 Y10.5960
G01 X7.8173 Y10.5935
G01 X7.8020 Y10.5899
G01 X7.7870 Y10.5851
G01 X7.7724 Y10.5793
G01 X7.7583 Y10.5724
G01 X7.7447 Y10.5645
G01 X7.7340 Y10.5572
G01 X7.7188 Y10.5672
G01 X7.7050 Y10.5748
G01 X7.6907 Y10.5813
G01 X7.6760 Y10.5868
G01 X7.6609 Y10.5912
G01 X7.6507 Y10.5935
G01 X7.6403 Y10.5953
G01 X7.6247 Y10.5970
G01 X7.6090 Y10.5976
G01 X7.0590 Y10.5976
G01 X7.0485 Y10.5973
G01 X7.0329 Y10.5960
G01 X7.0173 Y10.5935
G01 X7.0020 Y10.5899
G01 X6.9870 Y10.5851
G01 X6.9724 Y10.5793
G01 X6.9583 Y10.5724
G01 X6.9447 Y10.5645
G01 X6.9340 Y10.5572
G01 X6.9188 Y10.5672
G01 X6.9050 Y10.5748
G01 X6.8907 Y10.5813
G01 X6.8760 Y10.5868
G01 X6.8609 Y10.5912
G01 X6.8507 Y10.5935
G01 X6.8403 Y10.5953
G01 X6.8247 Y10.5970
G01 X6.8090 Y10.5976
G01 X6.2590 Y10.5976
G01 X6.2485 Y10.5973
G01 X6.2329 Y10.5960
G01 X6.2173 Y10.5935
G01 X6.2020 Y10.5899
G01 X6.1870 Y10.5851
G01 X6.1724 Y10.5793
G01 X6.1583 Y10.5724
G01 X6.1447 Y10.5645
G01 X6.1340 Y10.5572
G01 X6.1188 Y10.5672
G01 X6.1050 Y10.5748
G01 X6.0907 Y10.5813
G01 X6.0760 Y10.5868
G01 X6.0609 Y10.5912
G01 X6.0507 Y10.5935
G01 X6.0403 Y10.5953
G01 X6.0247 Y10.5970
G01 X6.0090 Y10.5976
G01 X5.4590 Y10.5976
G01 X5.4485 Y10.5973
G01 X5.4329 Y10.5960
G01 X5.4173 Y10.5935
G01 X5.4020 Y10.5899
G01 X5.3870 Y10.5851
G01 X5.3724 Y10.5793
G01 X5.3583 Y10.5724
G01 X5.3447 Y10.5645
G01 X5.3340 Y10.5572
G01 X5.3188 Y10.5672
G01 X5.3050 Y10.5748
G01 X5.2907 Y10.5813
G01 X5.2760 Y10.5868
G01 X5.2609 Y10.5912
G01 X5.2507 Y10.5935
G01 X5.2403 Y10.5953
G01 X5.2247 Y10.5970
G01 X5.2090 Y10.5976
G01 X4.6590 Y10.5976
G01 X4.6485 Y10.5973
G01 X4.6329 Y10.5960
G01 X4.6173 Y10.5935
G01 X4.6020 Y10.5899
G01 X4.5870 Y10.5851
G01 X4.5724 Y10.5793
G01 X4.5583 Y10.5724
G01 X4.5447 Y10.5645
G01 X4.5340 Y10.5572
G01 X4.5188 Y10.5672
G01 X4.5050 Y10.5748
G01 X4.4907 Y10.5813
G01 X4.4760 Y10.5868
G01 X4.4609 Y10.5912
G01 X4.4507 Y10.5935
G01 X4.4403 Y10.5953
G01 X4.4247 Y10.5970
G01 X4.4090 Y10.5976
G01 X3.8590 Y10.5976
G01 X3.8485 Y10.5973
G01 X3.8329 Y10.5960
G01 X3.8173 Y10.5935
G01 X3.8020 Y10.5899
G01 X3.7870 Y10.5851
G01 X3.7724 Y10.5793
G01 X3.7583 Y10.5724
G01 X3.7447 Y10.5645
G01 X3.7340 Y10.5572
G01 X3.7188 Y10.5672
G01 X3.7050 Y10.5748
G01 X3.6907 Y10.5813
G01 X3.6760 Y10.5868
G01 X3.6609 Y10.5912
G01 X3.6455 Y10.5945
G01 X3.6299 Y10.5966
G01 X3.6142 Y10.5975
G01 X3.0590 Y10.5976
G01 X3.0485 Y10.5973
G01 X3.0329 Y10.5960
G01 X3.0173 Y10.5935
G01 X3.0020 Y10.5899
G01 X2.9870 Y10.5851
G01 X2.9724 Y10.5793
G01 X2.9583 Y10.5724
G01 X2.9447 Y10.5645
G01 X2.9340 Y10.5572
G01 X2.9188 Y10.5672
G01 X2.9050 Y10.5748
G01 X2.8907 Y10.5813
G01 X2.8760 Y10.5868
G01 X2.8609 Y10.5912
G01 X2.8455 Y10.5945
G01 X2.8299 Y10.5966
G01 X2.8142 Y10.5975
G01 X2.2538 Y10.5975
G01 X2.2433 Y10.5970
G01 X2.2329 Y10.5960
G01 X2.2173 Y10.5935
G01 X2.2071 Y10.5912
G01 X2.1970 Y10.5884
G01 X2.1870 Y10.5851
G01 X2.1773 Y10.5813
G01 X2.1630 Y10.5748
G01 X2.1492 Y10.5672
G01 X2.1360 Y10.5586
G01 X2.1276 Y10.5524
G01 X2.1156 Y10.5423
G01 X2.1080 Y10.5350
G01 X2.0973 Y10.5235
G01 X2.0874 Y10.5112
G01 X2.0785 Y10.4983
G01 X2.0731 Y10.4893
G01 X2.0659 Y10.4753
G01 X2.0597 Y10.4609
G01 X2.0546 Y10.4460
G01 X2.0506 Y10.4308
G01 X2.0477 Y10.4153
G01 X2.0460 Y10.3997
G01 X2.0454 Y10.3840
G01 X2.0454 Y8.7840
G01 X2.0457 Y8.7735
G01 X2.0464 Y8.7631
G01 X2.0477 Y8.7527
G01 X2.0495 Y8.7423
G01 X2.0518 Y8.7321
G01 X2.0546 Y8.7220
G01 X2.0579 Y8.7120
G01 X2.0617 Y8.7023
G01 X2.0659 Y8.6927
G01 X2.0731 Y8.6787
G01 X2.0814 Y8.6653
G01 X2.0874 Y8.6568
G01 X2.0939 Y8.6485
G01 X2.1043 Y8.6367
G01 X2.1156 Y8.6257
G01 X2.1276 Y8.6156
G01 X2.1403 Y8.6064
G01 X2.1537 Y8.5981
G01 X2.1630 Y8.5932
G01 X2.1773 Y8.5867
G01 X2.1920 Y8.5812
G01 X2.2071 Y8.5768
G01 X2.2225 Y8.5735
G01 X2.2329 Y8.5720
G01 X2.2485 Y8.5707
G01 X2.2590 Y8.5704
G01 X2.8090 Y8.5704
G01 X2.8195 Y8.5707
G01 X2.8351 Y8.5720
G01 X2.8507 Y8.5745
G01 X2.8660 Y8.5781
G01 X2.8810 Y8.5829
G01 X2.8956 Y8.5887
G01 X2.9097 Y8.5956
G01 X2.9233 Y8.6035
G01 X2.9340 Y8.6108
G01 X2.9447 Y8.6035
G01 X2.9583 Y8.5956
G01 X2.9677 Y8.5909
G01 X2.9821 Y8.5847
G01 X2.9970 Y8.5796
G01 X3.0071 Y8.5768
G01 X3.0225 Y8.5735
G01 X3.0329 Y8.5720
G00 Z2.0000
G00 X3.0459 Y8.6780
G01 F200.00
G01 Z-0.1000
G01 F300.00
G01 X3.0590 Y8.6772
G01 X3.6090 Y8.6772
G01 X3.6195 Y8.6777
G01 X3.6273 Y8.6788
G01 X3.6350 Y8.6804
G01 X3.6425 Y8.6826
G01 X3.6499 Y8.6853
G01 X3.6570 Y8.6886
G01 X3.6639 Y8.6924
G01 X3.6705 Y8.6967
G01 X3.6768 Y8.7014
G01 X3.6863 Y8.7104
G01 X3.6916 Y8.7162
G01 X3.6963 Y8.7225
G01 X3.7006 Y8.7291
G01 X3.7044 Y8.7360
G01 X3.7077 Y8.7431
G01 X3.7104 Y8.7505
G01 X3.7126 Y8.7580
G01 X3.7142 Y8.7657
G01 X3.7153 Y8.7735
G01 X3.7158 Y8.7840
G01 X3.7157 Y10.3892
G01 X3.7150 Y10.3971
G01 X3.7132 Y10.4074
G01 X3.7112 Y10.4150
G01 X3.7086 Y10.4224
G01 X3.7055 Y10.4297
G01 X3.7019 Y10.4366
G01 X3.6978 Y10.4433
G01 X3.6932 Y10.4497
G01 X3.6881 Y10.4557
G01 X3.6826 Y10.4613
G01 X3.6768 Y10.4666
G01 X3.6705 Y10.4713
G01 X3.6639 Y10.4756
G01 X3.6570 Y10.4794
G01 X3.6499 Y10.4827
G01 X3.6425 Y10.4854
G01 X3.6324 Y10.4882
G01 X3.6247 Y10.4896
G01 X3.6169 Y10.4905
G01 X3.6090 Y10.4908
G01 X3.0590 Y10.4908
G01 X3.0485 Y10.4903
G01 X3.0407 Y10.4892
G01 X3.0330 Y10.4876
G01 X3.0255 Y10.4854
G01 X3.0181 Y10.4827
G01 X3.0110 Y10.4794
G01 X3.0041 Y10.4756
G01 X2.9933 Y10.4682
G01 X2.9873 Y10.4631
G01 X2.9817 Y10.4576
G01 X2.9764 Y10.4518
G01 X2.9717 Y10.4455
G01 X2.9674 Y10.4389
G01 X2.9636 Y10.4320
G01 X2.9603 Y10.4249
G01 X2.9576 Y10.4175
G01 X2.9554 Y10.4100
G01 X2.9538 Y10.4023
G01 X2.9527 Y10.3945
G01 X2.9522 Y10.3840
G01 X2.9523 Y8.7788
G01 X2.9534 Y8.7683
G01 X2.9548 Y8.7606
G01 X2.9568 Y8.7530
G01 X2.9603 Y8.7431
G01 X2.9648 Y8.7337
G01 X2.9688 Y8.7269
G01 X2.9748 Y8.7183
G01 X2.9817 Y8.7104
G01 X2.9873 Y8.7049
G01 X2.9954 Y8.6982
G01 X3.0019 Y8.6938
G01 X3.0110 Y8.6886
G01 X3.0206 Y8.6844
G01 X3.0280 Y8.6818
G01 X3.0382 Y8.6793
G01 X3.0459 Y8.6780
G00 Z2.0000
G00 X3.8459 Y8.6780
G01 F200.00
G01 Z-0.1000
G01 F300.00
G01 X3.8590 Y8.6772
G01 X4.4090 Y8.6772
G01 X4.4195 Y8.6777
G01 X4.4273 Y8.6788
G01 X4.4350 Y8.6804
G01 X4.4425 Y8.6826
G01 X4.4499 Y8.6853
G01 X4.4570 Y8.6886
G01 X4.4639 Y8.6924
G01 X4.4705 Y8.6967
G01 X4.4768 Y8.7014
G01 X4.4826 Y8.7067
G01 X4.4881 Y8.7123
G01 X4.4932 Y8.7183
G01 X4.4978 Y8.7247
G01 X4.5044 Y8.7360
G01 X4.5077 Y8.7431
G01 X4.5104 Y8.7505
G01 X4.5132 Y8.7606
G01 X4.5146 Y8.7683
G01 X4.5155 Y8.7761
G01 X4.5158 Y8.7840
G01 X4.5157 Y10.3892
G01 X4.5150 Y10.3971
G01 X4.5137 Y10.4048
G01 X4.5112 Y10.4150
G01 X4.5086 Y10.4224
G01 X4.5055 Y10.4297
G01 X4.5019 Y10.4366
G01 X4.4978 Y10.4433
G01 X4.4932 Y10.4497
G01 X4.4881 Y10.4557
G01 X4.4826 Y10.4613
G01 X4.4768 Y10.4666
G01 X4.4705 Y10.4713
G01 X4.4639 Y10.4756
G01 X4.4570 Y10.4794
G01 X4.4499 Y10.4827
G01 X4.4425 Y10.4854
G01 X4.4324 Y10.4882
G01 X4.4247 Y10.4896
G01 X4.4169 Y10.4905
G01 X4.4090 Y10.4908
G01 X3.8590 Y10.4908
G01 X3.8485 Y10.4903
G01 X3.8407 Y10.4892
G01 X3.8330 Y10.4876
G01 X3.8255 Y10.4854
G01 X3.8181 Y10.4827
G01 X3.8110 Y10.4794
G01 X3.8041 Y10.4756
G01 X3.7933 Y10.4682
G01 X3.7873 Y10.4631
G01 X3.7817 Y10.4576
G01 X3.7764 Y10.4518
G01 X3.7717 Y10.4455
G01 X3.7674 Y10.4389
G01 X3.7636 Y10.4320
G01 X3.7603 Y10.4249
G01 X3.7576 Y10.4175
G01 X3.7554 Y10.4100
G01 X3.7538 Y10.4023
G01 X3.7527 Y10.3945
G01 X3.7522 Y10.3840
G01 X3.7523 Y8.7788
G01 X3.7534 Y8.7683
G01 X3.7548 Y8.7606
G01 X3.7568 Y8.7530
G01 X3.7603 Y8.7431
G01 X3.7648 Y8.7337
G01 X3.7688 Y8.7269
G01 X3.7748 Y8.7183
G01 X3.7817 Y8.7104
G01 X3.7873 Y8.7049
G01 X3.7954 Y8.6982
G01 X3.8019 Y8.6938
G01 X3.8110 Y8.6886
G01 X3.8206 Y8.6844
G01 X3.8280 Y8.6818
G01 X3.8382 Y8.6793
G01 X3.8459 Y8.6780
G00 Z2.0000
G00 X4.6459 Y8.6780
G01 F200.00
G01 Z-0.1000
G01 F300.00
G01 X4.6590 Y8.6772
G01 X5.2090 Y8.6772
G01 X5.2195 Y8.6777
G01 X5.2273 Y8.6788
G01 X5.2350 Y8.6804
G01 X5.2425 Y8.6826
G01 X5.2499 Y8.6853
G01 X5.2570 Y8.6886
G01 X5.2639 Y8.6924
G01 X5.2705 Y8.6967
G01 X5.2768 Y8.7014
G01 X5.2826 Y8.7067
G01 X5.2881 Y8.7123
G01 X5.2932 Y8.7183
G01 X5.2978 Y8.7247
G01 X5.3044 Y8.7360
G01 X5.3077 Y8.7431
G01 X5.3104 Y8.7505
G01 X5.3132 Y8.7606
G01 X5.3146 Y8.7683
G01 X5.3155 Y8.7761
G01 X5.3158 Y8.7840
G01 X5.3157 Y10.3892
G01 X5.3150 Y10.3971
G01 X5.3137 Y10.4048
G01 X5.3112 Y10.4150
G01 X5.3086 Y10.4224
G01 X5.3055 Y10.4297
G01 X5.3019 Y10.4366
G01 X5.2978 Y10.4433
G01 X5.2932 Y10.4497
G01 X5.2881 Y10.4557
G01 X5.2826 Y10.4613
G01 X5.2768 Y10.4666
G01 X5.2705 Y10.4713
G01 X5.2639 Y10.4756
G01 X5.2570 Y10.4794
G01 X5.2499 Y10.4827
G01 X5.2425 Y10.4854
G01 X5.2324 Y10.4882
G01 X5.2247 Y10.4896
G01 X5.2169 Y10.4905
G01 X5.2090 Y10.4908
G01 X4.6590 Y10.4908
G01 X4.6485 Y10.4903
G01 X4.6407 Y10.4892
G01 X4.6330 Y10.4876
G01 X4.6255 Y10.4854
G01 X4.6181 Y10.4827
G01 X4.6110 Y10.4794
G01 X4.6041 Y10.4756
G01 X4.5933 Y10.4682
G01 X4.5873 Y10.4631
G01 X4.5817 Y10.4576
G01 X4.5764 Y10.4518
G01 X4.5717 Y10.4455
G01 X4.5674 Y10.4389
G01 X4.5636 Y10.4320
G01 X4.5603 Y10.4249
G01 X4.5576 Y10.4175
G01 X4.5554 Y10.4100
G01 X4.5534 Y10.3997
G01 X4.5525 Y10.3919
G01 X4.5522 Y10.3840
G01 X4.5523 Y8.7788
G01 X4.5534 Y8.7683
G01 X4.5554 Y8.7580
G01 X4.5576 Y8.7505
G01 X4.5614 Y8.7407
G01 X4.5661 Y8.7314
G01 X4.5702 Y8.7247
G01 X4.5748 Y8.7183
G01 X4.5817 Y8.7104
G01 X4.5892 Y8.7031
G01 X4.5954 Y8.6982
G01 X4.6019 Y8.6938
G01 X4.6110 Y8.6886
G01 X4.6206 Y8.6844
G01 X4.6280 Y8.6818
G01 X4.6382 Y8.6793
G01 X4.6459 Y8.6780
G00 Z2.0000
G00 X5.4459 Y8.6780
G01 F200.00
G01 Z-0.1000
G01 F300.00
G01 X5.4590 Y8.6772
G01 X6.0090 Y8.6772
G01 X6.0195 Y8.6777
G01 X6.0273 Y8.6788
G01 X6.0350 Y8.6804
G01 X6.0425 Y8.6826
G01 X6.0499 Y8.6853
G01 X6.0570 Y8.6886
G01 X6.0639 Y8.6924
G01 X6.0705 Y8.6967
G01 X6.0768 Y8.7014
G01 X6.0826 Y8.7067
G01 X6.0881 Y8.7123
G01 X6.0932 Y8.7183
G01 X6.0978 Y8.7247
G01 X6.1044 Y8.7360
G01 X6.1077 Y8.7431
G01 X6.1104 Y8.7505
G01 X6.1132 Y8.7606
G01 X6.1146 Y8.7683
G01 X6.1155 Y8.7761
G01 X6.1158 Y8.7840
G01 X6.1157 Y10.3892
G01 X6.1150 Y10.3971
G01 X6.1137 Y10.4048
G01 X6.1112 Y10.4150
G01 X6.1086 Y10.4224
G01 X6.1055 Y10.4297
G01 X6.1019 Y10.4366
G01 X6.0978 Y10.4433
G01 X6.0932 Y10.4497
G01 X6.0881 Y10.4557
G01 X6.0826 Y10.4613
G01 X6.0768 Y10.4666
G01 X6.0705 Y10.4713
G01 X6.0639 Y10.4756
G01 X6.0570 Y10.4794
G01 X6.0499 Y10.4827
G01 X6.0425 Y10.4854
G01 X6.0324 Y10.4882
G01 X6.0247 Y10.4896
G01 X6.0169 Y10.4905
G01 X6.0090 Y10.4908
G01 X5.4590 Y10.4908
G01 X5.4485 Y10.4903
G01 X5.4407 Y10.4892
G01 X5.4330 Y10.4876
G01 X5.4255 Y10.4854
G01 X5.4181 Y10.4827
G01 X5.4110 Y10.4794
G01 X5.4041 Y10.4756
G01 X5.3933 Y10.4682
G01 X5.3873 Y10.4631
G01 X5.3817 Y10.4576
G01 X5.3764 Y10.4518
G01 X5.3717 Y10.4455
G01 X5.3674 Y10.4389
G01 X5.3636 Y10.4320
G01 X5.3603 Y10.4249
G01 X5.3576 Y10.4175
G01 X5.3554 Y10.4100
G01 X5.3534 Y10.3997
G01 X5.3525 Y10.3919
G01 X5.3522 Y10.3840
G01 X5.3523 Y8.7788
G01 X5.3534 Y8.7683
G01 X5.3548 Y8.7606
G01 X5.3568 Y8.7530
G01 X5.3603 Y8.7431
G01 X5.3648 Y8.7337
G01 X5.3702 Y8.7247
G01 X5.3748 Y8.7183
G01 X5.3817 Y8.7104
G01 X5.3892 Y8.7031
G01 X5.3954 Y8.6982
G01 X5.4019 Y8.6938
G01 X5.4110 Y8.6886
G01 X5.4206 Y8.6844
G01 X5.4280 Y8.6818
G01 X5.4382 Y8.6793
G01 X5.4459 Y8.6780
G00 Z2.0000
G00 X6.2433 Y8.6784
G01 F200.00
G01 Z-0.1000
G01 F300.00
G01 X6.2511 Y8.6775
G01 X6.2590 Y8.6772
G01 X6.8090 Y8.6772
G01 X6.8195 Y8.6777
G01 X6.8273 Y8.6788
G01 X6.8350 Y8.6804
G01 X6.8425 Y8.6826
G01 X6.8499 Y8.6853
G01 X6.8570 Y8.6886
G01 X6.8639 Y8.6924
G01 X6.8705 Y8.6967
G01 X6.8768 Y8.7014
G01 X6.8826 Y8.7067
G01 X6.8881 Y8.7123
G01 X6.8932 Y8.7183
G01 X6.8978 Y8.7247
G01 X6.9044 Y8.7360
G01 X6.9077 Y8.7431
G01 X6.9104 Y8.7505
G01 X6.9132 Y8.7606
G01 X6.9146 Y8.7683
G01 X6.9155 Y8.7761
G01 X6.9158 Y8.7840
G01 X6.9157 Y10.3892
G01 X6.9150 Y10.3971
G01 X6.9137 Y10.4048
G01 X6.9112 Y10.4150
G01 X6.9086 Y10.4224
G01 X6.9055 Y10.4297
G01 X6.9019 Y10.4366
G01 X6.8978 Y10.4433
G01 X6.8932 Y10.4497
G01 X6.8881 Y10.4557
G01 X6.8826 Y10.4613
G01 X6.8768 Y10.4666
G01 X6.8705 Y10.4713
G01 X6.8639 Y10.4756
G01 X6.8570 Y10.4794
G01 X6.8499 Y10.4827
G01 X6.8425 Y10.4854
G01 X6.8324 Y10.4882
G01 X6.8247 Y10.4896
G01 X6.8169 Y10.4905
G01 X6.8090 Y10.4908
G01 X6.2590 Y10.4908
G01 X6.2485 Y10.4903
G01 X6.2407 Y10.4892
G01 X6.2330 Y10.4876
G01 X6.2255 Y10.4854
G01 X6.2181 Y10.4827
G01 X6.2110 Y10.4794
G01 X6.2041 Y10.4756
G01 X6.1933 Y10.4682
G01 X6.1873 Y10.4631
G01 X6.1817 Y10.4576
G01 X6.1764 Y10.4518
G01 X6.1717 Y10.4455
G01 X6.1674 Y10.4389
G01 X6.1636 Y10.4320
G01 X6.1603 Y10.4249
G01 X6.1576 Y10.4175
G01 X6.1554 Y10.4100
G01 X6.1534 Y10.3997
G01 X6.1525 Y10.3919
G01 X6.1522 Y10.3840
G01 X6.1523 Y8.7788
G01 X6.1534 Y8.7683
G01 X6.1548 Y8.7606
G01 X6.1568 Y8.7530
G01 X6.1603 Y8.7431
G01 X6.1648 Y8.7337
G01 X6.1688 Y8.7269
G01 X6.1748 Y8.7183
G01 X6.1799 Y8.7123
G01 X6.1873 Y8.7049
G01 X6.1933 Y8.6998
G01 X6.2019 Y8.6938
G01 X6.2087 Y8.6898
G01 X6.2157 Y8.6864
G01 X6.2255 Y8.6826
G01 X6.2356 Y8.6798
G01 X6.2433 Y8.6784
G00 Z2.0000
G00 X7.0433 Y8.6784
G01 F200.00
G01 Z-0.1000
G01 F300.00
G01 X7.0511 Y8.6775
G01 X7.0590 Y8.6772
G01 X7.6090 Y8.6772
G01 X7.6195 Y8.6777
G01 X7.6273 Y8.6788
G01 X7.6350 Y8.6804
G01 X7.6425 Y8.6826
G01 X7.6499 Y8.6853
G01 X7.6570 Y8.6886
G01 X7.6639 Y8.6924
G01 X7.6705 Y8.6967
G01 X7.6768 Y8.7014
G01 X7.6826 Y8.7067
G01 X7.6881 Y8.7123
G01 X7.6932 Y8.7183
G01 X7.6978 Y8.7247
G01 X7.7044 Y8.7360
G01 X7.7077 Y8.7431
G01 X7.7104 Y8.7505
G01 X7.7132 Y8.7606
G01 X7.7146 Y8.7683
G01 X7.7155 Y8.7761
G01 X7.7158 Y8.7840
G01 X7.7157 Y10.3892
G01 X7.7150 Y10.3971
G01 X7.7137 Y10.4048
G01 X7.7112 Y10.4150
G01 X7.7086 Y10.4224
G01 X7.7055 Y10.4297
G01 X7.7019 Y10.4366
G01 X7.6978 Y10.4433
G01 X7.6932 Y10.4497
G01 X7.6881 Y10.4557
G01 X7.6826 Y10.4613
G01 X7.6768 Y10.4666
G01 X7.6705 Y10.4713
G01 X7.6639 Y10.4756
G01 X7.6570 Y10.4794
G01 X7.6499 Y10.4827
G01 X7.6425 Y10.4854
G01 X7.6324 Y10.4882
G01 X7.6247 Y10.4896
G01 X7.6169 Y10.4905
G01 X7.6090 Y10.4908
G01 X7.0590 Y10.4908
G01 X7.0485 Y10.4903
G01 X7.0407 Y10.4892
G01 X7.0330 Y10.4876
G01 X7.0255 Y10.4854
G01 X7.0181 Y10.4827
G01 X7.0110 Y10.4794
G01 X7.0041 Y10.4756
G01 X6.9933 Y10.4682
G01 X6.9873 Y10.4631
G01 X6.9817 Y10.4576
G01 X6.9764 Y10.4518
G01 X6.9717 Y10.4455
G01 X6.9674 Y10.4389
G01 X6.9636 Y10.4320
G01 X6.9603 Y10.4249
G01 X6.9576 Y10.4175
G01 X6.9554 Y10.4100
G01 X6.9534 Y10.3997
G01 X6.9525 Y10.3919
G01 X6.9522 Y10.3840
G01 X6.9523 Y8.7788
G01 X6.9534 Y8.7683
G01 X6.9548 Y8.7606
G01 X6.9568 Y8.7530
G01 X6.9603 Y8.7431
G01 X6.9648 Y8.7337
G01 X6.9688 Y8.7269
G01 X6.9748 Y8.7183
G01 X6.9799 Y8.7123
G01 X6.9873 Y8.7049
G01 X6.9933 Y8.6998
G01 X7.0019 Y8.6938
G01 X7.0087 Y8.6898
G01 X7.0157 Y8.6864
G01 X7.0255 Y8.6826
G01 X7.0356 Y8.6798
G01 X7.0433 Y8.6784
G00 Z2.0000
G00 X7.8459 Y8.6780
G01 F200.00
G01 Z-0.1000
G01 F300.00
G01 X7.8590 Y8.6772
G01 X8.4090 Y8.6772
G01 X8.4195 Y8.6777
G01 X8.4273 Y8.6788
G01 X8.4350 Y8.6804
G01 X8.4425 Y8.6826
G01 X8.4499 Y8.6853
G01 X8.4570 Y8.6886
G01 X8.4639 Y8.6924
G01 X8.4747 Y8.6998
G01 X8.4807 Y8.7049
G01 X8.4863 Y8.7104
G01 X8.4916 Y8.7162
G01 X8.4963 Y8.7225
G01 X8.5006 Y8.7291
G01 X8.5044 Y8.7360
G01 X8.5077 Y8.7431
G01 X8.5104 Y8.7505
G01 X8.5132 Y8.7606
G01 X8.5146 Y8.7683
G01 X8.5155 Y8.7761
G01 X8.5158 Y8.7840
G01 X8.5157 Y10.3892
G01 X8.5146 Y10.3997
G01 X8.5132 Y10.4074
G01 X8.5112 Y10.4150
G01 X8.5086 Y10.4224
G01 X8.5055 Y10.4297
G01 X8.5019 Y10.4366
G01 X8.4978 Y10.4433
G01 X8.4932 Y10.4497
G01 X8.4881 Y10.4557
G01 X8.4826 Y10.4613
G01 X8.4768 Y10.4666
G01 X8.4705 Y10.4713
G01 X8.4639 Y10.4756
G01 X8.4570 Y10.4794
G01 X8.4499 Y10.4827
G01 X8.4425 Y10.4854
G01 X8.4324 Y10.4882
G01 X8.4247 Y10.4896
G01 X8.4169 Y10.4905
G01 X8.4090 Y10.4908
G01 X7.8590 Y10.4908
G01 X7.8485 Y10.4903
G01 X7.8407 Y10.4892
G01 X7.8330 Y10.4876
G01 X7.8255 Y10.4854
G01 X7.8181 Y10.4827
G01 X7.8110 Y10.4794
G01 X7.8041 Y10.4756
G01 X7.7933 Y10.4682
G01 X7.7873 Y10.4631
G01 X7.7817 Y10.4576
G01 X7.7764 Y10.4518
G01 X7.7717 Y10.4455
G01 X7.7674 Y10.4389
G01 X7.7636 Y10.4320
G01 X7.7603 Y10.4249
G01 X7.7576 Y10.4175
G01 X7.7554 Y10.4100
G01 X7.7534 Y10.3997
G01 X7.7525 Y10.3919
G01 X7.7522 Y10.3840
G01 X7.7523 Y8.7788
G01 X7.7530 Y8.7709
G01 X7.7548 Y8.7606
G01 X7.7568 Y8.7530
G01 X7.7603 Y8.7431
G01 X7.7648 Y8.7337
G01 X7.7702 Y8.7247
G01 X7.7748 Y8.7183
G01 X7.7817 Y8.7104
G01 X7.7873 Y8.7049
G01 X7.7954 Y8.6982
G01 X7.8019 Y8.6938
G01 X7.8110 Y8.6886
G01 X7.8181 Y8.6853
G01 X7.8280 Y8.6818
G01 X7.8382 Y8.6793
G01 X7.8459 Y8.6780
G00 Z2.0000
G00 X8.7709 Y7.7530
G01 F200.00
G01 Z-0.1000
G01 F300.00
G01 X8.7840 Y7.7522
G01 X10.3840 Y7.7522
G01 X10.3945 Y7.7527
G01 X10.4048 Y7.7543
G01 X10.4150 Y7.7568
G01 X10.4249 Y7.7603
G01 X10.4366 Y7.7661
G01 X10.4433 Y7.7702
G01 X10.4497 Y7.7748
G01 X10.4595 Y7.7835
G01 X10.4649 Y7.7892
G01 X10.4698 Y7.7954
G01 X10.4742 Y7.8019
G01 X10.4782 Y7.8087
G01 X10.4816 Y7.8157
G01 X10.4846 Y7.8230
G01 X10.4882 Y7.8356
G01 X10.4896 Y7.8433
G01 X10.4905 Y7.8511
G01 X10.4908 Y7.8590
G01 X10.4908 Y8.4116
G01 X10.4900 Y8.4221
G01 X10.4887 Y8.4298
G01 X10.4862 Y8.4400
G01 X10.4827 Y8.4499
G01 X10.4794 Y8.4570
G01 X10.4756 Y8.4639
G01 X10.4682 Y8.4747
G01 X10.4631 Y8.4807
G01 X10.4576 Y8.4863
G01 X10.4518 Y8.4916
G01 X10.4455 Y8.4963
G01 X10.4389 Y8.5006
G01 X10.4320 Y8.5044
G01 X10.4249 Y8.5077
G01 X10.4175 Y8.5104
G01 X10.4100 Y8.5126
G01 X10.4023 Y8.5142
G01 X10.3945 Y8.5153
G01 X10.3866 Y8.5158
G01 X8.7840 Y8.5158
G01 X8.7735 Y8.5153
G01 X8.7632 Y8.5137
G01 X8.7530 Y8.5112
G01 X8.7431 Y8.5077
G01 X8.7360 Y8.5044
G01 X8.7291 Y8.5006
G01 X8.7183 Y8.4932
G01 X8.7085 Y8.4845
G01 X8.7031 Y8.4788
G01 X8.6982 Y8.4726
G01 X8.6911 Y8.4616
G01 X8.6875 Y8.4547
G01 X8.6844 Y8.4474
G01 X8.6804 Y8.4350
G01 X8.6788 Y8.4273
G01 X8.6777 Y8.4195
G01 X8.6772 Y8.4090
G01 X8.6773 Y7.8538
G01 X8.6780 Y7.8459
G01 X8.6798 Y7.8356
G01 X8.6818 Y7.8280
G01 X8.6853 Y7.8181
G01 X8.6898 Y7.8087
G01 X8.6952 Y7.7997
G01 X8.7014 Y7.7912
G01 X8.7067 Y7.7854
G01 X8.7142 Y7.7781
G01 X8.7204 Y7.7732
G01 X8.7291 Y7.7674
G01 X8.7360 Y7.7636
G01 X8.7431 Y7.7603
G01 X8.7530 Y7.7568
G01 X8.7632 Y7.7543
G01 X8.7709 Y7.7530
G00 Z2.0000
G00 X8.7683 Y6.9534
G01 F200.00
G01 Z-0.1000
G01 F300.00
G01 X8.7761 Y6.9525
G01 X8.7840 Y6.9522
G01 X10.3840 Y6.9522
G01 X10.3945 Y6.9527
G01 X10.4048 Y6.9543
G01 X10.4150 Y6.9568
G01 X10.4249 Y6.9603
G01 X10.4366 Y6.9661
G01 X10.4433 Y6.9702
G01 X10.4497 Y6.9748
G01 X10.4595 Y6.9835
G01 X10.4649 Y6.9892
G01 X10.4698 Y6.9954
G01 X10.4742 Y7.0019
G01 X10.4782 Y7.0087
G01 X10.4836 Y7.0206
G01 X10.4862 Y7.0280
G01 X10.4882 Y7.0356
G01 X10.4896 Y7.0433
G01 X10.4905 Y7.0511
G01 X10.4908 Y7.0590
G01 X10.4908 Y7.6116
G01 X10.4903 Y7.6195
G01 X10.4887 Y7.6298
G01 X10.4862 Y7.6400
G01 X10.4827 Y7.6499
G01 X10.4794 Y7.6570
G01 X10.4756 Y7.6639
G01 X10.4713 Y7.6705
G01 X10.4666 Y7.6768
G01 X10.4613 Y7.6826
G01 X10.4557 Y7.6881
G01 X10.4497 Y7.6932
G01 X10.4433 Y7.6978
G01 X10.4320 Y7.7044
G01 X10.4249 Y7.7077
G01 X10.4175 Y7.7104
G01 X10.4100 Y7.7126
G01 X10.4023 Y7.7142
G01 X10.3945 Y7.7153
G01 X10.3866 Y7.7158
G01 X8.7840 Y7.7158
G01 X8.7735 Y7.7153
G01 X8.7632 Y7.7137
G01 X8.7530 Y7.7112
G01 X8.7431 Y7.7077
G01 X8.7314 Y7.7019
G01 X8.7247 Y7.6978
G01 X8.7183 Y7.6932
G01 X8.7085 Y7.6845
G01 X8.7031 Y7.6788
G01 X8.6982 Y7.6726
G01 X8.6911 Y7.6616
G01 X8.6875 Y7.6547
G01 X8.6844 Y7.6474
G01 X8.6804 Y7.6350
G01 X8.6788 Y7.6273
G01 X8.6777 Y7.6195
G01 X8.6772 Y7.6090
G01 X8.6772 Y7.0564
G01 X8.6780 Y7.0459
G01 X8.6793 Y7.0382
G01 X8.6818 Y7.0280
G01 X8.6844 Y7.0206
G01 X8.6875 Y7.0133
G01 X8.6924 Y7.0041
G01 X8.6967 Y6.9975
G01 X8.7031 Y6.9892
G01 X8.7104 Y6.9817
G01 X8.7162 Y6.9764
G01 X8.7247 Y6.9702
G01 X8.7337 Y6.9648
G01 X8.7431 Y6.9603
G01 X8.7505 Y6.9576
G01 X8.7606 Y6.9548
G01 X8.7683 Y6.9534
G00 Z2.0000
G00 X8.7683 Y6.1534
G01 F200.00
G01 Z-0.1000
G01 F300.00
G01 X8.7761 Y6.1525
G01 X8.7840 Y6.1522
G01 X10.3840 Y6.1522
G01 X10.3945 Y6.1527
G01 X10.4048 Y6.1543
G01 X10.4150 Y6.1568
G01 X10.4249 Y6.1603
G01 X10.4366 Y6.1661
G01 X10.4433 Y6.1702
G01 X10.4497 Y6.1748
G01 X10.4595 Y6.1835
G01 X10.4649 Y6.1892
G01 X10.4698 Y6.1954
G01 X10.4742 Y6.2019
G01 X10.4782 Y6.2087
G01 X10.4836 Y6.2206
G01 X10.4862 Y6.2280
G01 X10.4882 Y6.2356
G01 X10.4896 Y6.2433
G01 X10.4905 Y6.2511
G01 X10.4908 Y6.2590
G01 X10.4908 Y6.8116
G01 X10.4903 Y6.8195
G01 X10.4887 Y6.8298
G01 X10.4862 Y6.8400
G01 X10.4827 Y6.8499
G01 X10.4794 Y6.8570
G01 X10.4756 Y6.8639
G01 X10.4713 Y6.8705
G01 X10.4666 Y6.8768
G01 X10.4613 Y6.8826
G01 X10.4557 Y6.8881
G01 X10.4497 Y6.8932
G01 X10.4433 Y6.8978
G01 X10.4320 Y6.9044
G01 X10.4249 Y6.9077
G01 X10.4175 Y6.9104
G01 X10.4100 Y6.9126
G01 X10.4023 Y6.9142
G01 X10.3945 Y6.9153
G01 X10.3866 Y6.9158
G01 X8.7840 Y6.9158
G01 X8.7735 Y6.9153
G01 X8.7632 Y6.9137
G01 X8.7530 Y6.9112
G01 X8.7431 Y6.9077
G01 X8.7314 Y6.9019
G01 X8.7247 Y6.8978
G01 X8.7183 Y6.8932
G01 X8.7085 Y6.8845
G01 X8.7031 Y6.8788
G01 X8.6982 Y6.8726
G01 X8.6911 Y6.8616
G01 X8.6875 Y6.8547
G01 X8.6844 Y6.8474
G01 X8.6804 Y6.8350
G01 X8.6788 Y6.8273
G01 X8.6777 Y6.8195
G01 X8.6772 Y6.8090
G01 X8.6772 Y6.2564
G01 X8.6780 Y6.2459
G01 X8.6793 Y6.2382
G01 X8.6818 Y6.2280
G01 X8.6844 Y6.2206
G01 X8.6875 Y6.2133
G01 X8.6924 Y6.2041
G01 X8.6967 Y6.1975
G01 X8.7031 Y6.1892
G01 X8.7104 Y6.1817
G01 X8.7162 Y6.1764
G01 X8.7247 Y6.1702
G01 X8.7337 Y6.1648
G01 X8.7431 Y6.1603
G01 X8.7505 Y6.1576
G01 X8.7606 Y6.1548
G01 X8.7683 Y6.1534
G00 Z2.0000
G00 X8.7683 Y5.3534
G01 F200.00
G01 Z-0.1000
G01 F300.00
G01 X8.7761 Y5.3525
G01 X8.7840 Y5.3522
G01 X10.3840 Y5.3522
G01 X10.3945 Y5.3527
G01 X10.4048 Y5.3543
G01 X10.4150 Y5.3568
G01 X10.4249 Y5.3603
G01 X10.4366 Y5.3661
G01 X10.4433 Y5.3702
G01 X10.4497 Y5.3748
G01 X10.4595 Y5.3835
G01 X10.4649 Y5.3892
G01 X10.4698 Y5.3954
G01 X10.4742 Y5.4019
G01 X10.4782 Y5.4087
G01 X10.4836 Y5.4206
G01 X10.4862 Y5.4280
G01 X10.4882 Y5.4356
G01 X10.4896 Y5.4433
G01 X10.4905 Y5.4511
G01 X10.4908 Y5.4590
G01 X10.4908 Y6.0116
G01 X10.4903 Y6.0195
G01 X10.4887 Y6.0298
G01 X10.4862 Y6.0400
G01 X10.4827 Y6.0499
G01 X10.4794 Y6.0570
G01 X10.4756 Y6.0639
G01 X10.4713 Y6.0705
G01 X10.4666 Y6.0768
G01 X10.4613 Y6.0826
G01 X10.4557 Y6.0881
G01 X10.4497 Y6.0932
G01 X10.4433 Y6.0978
G01 X10.4320 Y6.1044
G01 X10.4249 Y6.1077
G01 X10.4175 Y6.1104
G01 X10.4100 Y6.1126
G01 X10.4023 Y6.1142
G01 X10.3945 Y6.1153
G01 X10.3866 Y6.1158
G01 X8.7840 Y6.1158
G01 X8.7735 Y6.1153
G01 X8.7632 Y6.1137
G01 X8.7530 Y6.1112
G01 X8.7431 Y6.1077
G01 X8.7314 Y6.1019
G01 X8.7247 Y6.0978
G01 X8.7183 Y6.0932
G01 X8.7085 Y6.0845
G01 X8.7031 Y6.0788
G01 X8.6982 Y6.0726
G01 X8.6911 Y6.0616
G01 X8.6875 Y6.0547
G01 X8.6844 Y6.0474
G01 X8.6804 Y6.0350
G01 X8.6788 Y6.0273
G01 X8.6777 Y6.0195
G01 X8.6772 Y6.0090
G01 X8.6772 Y5.4564
G01 X8.6780 Y5.4459
G01 X8.6793 Y5.4382
G01 X8.6818 Y5.4280
G01 X8.6844 Y5.4206
G01 X8.6875 Y5.4133
G01 X8.6924 Y5.4041
G01 X8.6967 Y5.3975
G01 X8.7031 Y5.3892
G01 X8.7104 Y5.3817
G01 X8.7162 Y5.3764
G01 X8.7247 Y5.3702
G01 X8.7337 Y5.3648
G01 X8.7431 Y5.3603
G01 X8.7505 Y5.3576
G01 X8.7606 Y5.3548
G01 X8.7683 Y5.3534
G00 Z2.0000
G00 X8.7683 Y4.5534
G01 F200.00
G01 Z-0.1000
G01 F300.00
G01 X8.7761 Y4.5525
G01 X8.7840 Y4.5522
G01 X10.3840 Y4.5522
G01 X10.3945 Y4.5527
G01 X10.4048 Y4.5543
G01 X10.4150 Y4.5568
G01 X10.4249 Y4.5603
G01 X10.4366 Y4.5661
G01 X10.4433 Y4.5702
G01 X10.4497 Y4.5748
G01 X10.4595 Y4.5835
G01 X10.4649 Y4.5892
G01 X10.4698 Y4.5954
G01 X10.4742 Y4.6019
G01 X10.4782 Y4.6087
G01 X10.4836 Y4.6206
G01 X10.4862 Y4.6280
G01 X10.4882 Y4.6356
G01 X10.4896 Y4.6433
G01 X10.4905 Y4.6511
G01 X10.4908 Y4.6590
G01 X10.4908 Y5.2116
G01 X10.4903 Y5.2195
G01 X10.4887 Y5.2298
G01 X10.4862 Y5.2400
G01 X10.4827 Y5.2499
G01 X10.4794 Y5.2570
G01 X10.4756 Y5.2639
G01 X10.4713 Y5.2705
G01 X10.4666 Y5.2768
G01 X10.4613 Y5.2826
G01 X10.4557 Y5.2881
G01 X10.4497 Y5.2932
G01 X10.4433 Y5.2978
G01 X10.4320 Y5.3044
G01 X10.4249 Y5.3077
G01 X10.4175 Y5.3104
G01 X10.4100 Y5.3126
G01 X10.4023 Y5.3142
G01 X10.3945 Y5.3153
G01 X10.3866 Y5.3158
G01 X8.7840 Y5.3158
G01 X8.7735 Y5.3153
G01 X8.7632 Y5.3137
G01 X8.7530 Y5.3112
G01 X8.7431 Y5.3077
G01 X8.7314 Y5.3019
G01 X8.7247 Y5.2978
G01 X8.7183 Y5.2932
G01 X8.7085 Y5.2845
G01 X8.7031 Y5.2788
G01 X8.6982 Y5.2726
G01 X8.6911 Y5.2616
G01 X8.6875 Y5.2547
G01 X8.6844 Y5.2474
G01 X8.6804 Y5.2350
G01 X8.6788 Y5.2273
G01 X8.6777 Y5.2195
G01 X8.6772 Y5.2090
G01 X8.6772 Y4.6564
G01 X8.6780 Y4.6459
G01 X8.6793 Y4.6382
G01 X8.6818 Y4.6280
G01 X8.6844 Y4.6206
G01 X8.6875 Y4.6133
G01 X8.6924 Y4.6041
G01 X8.6967 Y4.5975
G01 X8.7031 Y4.5892
G01 X8.7104 Y4.5817
G01 X8.7162 Y4.5764
G01 X8.7247 Y4.5702
G01 X8.7337 Y4.5648
G01 X8.7431 Y4.5603
G01 X8.7505 Y4.5576
G01 X8.7606 Y4.5548
G01 X8.7683 Y4.5534
G00 Z2.0000
G00 X8.7683 Y3.7534
G01 F200.00
G01 Z-0.1000
G01 F300.00
G01 X8.7761 Y3.7525
G01 X8.7840 Y3.7522
G01 X10.3840 Y3.7522
G01 X10.3945 Y3.7527
G01 X10.4048 Y3.7543
G01 X10.4150 Y3.7568
G01 X10.4249 Y3.7603
G01 X10.4366 Y3.7661
G01 X10.4433 Y3.7702
G01 X10.4497 Y3.7748
G01 X10.4557 Y3.7799
G01 X10.4613 Y3.7854
G01 X10.4698 Y3.7954
G01 X10.4769 Y3.8064
G01 X10.4805 Y3.8133
G01 X10.4836 Y3.8206
G01 X10.4862 Y3.8280
G01 X10.4882 Y3.8356
G01 X10.4896 Y3.8433
G01 X10.4905 Y3.8511
G01 X10.4908 Y3.8590
G01 X10.4908 Y4.4116
G01 X10.4903 Y4.4195
G01 X10.4887 Y4.4298
G01 X10.4862 Y4.4400
G01 X10.4827 Y4.4499
G01 X10.4794 Y4.4570
G01 X10.4756 Y4.4639
G01 X10.4713 Y4.4705
G01 X10.4666 Y4.4768
G01 X10.4613 Y4.4826
G01 X10.4557 Y4.4881
G01 X10.4497 Y4.4932
G01 X10.4433 Y4.4978
G01 X10.4320 Y4.5044
G01 X10.4249 Y4.5077
G01 X10.4175 Y4.5104
G01 X10.4100 Y4.5126
G01 X10.4023 Y4.5142
G01 X10.3945 Y4.5153
G01 X10.3866 Y4.5158
G01 X8.7840 Y4.5158
G01 X8.7735 Y4.5153
G01 X8.7632 Y4.5137
G01 X8.7530 Y4.5112
G01 X8.7431 Y4.5077
G01 X8.7314 Y4.5019
G01 X8.7247 Y4.4978
G01 X8.7183 Y4.4932
G01 X8.7085 Y4.4845
G01 X8.7031 Y4.4788
G01 X8.6982 Y4.4726
G01 X8.6911 Y4.4616
G01 X8.6875 Y4.4547
G01 X8.6844 Y4.4474
G01 X8.6804 Y4.4350
G01 X8.6788 Y4.4273
G01 X8.6777 Y4.4195
G01 X8.6772 Y4.4090
G01 X8.6772 Y3.8564
G01 X8.6780 Y3.8459
G01 X8.6793 Y3.8382
G01 X8.6818 Y3.8280
G01 X8.6844 Y3.8206
G01 X8.6875 Y3.8133
G01 X8.6924 Y3.8041
G01 X8.6982 Y3.7954
G01 X8.7049 Y3.7873
G01 X8.7104 Y3.7817
G01 X8.7183 Y3.7748
G01 X8.7247 Y3.7702
G01 X8.7337 Y3.7648
G01 X8.7431 Y3.7603
G01 X8.7505 Y3.7576
G01 X8.7606 Y3.7548
G01 X8.7683 Y3.7534
G00 Z2.0000
G00 X8.7683 Y2.9534
G01 F200.00
G01 Z-0.1000
G01 F300.00
G01 X8.7761 Y2.9525
G01 X8.7840 Y2.9522
G01 X10.3840 Y2.9522
G01 X10.3945 Y2.9527
G01 X10.4048 Y2.9543
G01 X10.4150 Y2.9568
G01 X10.4249 Y2.9603
G01 X10.4366 Y2.9661
G01 X10.4433 Y2.9702
G01 X10.4497 Y2.9748
G01 X10.4557 Y2.9799
G01 X10.4613 Y2.9854
G01 X10.4698 Y2.9954
G01 X10.4769 Y3.0064
G01 X10.4805 Y3.0133
G01 X10.4836 Y3.0206
G01 X10.4862 Y3.0280
G01 X10.4882 Y3.0356
G01 X10.4896 Y3.0433
G01 X10.4905 Y3.0511
G01 X10.4908 Y3.0590
G01 X10.4908 Y3.6116
G01 X10.4903 Y3.6195
G01 X10.4887 Y3.6298
G01 X10.4862 Y3.6400
G01 X10.4827 Y3.6499
G01 X10.4794 Y3.6570
G01 X10.4756 Y3.6639
G01 X10.4713 Y3.6705
G01 X10.4666 Y3.6768
G01 X10.4576 Y3.6863
G01 X10.4518 Y3.6916
G01 X10.4455 Y3.6963
G01 X10.4389 Y3.7006
G01 X10.4320 Y3.7044
G01 X10.4249 Y3.7077
G01 X10.4175 Y3.7104
G01 X10.4100 Y3.7126
G01 X10.4023 Y3.7142
G01 X10.3945 Y3.7153
G01 X10.3866 Y3.7158
G01 X8.7840 Y3.7158
G01 X8.7735 Y3.7153
G01 X8.7632 Y3.7137
G01 X8.7530 Y3.7112
G01 X8.7431 Y3.7077
G01 X8.7314 Y3.7019
G01 X8.7247 Y3.6978
G01 X8.7183 Y3.6932
G01 X8.7085 Y3.6845
G01 X8.7031 Y3.6788
G01 X8.6982 Y3.6726
G01 X8.6911 Y3.6616
G01 X8.6875 Y3.6547
G01 X8.6844 Y3.6474
G01 X8.6804 Y3.6350
G01 X8.6788 Y3.6273
G01 X8.6777 Y3.6195
G01 X8.6772 Y3.6090
G01 X8.6772 Y3.0564
G01 X8.6780 Y3.0459
G01 X8.6793 Y3.0382
G01 X8.6818 Y3.0280
G01 X8.6844 Y3.0206
G01 X8.6875 Y3.0133
G01 X8.6924 Y3.0041
G01 X8.6982 Y2.9954
G01 X8.7049 Y2.9873
G01 X8.7104 Y2.9817
G01 X8.7183 Y2.9748
G01 X8.7247 Y2.9702
G01 X8.7337 Y2.9648
G01 X8.7431 Y2.9603
G01 X8.7505 Y2.9576
G01 X8.7606 Y2.9548
G01 X8.7683 Y2.9534
G00 Z2.0000
G00 X8.7683 Y2.1534
G01 F200.00
G01 Z-0.1000
G01 F300.00
G01 X8.7761 Y2.1525
G01 X8.7840 Y2.1522
G01 X10.3840 Y2.1522
G01 X10.3945 Y2.1527
G01 X10.4048 Y2.1543
G01 X10.4150 Y2.1568
G01 X10.4249 Y2.1603
G01 X10.4366 Y2.1661
G01 X10.4433 Y2.1702
G01 X10.4497 Y2.1748
G01 X10.4557 Y2.1799
G01 X10.4613 Y2.1854
G01 X10.4698 Y2.1954
G01 X10.4769 Y2.2064
G01 X10.4805 Y2.2133
G01 X10.4836 Y2.2206
G01 X10.4862 Y2.2280
G01 X10.4882 Y2.2356
G01 X10.4896 Y2.2433
G01 X10.4905 Y2.2511
G01 X10.4908 Y2.2590
G01 X10.4908 Y2.8116
G01 X10.4903 Y2.8195
G01 X10.4887 Y2.8298
G01 X10.4862 Y2.8400
G01 X10.4827 Y2.8499
G01 X10.4794 Y2.8570
G01 X10.4756 Y2.8639
G01 X10.4713 Y2.8705
G01 X10.4666 Y2.8768
G01 X10.4576 Y2.8863
G01 X10.4518 Y2.8916
G01 X10.4455 Y2.8963
G01 X10.4389 Y2.9006
G01 X10.4320 Y2.9044
G01 X10.4249 Y2.9077
G01 X10.4175 Y2.9104
G01 X10.4100 Y2.9126
G01 X10.4023 Y2.9142
G01 X10.3945 Y2.9153
G01 X10.3866 Y2.9158
G01 X8.7840 Y2.9158
G01 X8.7735 Y2.9153
G01 X8.7632 Y2.9137
G01 X8.7530 Y2.9112
G01 X8.7431 Y2.9077
G01 X8.7314 Y2.9019
G01 X8.7247 Y2.8978
G01 X8.7183 Y2.8932
G01 X8.7085 Y2.8845
G01 X8.7031 Y2.8788
G01 X8.6982 Y2.8726
G01 X8.6911 Y2.8616
G01 X8.6875 Y2.8547
G01 X8.6844 Y2.8474
G01 X8.6804 Y2.8350
G01 X8.6788 Y2.8273
G01 X8.6777 Y2.8195
G01 X8.6772 Y2.8090
G01 X8.6772 Y2.2564
G01 X8.6780 Y2.2459
G01 X8.6793 Y2.2382
G01 X8.6818 Y2.2280
G01 X8.6844 Y2.2206
G01 X8.6875 Y2.2133
G01 X8.6924 Y2.2041
G01 X8.6982 Y2.1954
G01 X8.7049 Y2.1873
G01 X8.7104 Y2.1817
G01 X8.7183 Y2.1748
G01 X8.7247 Y2.1702
G01 X8.7337 Y2.1648
G01 X8.7431 Y2.1603
G01 X8.7505 Y2.1576
G01 X8.7606 Y2.1548
G01 X8.7683 Y2.1534
G00 Z2.0000
G00 X8.7527 Y2.0477
G01 F200.00
G01 Z-0.1000
G01 F300.00
G01 X8.7683 Y2.0460
G01 X8.7840 Y2.0454
G01 X10.3840 Y2.0454
G01 X10.3945 Y2.0457
G01 X10.4049 Y2.0464
G01 X10.4153 Y2.0477
G01 X10.4257 Y2.0495
G01 X10.4410 Y2.0531
G01 X10.4560 Y2.0579
G01 X10.4706 Y2.0637
G01 X10.4847 Y2.0706
G01 X10.4983 Y2.0785
G01 X10.5112 Y2.0874
G01 X10.5235 Y2.0973
G01 X10.5350 Y2.1080
G01 X10.5457 Y2.1195
G01 X10.5556 Y2.1318
G01 X10.5616 Y2.1403
G01 X10.5672 Y2.1492
G01 X10.5748 Y2.1630
G01 X10.5813 Y2.1773
G01 X10.5868 Y2.1920
G01 X10.5912 Y2.2071
G01 X10.5945 Y2.2225
G01 X10.5960 Y2.2329
G01 X10.5973 Y2.2485
G01 X10.5976 Y2.2590
G01 X10.5976 Y2.8090
G01 X10.5973 Y2.8195
G01 X10.5960 Y2.8351
G01 X10.5935 Y2.8507
G01 X10.5899 Y2.8660
G01 X10.5851 Y2.8810
G01 X10.5793 Y2.8956
G01 X10.5724 Y2.9097
G01 X10.5645 Y2.9233
G01 X10.5572 Y2.9340
G01 X10.5645 Y2.9447
G01 X10.5724 Y2.9583
G01 X10.5793 Y2.9724
G01 X10.5851 Y2.9870
G01 X10.5899 Y3.0020
G01 X10.5935 Y3.0173
G01 X10.5960 Y3.0329
G01 X10.5973 Y3.0485
G01 X10.5976 Y3.0590
G01 X10.5975 Y3.6142
G01 X10.5966 Y3.6299
G01 X10.5945 Y3.6455
G01 X10.5912 Y3.6609
G01 X10.5868 Y3.6760
G01 X10.5813 Y3.6907
G01 X10.5748 Y3.7050
G01 X10.5672 Y3.7188
G01 X10.5572 Y3.7340
G01 X10.5645 Y3.7447
G01 X10.5724 Y3.7583
G01 X10.5793 Y3.7724
G01 X10.5851 Y3.7870
G01 X10.5899 Y3.8020
G01 X10.5935 Y3.8173
G01 X10.5960 Y3.8329
G01 X10.5973 Y3.8485
G01 X10.5976 Y3.8590
G01 X10.5975 Y4.4142
G01 X10.5966 Y4.4299
G01 X10.5945 Y4.4455
G01 X10.5912 Y4.4609
G01 X10.5868 Y4.4760
G01 X10.5813 Y4.4907
G01 X10.5748 Y4.5050
G01 X10.5672 Y4.5188
G01 X10.5572 Y4.5340
G01 X10.5645 Y4.5447
G01 X10.5724 Y4.5583
G01 X10.5793 Y4.5724
G01 X10.5851 Y4.5870
G01 X10.5899 Y4.6020
G01 X10.5935 Y4.6173
G01 X10.5960 Y4.6329
G01 X10.5973 Y4.6485
G01 X10.5976 Y4.6590
G01 X10.5976 Y5.2090
G01 X10.5970 Y5.2247
G01 X10.5953 Y5.2403
G01 X10.5935 Y5.2507
G01 X10.5912 Y5.2609
G01 X10.5868 Y5.2760
G01 X10.5813 Y5.2907
G01 X10.5748 Y5.3050
G01 X10.5672 Y5.3188
G01 X10.5572 Y5.3340
G01 X10.5645 Y5.3447
G01 X10.5724 Y5.3583
G01 X10.5793 Y5.3724
G01 X10.5851 Y5.3870
G01 X10.5899 Y5.4020
G01 X10.5935 Y5.4173
G01 X10.5960 Y5.4329
G01 X10.5973 Y5.4485
G01 X10.5976 Y5.4590
G01 X10.5976 Y6.0090
G01 X10.5970 Y6.0247
G01 X10.5953 Y6.0403
G01 X10.5935 Y6.0507
G01 X10.5912 Y6.0609
G01 X10.5868 Y6.0760
G01 X10.5813 Y6.0907
G01 X10.5748 Y6.1050
G01 X10.5672 Y6.1188
G01 X10.5572 Y6.1340
G01 X10.5645 Y6.1447
G01 X10.5724 Y6.1583
G01 X10.5793 Y6.1724
G01 X10.5851 Y6.1870
G01 X10.5899 Y6.2020
G01 X10.5935 Y6.2173
G01 X10.5960 Y6.2329
G01 X10.5973 Y6.2485
G01 X10.5976 Y6.2590
G01 X10.5976 Y6.8090
G01 X10.5970 Y6.8247
G01 X10.5953 Y6.8403
G01 X10.5935 Y6.8507
G01 X10.5912 Y6.8609
G01 X10.5868 Y6.8760
G01 X10.5813 Y6.8907
G01 X10.5748 Y6.9050
G01 X10.5672 Y6.9188
G01 X10.5572 Y6.9340
G01 X10.5645 Y6.9447
G01 X10.5724 Y6.9583
G01 X10.5793 Y6.9724
G01 X10.5851 Y6.9870
G01 X10.5899 Y7.0020
G01 X10.5935 Y7.0173
G01 X10.5960 Y7.0329
G01 X10.5973 Y7.0485
G01 X10.5976 Y7.0590
G01 X10.5976 Y7.6090
G01 X10.5970 Y7.6247
G01 X10.5953 Y7.6403
G01 X10.5935 Y7.6507
G01 X10.5912 Y7.6609
G01 X10.5868 Y7.6760
G01 X10.5813 Y7.6907
G01 X10.5748 Y7.7050
G01 X10.5672 Y7.7188
G01 X10.5572 Y7.7340
G01 X10.5645 Y7.7447
G01 X10.5724 Y7.7583
G01 X10.5793 Y7.7724
G01 X10.5851 Y7.7870
G01 X10.5899 Y7.8020
G01 X10.5935 Y7.8173
G01 X10.5960 Y7.8329
G01 X10.5973 Y7.8485
G01 X10.5976 Y7.8590
G01 X10.5975 Y8.4142
G01 X10.5966 Y8.4299
G01 X10.5953 Y8.4403
G01 X10.5935 Y8.4507
G01 X10.5899 Y8.4660
G01 X10.5851 Y8.4810
G01 X10.5793 Y8.4956
G01 X10.5748 Y8.5050
G01 X10.5699 Y8.5143
G01 X10.5616 Y8.5277
G01 X10.5524 Y8.5404
G01 X10.5423 Y8.5524
G01 X10.5350 Y8.5600
G01 X10.5274 Y8.5673
G01 X10.5154 Y8.5774
G01 X10.5027 Y8.5866
G01 X10.4938 Y8.5922
G01 X10.4847 Y8.5974
G01 X10.4706 Y8.6043
G01 X10.4560 Y8.6101
G01 X10.4460 Y8.6134
G01 X10.4359 Y8.6162
G01 X10.4257 Y8.6185
G01 X10.4101 Y8.6210
G01 X10.3945 Y8.6223
G01 X10.3840 Y8.6226
G01 X8.7840 Y8.6226
G01 X8.7683 Y8.6220
G01 X8.7527 Y8.6203
G01 X8.7423 Y8.6185
G01 X8.7321 Y8.6162
G01 X8.7170 Y8.6118
G01 X8.7023 Y8.6063
G01 X8.6880 Y8.5998
G01 X8.6787 Y8.5949
G01 X8.6697 Y8.5895
G01 X8.6568 Y8.5806
G01 X8.6445 Y8.5707
G01 X8.6330 Y8.5600
G01 X8.6223 Y8.5485
G01 X8.6156 Y8.5404
G01 X8.6094 Y8.5320
G01 X8.6008 Y8.5188
G01 X8.5932 Y8.5050
G01 X8.5867 Y8.4907
G01 X8.5812 Y8.4760
G01 X8.5768 Y8.4609
G01 X8.5735 Y8.4455
G01 X8.5720 Y8.4351
G01 X8.5707 Y8.4195
G01 X8.5704 Y8.4090
G01 X8.5704 Y7.8590
G01 X8.5707 Y7.8485
G01 X8.5720 Y7.8329
G01 X8.5745 Y7.8173
G01 X8.5781 Y7.8020
G01 X8.5829 Y7.7870
G01 X8.5887 Y7.7724
G01 X8.5956 Y7.7583
G01 X8.6035 Y7.7447
G01 X8.6108 Y7.7340
G01 X8.6035 Y7.7233
G01 X8.5956 Y7.7097
G01 X8.5887 Y7.6956
G01 X8.5829 Y7.6810
G01 X8.5781 Y7.6660
G01 X8.5745 Y7.6507
G01 X8.5720 Y7.6351
G01 X8.5707 Y7.6195
G01 X8.5704 Y7.6090
G01 X8.5705 Y7.0538
G01 X8.5714 Y7.0381
G01 X8.5735 Y7.0225
G01 X8.5768 Y7.0071
G01 X8.5812 Y6.9920
G01 X8.5867 Y6.9773
G01 X8.5932 Y6.9630
G01 X8.6008 Y6.9492
G01 X8.6108 Y6.9340
G01 X8.6035 Y6.9233
G01 X8.5956 Y6.9097
G01 X8.5887 Y6.8956
G01 X8.5829 Y6.8810
G01 X8.5781 Y6.8660
G01 X8.5745 Y6.8507
G01 X8.5720 Y6.8351
G01 X8.5707 Y6.8195
G01 X8.5704 Y6.8090
G01 X8.5705 Y6.2538
G01 X8.5714 Y6.2381
G01 X8.5735 Y6.2225
G01 X8.5768 Y6.2071
G01 X8.5812 Y6.1920
G01 X8.5867 Y6.1773
G01 X8.5932 Y6.1630
G01 X8.6008 Y6.1492
G01 X8.6108 Y6.1340
G01 X8.6035 Y6.1233
G01 X8.5956 Y6.1097
G01 X8.5887 Y6.0956
G01 X8.5829 Y6.0810
G01 X8.5781 Y6.0660
G01 X8.5745 Y6.0507
G01 X8.5720 Y6.0351
G01 X8.5707 Y6.0195
G01 X8.5704 Y6.0090
G01 X8.5704 Y5.4590
G01 X8.5710 Y5.4433
G01 X8.5720 Y5.4329
G01 X8.5735 Y5.4225
G01 X8.5768 Y5.4071
G01 X8.5812 Y5.3920
G01 X8.5867 Y5.3773
G01 X8.5932 Y5.3630
G01 X8.6008 Y5.3492
G01 X8.6108 Y5.3340
G01 X8.6035 Y5.3233
G01 X8.5956 Y5.3097
G01 X8.5887 Y5.2956
G01 X8.5829 Y5.2810
G01 X8.5781 Y5.2660
G01 X8.5745 Y5.2507
G01 X8.5720 Y5.2351
G01 X8.5707 Y5.2195
G01 X8.5704 Y5.2090
G01 X8.5704 Y4.6590
G01 X8.5710 Y4.6433
G01 X8.5720 Y4.6329
G01 X8.5735 Y4.6225
G01 X8.5768 Y4.6071
G01 X8.5812 Y4.5920
G01 X8.5867 Y4.5773
G01 X8.5932 Y4.5630
G01 X8.6008 Y4.5492
G01 X8.6108 Y4.5340
G01 X8.6035 Y4.5233
G01 X8.5956 Y4.5097
G01 X8.5887 Y4.4956
G01 X8.5829 Y4.4810
G01 X8.5781 Y4.4660
G01 X8.5745 Y4.4507
G01 X8.5720 Y4.4351
G01 X8.5707 Y4.4195
G01 X8.5704 Y4.4090
G01 X8.5704 Y3.8590
G01 X8.5710 Y3.8433
G01 X8.5720 Y3.8329
G01 X8.5735 Y3.8225
G01 X8.5768 Y3.8071
G01 X8.5812 Y3.7920
G01 X8.5867 Y3.7773
G01 X8.5932 Y3.7630
G01 X8.6008 Y3.7492
G01 X8.6108 Y3.7340
G01 X8.6035 Y3.7233
G01 X8.5956 Y3.7097
G01 X8.5887 Y3.6956
G01 X8.5829 Y3.6810
G01 X8.5781 Y3.6660
G01 X8.5745 Y3.6507
G01 X8.5720 Y3.6351
G01 X8.5707 Y3.6195
G01 X8.5704 Y3.6090
G01 X8.5704 Y3.0590
G01 X8.5710 Y3.0433
G01 X8.5720 Y3.0329
G01 X8.5735 Y3.0225
G01 X8.5768 Y3.0071
G01 X8.5812 Y2.9920
G01 X8.5867 Y2.9773
G01 X8.5932 Y2.9630
G01 X8.6008 Y2.9492
G01 X8.6108 Y2.9340
G01 X8.6035 Y2.9233
G01 X8.5956 Y2.9097
G01 X8.5887 Y2.8956
G01 X8.5829 Y2.8810
G01 X8.5781 Y2.8660
G01 X8.5745 Y2.8507
G01 X8.5720 Y2.8351
G01 X8.5707 Y2.8195
G01 X8.5704 Y2.8090
G01 X8.5705 Y2.2538
G01 X8.5714 Y2.2381
G01 X8.5727 Y2.2277
G01 X8.5745 Y2.2173
G01 X8.5781 Y2.2020
G01 X8.5812 Y2.1920
G01 X8.5847 Y2.1821
G01 X8.5909 Y2.1677
G01 X8.5956 Y2.1583
G01 X8.6008 Y2.1492
G01 X8.6064 Y2.1403
G01 X8.6124 Y2.1318
G01 X8.6189 Y2.1235
G01 X8.6257 Y2.1156
G01 X8.6330 Y2.1080
G01 X8.6406 Y2.1007
G01 X8.6526 Y2.0906
G01 X8.6653 Y2.0814
G01 X8.6742 Y2.0758
G01 X8.6833 Y2.0706
G01 X8.6927 Y2.0659
G01 X8.7023 Y2.0617
G01 X8.7170 Y2.0562
G01 X8.7321 Y2.0518
G01 X8.7423 Y2.0495
G01 X8.7527 Y2.0477
G00 Z2.0000
G00 X7.8433 Y0.1784
G01 F200.00
G01 Z-0.1000
G01 F300.00
G01 X7.8511 Y0.1775
G01 X7.8590 Y0.1772
G01 X8.4090 Y0.1772
G01 X8.4195 Y0.1777
G01 X8.4273 Y0.1788
G01 X8.4350 Y0.1804
G01 X8.4474 Y0.1844
G01 X8.4547 Y0.1875
G01 X8.4616 Y0.1911
G01 X8.4683 Y0.1952
G01 X8.4747 Y0.1998
G01 X8.4807 Y0.2049
G01 X8.4863 Y0.2104
G01 X8.4916 Y0.2162
G01 X8.4963 Y0.2225
G01 X8.5006 Y0.2291
G01 X8.5044 Y0.2360
G01 X8.5077 Y0.2431
G01 X8.5104 Y0.2505
G01 X8.5132 Y0.2606
G01 X8.5146 Y0.2683
G01 X8.5155 Y0.2761
G01 X8.5158 Y0.2840
G01 X8.5157 Y1.8892
G01 X8.5150 Y1.8971
G01 X8.5137 Y1.9048
G01 X8.5119 Y1.9125
G01 X8.5096 Y1.9200
G01 X8.5066 Y1.9273
G01 X8.5032 Y1.9343
G01 X8.4992 Y1.9411
G01 X8.4948 Y1.9476
G01 X8.4899 Y1.9538
G01 X8.4845 Y1.9595
G01 X8.4768 Y1.9666
G01 X8.4705 Y1.9713
G01 X8.4639 Y1.9756
G01 X8.4570 Y1.9794
G01 X8.4499 Y1.9827
G01 X8.4425 Y1.9854
G01 X8.4324 Y1.9882
G01 X8.4247 Y1.9896
G01 X8.4169 Y1.9905
G01 X8.4090 Y1.9908
G01 X7.8590 Y1.9908
G01 X7.8485 Y1.9903
G01 X7.8407 Y1.9892
G01 X7.8330 Y1.9876
G01 X7.8206 Y1.9836
G01 X7.8133 Y1.9805
G01 X7.8064 Y1.9769
G01 X7.7997 Y1.9728
G01 X7.7933 Y1.9682
G01 X7.7873 Y1.9631
G01 X7.7817 Y1.9576
G01 X7.7764 Y1.9518
G01 X7.7717 Y1.9455
G01 X7.7674 Y1.9389
G01 X7.7636 Y1.9320
G01 X7.7603 Y1.9249
G01 X7.7576 Y1.9175
G01 X7.7554 Y1.9100
G01 X7.7534 Y1.8997
G01 X7.7525 Y1.8919
G01 X7.7522 Y1.8840
G01 X7.7523 Y0.2788
G01 X7.7530 Y0.2709
G01 X7.7548 Y0.2606
G01 X7.7568 Y0.2530
G01 X7.7603 Y0.2431
G01 X7.7636 Y0.2360
G01 X7.7688 Y0.2269
G01 X7.7748 Y0.2183
G01 X7.7799 Y0.2123
G01 X7.7854 Y0.2067
G01 X7.7933 Y0.1998
G01 X7.7997 Y0.1952
G01 X7.8087 Y0.1898
G01 X7.8157 Y0.1864
G01 X7.8255 Y0.1826
G01 X7.8330 Y0.1804
G01 X7.8433 Y0.1784
G00 Z2.0000
G00 X7.0459 Y0.1780
G01 F200.00
G01 Z-0.1000
G01 F300.00
G01 X7.0590 Y0.1772
G01 X7.6090 Y0.1772
G01 X7.6195 Y0.1777
G01 X7.6273 Y0.1788
G01 X7.6350 Y0.1804
G01 X7.6425 Y0.1826
G01 X7.6499 Y0.1853
G01 X7.6570 Y0.1886
G01 X7.6639 Y0.1924
G01 X7.6747 Y0.1998
G01 X7.6807 Y0.2049
G01 X7.6863 Y0.2104
G01 X7.6916 Y0.2162
G01 X7.6963 Y0.2225
G01 X7.7006 Y0.2291
G01 X7.7044 Y0.2360
G01 X7.7077 Y0.2431
G01 X7.7104 Y0.2505
G01 X7.7126 Y0.2580
G01 X7.7142 Y0.2657
G01 X7.7155 Y0.2761
G01 X7.7158 Y0.2840
G01 X7.7157 Y1.8892
G01 X7.7150 Y1.8971
G01 X7.7137 Y1.9048
G01 X7.7119 Y1.9125
G01 X7.7096 Y1.9200
G01 X7.7066 Y1.9273
G01 X7.7032 Y1.9343
G01 X7.6992 Y1.9411
G01 X7.6948 Y1.9476
G01 X7.6899 Y1.9538
G01 X7.6826 Y1.9613
G01 X7.6768 Y1.9666
G01 X7.6705 Y1.9713
G01 X7.6639 Y1.9756
G01 X7.6570 Y1.9794
G01 X7.6499 Y1.9827
G01 X7.6425 Y1.9854
G01 X7.6350 Y1.9876
G01 X7.6273 Y1.9892
G01 X7.6169 Y1.9905
G01 X7.6090 Y1.9908
G01 X7.0590 Y1.9908
G01 X7.0485 Y1.9903
G01 X7.0407 Y1.9892
G01 X7.0330 Y1.9876
G01 X7.0206 Y1.9836
G01 X7.0133 Y1.9805
G01 X7.0064 Y1.9769
G01 X6.9997 Y1.9728
G01 X6.9933 Y1.9682
G01 X6.9873 Y1.9631
G01 X6.9817 Y1.9576
G01 X6.9764 Y1.9518
G01 X6.9717 Y1.9455
G01 X6.9674 Y1.9389
G01 X6.9636 Y1.9320
G01 X6.9603 Y1.9249
G01 X6.9576 Y1.9175
G01 X6.9554 Y1.9100
G01 X6.9534 Y1.8997
G01 X6.9525 Y1.8919
G01 X6.9522 Y1.8840
G01 X6.9523 Y0.2788
G01 X6.9534 Y0.2683
G01 X6.9548 Y0.2606
G01 X6.9568 Y0.2530
G01 X6.9603 Y0.2431
G01 X6.9648 Y0.2337
G01 X6.9702 Y0.2247
G01 X6.9748 Y0.2183
G01 X6.9817 Y0.2104
G01 X6.9892 Y0.2031
G01 X6.9954 Y0.1982
G01 X7.0019 Y0.1938
G01 X7.0110 Y0.1886
G01 X7.0181 Y0.1853
G01 X7.0280 Y0.1818
G01 X7.0382 Y0.1793
G01 X7.0459 Y0.1780
G00 Z2.0000
G00 X6.2459 Y0.1780
G01 F200.00
G01 Z-0.1000
G01 F300.00
G01 X6.2590 Y0.1772
G01 X6.8090 Y0.1772
G01 X6.8195 Y0.1777
G01 X6.8273 Y0.1788
G01 X6.8350 Y0.1804
G01 X6.8425 Y0.1826
G01 X6.8499 Y0.1853
G01 X6.8570 Y0.1886
G01 X6.8639 Y0.1924
G01 X6.8747 Y0.1998
G01 X6.8807 Y0.2049
G01 X6.8863 Y0.2104
G01 X6.8916 Y0.2162
G01 X6.8963 Y0.2225
G01 X6.9006 Y0.2291
G01 X6.9044 Y0.2360
G01 X6.9077 Y0.2431
G01 X6.9104 Y0.2505
G01 X6.9126 Y0.2580
G01 X6.9142 Y0.2657
G01 X6.9155 Y0.2761
G01 X6.9158 Y0.2840
G01 X6.9157 Y1.8892
G01 X6.9150 Y1.8971
G01 X6.9137 Y1.9048
G01 X6.9119 Y1.9125
G01 X6.9096 Y1.9200
G01 X6.9066 Y1.9273
G01 X6.9032 Y1.9343
G01 X6.8992 Y1.9411
G01 X6.8948 Y1.9476
G01 X6.8899 Y1.9538
G01 X6.8826 Y1.9613
G01 X6.8768 Y1.9666
G01 X6.8705 Y1.9713
G01 X6.8639 Y1.9756
G01 X6.8570 Y1.9794
G01 X6.8499 Y1.9827
G01 X6.8425 Y1.9854
G01 X6.8350 Y1.9876
G01 X6.8273 Y1.9892
G01 X6.8169 Y1.9905
G01 X6.8090 Y1.9908
G01 X6.2590 Y1.9908
G01 X6.2485 Y1.9903
G01 X6.2407 Y1.9892
G01 X6.2330 Y1.9876
G01 X6.2206 Y1.9836
G01 X6.2133 Y1.9805
G01 X6.2064 Y1.9769
G01 X6.1997 Y1.9728
G01 X6.1933 Y1.9682
G01 X6.1873 Y1.9631
G01 X6.1817 Y1.9576
G01 X6.1764 Y1.9518
G01 X6.1717 Y1.9455
G01 X6.1674 Y1.9389
G01 X6.1636 Y1.9320
G01 X6.1603 Y1.9249
G01 X6.1576 Y1.9175
G01 X6.1554 Y1.9100
G01 X6.1534 Y1.8997
G01 X6.1525 Y1.8919
G01 X6.1522 Y1.8840
G01 X6.1523 Y0.2788
G01 X6.1534 Y0.2683
G01 X6.1554 Y0.2580
G01 X6.1576 Y0.2505
G01 X6.1614 Y0.2407
G01 X6.1661 Y0.2314
G01 X6.1702 Y0.2247
G01 X6.1748 Y0.2183
G01 X6.1817 Y0.2104
G01 X6.1892 Y0.2031
G01 X6.1954 Y0.1982
G01 X6.2019 Y0.1938
G01 X6.2110 Y0.1886
G01 X6.2181 Y0.1853
G01 X6.2280 Y0.1818
G01 X6.2382 Y0.1793
G01 X6.2459 Y0.1780
G00 Z2.0000
G00 X5.4459 Y0.1780
G01 F200.00
G01 Z-0.1000
G01 F300.00
G01 X5.4590 Y0.1772
G01 X6.0090 Y0.1772
G01 X6.0195 Y0.1777
G01 X6.0273 Y0.1788
G01 X6.0350 Y0.1804
G01 X6.0425 Y0.1826
G01 X6.0499 Y0.1853
G01 X6.0570 Y0.1886
G01 X6.0639 Y0.1924
G01 X6.0747 Y0.1998
G01 X6.0807 Y0.2049
G01 X6.0863 Y0.2104
G01 X6.0916 Y0.2162
G01 X6.0963 Y0.2225
G01 X6.1006 Y0.2291
G01 X6.1044 Y0.2360
G01 X6.1077 Y0.2431
G01 X6.1104 Y0.2505
G01 X6.1126 Y0.2580
G01 X6.1142 Y0.2657
G01 X6.1155 Y0.2761
G01 X6.1158 Y0.2840
G01 X6.1157 Y1.8892
G01 X6.1150 Y1.8971
G01 X6.1137 Y1.9048
G01 X6.1119 Y1.9125
G01 X6.1096 Y1.9200
G01 X6.1066 Y1.9273
G01 X6.1032 Y1.9343
G01 X6.0992 Y1.9411
G01 X6.0948 Y1.9476
G01 X6.0899 Y1.9538
G01 X6.0826 Y1.9613
G01 X6.0768 Y1.9666
G01 X6.0705 Y1.9713
G01 X6.0639 Y1.9756
G01 X6.0570 Y1.9794
G01 X6.0499 Y1.9827
G01 X6.0425 Y1.9854
G01 X6.0350 Y1.9876
G01 X6.0273 Y1.9892
G01 X6.0169 Y1.9905
G01 X6.0090 Y1.9908
G01 X5.4590 Y1.9908
G01 X5.4485 Y1.9903
G01 X5.4407 Y1.9892
G01 X5.4330 Y1.9876
G01 X5.4206 Y1.9836
G01 X5.4133 Y1.9805
G01 X5.4064 Y1.9769
G01 X5.3997 Y1.9728
G01 X5.3933 Y1.9682
G01 X5.3873 Y1.9631
G01 X5.3817 Y1.9576
G01 X5.3764 Y1.9518
G01 X5.3717 Y1.9455
G01 X5.3674 Y1.9389
G01 X5.3636 Y1.9320
G01 X5.3603 Y1.9249
G01 X5.3576 Y1.9175
G01 X5.3554 Y1.9100
G01 X5.3534 Y1.8997
G01 X5.3525 Y1.8919
G01 X5.3522 Y1.8840
G01 X5.3523 Y0.2788
G01 X5.3534 Y0.2683
G01 X5.3548 Y0.2606
G01 X5.3568 Y0.2530
G01 X5.3603 Y0.2431
G01 X5.3648 Y0.2337
G01 X5.3702 Y0.2247
G01 X5.3748 Y0.2183
G01 X5.3817 Y0.2104
G01 X5.3892 Y0.2031
G01 X5.3954 Y0.1982
G01 X5.4019 Y0.1938
G01 X5.4110 Y0.1886
G01 X5.4181 Y0.1853
G01 X5.4280 Y0.1818
G01 X5.4382 Y0.1793
G01 X5.4459 Y0.1780
G00 Z2.0000
G00 X4.6459 Y0.1780
G01 F200.00
G01 Z-0.1000
G01 F300.00
G01 X4.6590 Y0.1772
G01 X5.2090 Y0.1772
G01 X5.2195 Y0.1777
G01 X5.2273 Y0.1788
G01 X5.2350 Y0.1804
G01 X5.2425 Y0.1826
G01 X5.2499 Y0.1853
G01 X5.2570 Y0.1886
G01 X5.2639 Y0.1924
G01 X5.2747 Y0.1998
G01 X5.2807 Y0.2049
G01 X5.2863 Y0.2104
G01 X5.2916 Y0.2162
G01 X5.2963 Y0.2225
G01 X5.3006 Y0.2291
G01 X5.3044 Y0.2360
G01 X5.3077 Y0.2431
G01 X5.3104 Y0.2505
G01 X5.3126 Y0.2580
G01 X5.3142 Y0.2657
G01 X5.3155 Y0.2761
G01 X5.3158 Y0.2840
G01 X5.3157 Y1.8892
G01 X5.3150 Y1.8971
G01 X5.3137 Y1.9048
G01 X5.3119 Y1.9125
G01 X5.3096 Y1.9200
G01 X5.3066 Y1.9273
G01 X5.3032 Y1.9343
G01 X5.2992 Y1.9411
G01 X5.2948 Y1.9476
G01 X5.2899 Y1.9538
G01 X5.2826 Y1.9613
G01 X5.2768 Y1.9666
G01 X5.2705 Y1.9713
G01 X5.2639 Y1.9756
G01 X5.2570 Y1.9794
G01 X5.2499 Y1.9827
G01 X5.2425 Y1.9854
G01 X5.2350 Y1.9876
G01 X5.2273 Y1.9892
G01 X5.2169 Y1.9905
G01 X5.2090 Y1.9908
G01 X4.6590 Y1.9908
G01 X4.6485 Y1.9903
G01 X4.6407 Y1.9892
G01 X4.6330 Y1.9876
G01 X4.6206 Y1.9836
G01 X4.6133 Y1.9805
G01 X4.6064 Y1.9769
G01 X4.5997 Y1.9728
G01 X4.5933 Y1.9682
G01 X4.5873 Y1.9631
G01 X4.5817 Y1.9576
G01 X4.5764 Y1.9518
G01 X4.5717 Y1.9455
G01 X4.5674 Y1.9389
G01 X4.5636 Y1.9320
G01 X4.5603 Y1.9249
G01 X4.5576 Y1.9175
G01 X4.5554 Y1.9100
G01 X4.5534 Y1.8997
G01 X4.5525 Y1.8919
G01 X4.5522 Y1.8840
G01 X4.5523 Y0.2788
G01 X4.5534 Y0.2683
G01 X4.5554 Y0.2580
G01 X4.5576 Y0.2505
G01 X4.5614 Y0.2407
G01 X4.5661 Y0.2314
G01 X4.5702 Y0.2247
G01 X4.5748 Y0.2183
G01 X4.5817 Y0.2104
G01 X4.5892 Y0.2031
G01 X4.5954 Y0.1982
G01 X4.6019 Y0.1938
G01 X4.6110 Y0.1886
G01 X4.6181 Y0.1853
G01 X4.6280 Y0.1818
G01 X4.6382 Y0.1793
G01 X4.6459 Y0.1780
G00 Z2.0000
G00 X3.8459 Y0.1780
G01 F200.00
G01 Z-0.1000
G01 F300.00
G01 X3.8590 Y0.1772
G01 X4.4090 Y0.1772
G01 X4.4195 Y0.1777
G01 X4.4273 Y0.1788
G01 X4.4350 Y0.1804
G01 X4.4425 Y0.1826
G01 X4.4499 Y0.1853
G01 X4.4570 Y0.1886
G01 X4.4639 Y0.1924
G01 X4.4747 Y0.1998
G01 X4.4807 Y0.2049
G01 X4.4863 Y0.2104
G01 X4.4916 Y0.2162
G01 X4.4963 Y0.2225
G01 X4.5006 Y0.2291
G01 X4.5044 Y0.2360
G01 X4.5077 Y0.2431
G01 X4.5104 Y0.2505
G01 X4.5126 Y0.2580
G01 X4.5142 Y0.2657
G01 X4.5155 Y0.2761
G01 X4.5158 Y0.2840
G01 X4.5157 Y1.8892
G01 X4.5150 Y1.8971
G01 X4.5137 Y1.9048
G01 X4.5119 Y1.9125
G01 X4.5096 Y1.9200
G01 X4.5066 Y1.9273
G01 X4.5032 Y1.9343
G01 X4.4992 Y1.9411
G01 X4.4948 Y1.9476
G01 X4.4899 Y1.9538
G01 X4.4826 Y1.9613
G01 X4.4768 Y1.9666
G01 X4.4705 Y1.9713
G01 X4.4639 Y1.9756
G01 X4.4570 Y1.9794
G01 X4.4499 Y1.9827
G01 X4.4425 Y1.9854
G01 X4.4350 Y1.9876
G01 X4.4273 Y1.9892
G01 X4.4169 Y1.9905
G01 X4.4090 Y1.9908
G01 X3.8590 Y1.9908
G01 X3.8485 Y1.9903
G01 X3.8407 Y1.9892
G01 X3.8330 Y1.9876
G01 X3.8255 Y1.9854
G01 X3.8181 Y1.9827
G01 X3.8110 Y1.9794
G01 X3.8041 Y1.9756
G01 X3.7975 Y1.9713
G01 X3.7912 Y1.9666
G01 X3.7854 Y1.9613
G01 X3.7799 Y1.9557
G01 X3.7748 Y1.9497
G01 X3.7702 Y1.9433
G01 X3.7661 Y1.9366
G01 X3.7625 Y1.9297
G01 X3.7576 Y1.9175
G01 X3.7548 Y1.9074
G01 X3.7534 Y1.8997
G01 X3.7525 Y1.8919
G01 X3.7522 Y1.8840
G01 X3.7523 Y0.2788
G01 X3.7534 Y0.2683
G01 X3.7548 Y0.2606
G01 X3.7568 Y0.2530
G01 X3.7603 Y0.2431
G01 X3.7636 Y0.2360
G01 X3.7688 Y0.2269
G01 X3.7732 Y0.2204
G01 X3.7799 Y0.2123
G01 X3.7873 Y0.2049
G01 X3.7933 Y0.1998
G01 X3.8019 Y0.1938
G01 X3.8087 Y0.1898
G01 X3.8181 Y0.1853
G01 X3.8255 Y0.1826
G01 X3.8356 Y0.1798
G01 X3.8459 Y0.1780
G00 Z2.0000
G00 X3.8329 Y0.0720
G01 F200.00
G01 Z-0.1000
G01 F300.00
G01 X3.8485 Y0.0707
G01 X3.8590 Y0.0704
G01 X4.4090 Y0.0704
G01 X4.4195 Y0.0707
G01 X4.4351 Y0.0720
G01 X4.4507 Y0.0745
G01 X4.4660 Y0.0781
G01 X4.4810 Y0.0829
G01 X4.4956 Y0.0887
G01 X4.5097 Y0.0956
G01 X4.5233 Y0.1035
G01 X4.5340 Y0.1108
G01 X4.5492 Y0.1008
G01 X4.5630 Y0.0932
G01 X4.5773 Y0.0867
G01 X4.5920 Y0.0812
G01 X4.6071 Y0.0768
G01 X4.6173 Y0.0745
G01 X4.6277 Y0.0727
G01 X4.6433 Y0.0710
G01 X4.6590 Y0.0704
G01 X5.2090 Y0.0704
G01 X5.2195 Y0.0707
G01 X5.2351 Y0.0720
G01 X5.2507 Y0.0745
G01 X5.2660 Y0.0781
G01 X5.2810 Y0.0829
G01 X5.2956 Y0.0887
G01 X5.3097 Y0.0956
G01 X5.3233 Y0.1035
G01 X5.3340 Y0.1108
G01 X5.3492 Y0.1008
G01 X5.3630 Y0.0932
G01 X5.3773 Y0.0867
G01 X5.3920 Y0.0812
G01 X5.4071 Y0.0768
G01 X5.4173 Y0.0745
G01 X5.4277 Y0.0727
G01 X5.4433 Y0.0710
G01 X5.4590 Y0.0704
G01 X6.0090 Y0.0704
G01 X6.0195 Y0.0707
G01 X6.0351 Y0.0720
G01 X6.0507 Y0.0745
G01 X6.0660 Y0.0781
G01 X6.0810 Y0.0829
G01 X6.0956 Y0.0887
G01 X6.1097 Y0.0956
G01 X6.1233 Y0.1035
G01 X6.1340 Y0.1108
G01 X6.1492 Y0.1008
G01 X6.1630 Y0.0932
G01 X6.1773 Y0.0867
G01 X6.1920 Y0.0812
G01 X6.2071 Y0.0768
G01 X6.2173 Y0.0745
G01 X6.2277 Y0.0727
G01 X6.2433 Y0.0710
G01 X6.2590 Y0.0704
G01 X6.8090 Y0.0704
G01 X6.8195 Y0.0707
G01 X6.8351 Y0.0720
G01 X6.8507 Y0.0745
G01 X6.8660 Y0.0781
G01 X6.8810 Y0.0829
G01 X6.8956 Y0.0887
G01 X6.9097 Y0.0956
G01 X6.9233 Y0.1035
G01 X6.9340 Y0.1108
G01 X6.9492 Y0.1008
G01 X6.9630 Y0.0932
G01 X6.9773 Y0.0867
G01 X6.9920 Y0.0812
G01 X7.0071 Y0.0768
G01 X7.0225 Y0.0735
G01 X7.0381 Y0.0714
G01 X7.0538 Y0.0705
G01 X7.6090 Y0.0704
G01 X7.6195 Y0.0707
G01 X7.6351 Y0.0720
G01 X7.6507 Y0.0745
G01 X7.6660 Y0.0781
G01 X7.6810 Y0.0829
G01 X7.6956 Y0.0887
G01 X7.7097 Y0.0956
G01 X7.7233 Y0.1035
G01 X7.7340 Y0.1108
G01 X7.7492 Y0.1008
G01 X7.7630 Y0.0932
G01 X7.7773 Y0.0867
G01 X7.7920 Y0.0812
G01 X7.8071 Y0.0768
G01 X7.8225 Y0.0735
G01 X7.8381 Y0.0714
G01 X7.8538 Y0.0705
G01 X8.4142 Y0.0705
G01 X8.4299 Y0.0714
G01 X8.4403 Y0.0727
G01 X8.4507 Y0.0745
G01 X8.4660 Y0.0781
G01 X8.4760 Y0.0812
G01 X8.4859 Y0.0847
G01 X8.5003 Y0.0909
G01 X8.5097 Y0.0956
G01 X8.5233 Y0.1035
G01 X8.5362 Y0.1124
G01 X8.5485 Y0.1223
G01 X8.5600 Y0.1330
G01 X8.5707 Y0.1445
G01 X8.5806 Y0.1568
G01 X8.5895 Y0.1697
G01 X8.5974 Y0.1833
G01 X8.6043 Y0.1974
G01 X8.6083 Y0.2071
G01 X8.6134 Y0.2220
G01 X8.6174 Y0.2372
G01 X8.6203 Y0.2527
G01 X8.6220 Y0.2683
G01 X8.6226 Y0.2840
G01 X8.6226 Y1.8840
G01 X8.6223 Y1.8945
G01 X8.6216 Y1.9049
G01 X8.6203 Y1.9153
G01 X8.6185 Y1.9257
G01 X8.6162 Y1.9359
G01 X8.6134 Y1.9460
G01 X8.6083 Y1.9609
G01 X8.6021 Y1.9753
G01 X8.5949 Y1.9893
G01 X8.5866 Y2.0027
G01 X8.5774 Y2.0154
G01 X8.5673 Y2.0274
G01 X8.5563 Y2.0387
G01 X8.5445 Y2.0491
G01 X8.5320 Y2.0586
G01 X8.5188 Y2.0672
G01 X8.5050 Y2.0748
G01 X8.4907 Y2.0813
G01 X8.4760 Y2.0868
G01 X8.4609 Y2.0912
G01 X8.4455 Y2.0945
G01 X8.4299 Y2.0966
G01 X8.4142 Y2.0975
G01 X7.8590 Y2.0976
G01 X7.8485 Y2.0973
G01 X7.8329 Y2.0960
G01 X7.8173 Y2.0935
G01 X7.8020 Y2.0899
G01 X7.7870 Y2.0851
G01 X7.7724 Y2.0793
G01 X7.7583 Y2.0724
G01 X7.7447 Y2.0645
G01 X7.7340 Y2.0572
G01 X7.7188 Y2.0672
G01 X7.7050 Y2.0748
G01 X7.6907 Y2.0813
G01 X7.6760 Y2.0868
G01 X7.6609 Y2.0912
G01 X7.6455 Y2.0945
G01 X7.6299 Y2.0966
G01 X7.6142 Y2.0975
G01 X7.0590 Y2.0976
G01 X7.0485 Y2.0973
G01 X7.0329 Y2.0960
G01 X7.0173 Y2.0935
G01 X7.0020 Y2.0899
G01 X6.9870 Y2.0851
G01 X6.9724 Y2.0793
G01 X6.9583 Y2.0724
G01 X6.9447 Y2.0645
G01 X6.9340 Y2.0572
G01 X6.9188 Y2.0672
G01 X6.9050 Y2.0748
G01 X6.8907 Y2.0813
G01 X6.8760 Y2.0868
G01 X6.8609 Y2.0912
G01 X6.8455 Y2.0945
G01 X6.8299 Y2.0966
G01 X6.8142 Y2.0975
G01 X6.2590 Y2.0976
G01 X6.2485 Y2.0973
G01 X6.2329 Y2.0960
G01 X6.2173 Y2.0935
G01 X6.2020 Y2.0899
G01 X6.1870 Y2.0851
G01 X6.1724 Y2.0793
G01 X6.1583 Y2.0724
G01 X6.1447 Y2.0645
G01 X6.1340 Y2.0572
G01 X6.1233 Y2.0645
G01 X6.1097 Y2.0724
G01 X6.0956 Y2.0793
G01 X6.0810 Y2.0851
G01 X6.0660 Y2.0899
G01 X6.0507 Y2.0935
G01 X6.0351 Y2.0960
G01 X6.0195 Y2.0973
G01 X6.0090 Y2.0976
G01 X5.4538 Y2.0975
G01 X5.4381 Y2.0966
G01 X5.4225 Y2.0945
G01 X5.4071 Y2.0912
G01 X5.3920 Y2.0868
G01 X5.3773 Y2.0813
G01 X5.3630 Y2.0748
G01 X5.3492 Y2.0672
G01 X5.3340 Y2.0572
G01 X5.3233 Y2.0645
G01 X5.3097 Y2.0724
G01 X5.2956 Y2.0793
G01 X5.2810 Y2.0851
G01 X5.2660 Y2.0899
G01 X5.2507 Y2.0935
G01 X5.2351 Y2.0960
G01 X5.2195 Y2.0973
G01 X5.2090 Y2.0976
G01 X4.6590 Y2.0976
G01 X4.6433 Y2.0970
G01 X4.6277 Y2.0953
G01 X4.6122 Y2.0924
G01 X4.6020 Y2.0899
G01 X4.5920 Y2.0868
G01 X4.5773 Y2.0813
G01 X4.5630 Y2.0748
G01 X4.5492 Y2.0672
G01 X4.5340 Y2.0572
G01 X4.5233 Y2.0645
G01 X4.5097 Y2.0724
G01 X4.4956 Y2.0793
G01 X4.4810 Y2.0851
G01 X4.4660 Y2.0899
G01 X4.4507 Y2.0935
G01 X4.4351 Y2.0960
G01 X4.4195 Y2.0973
G01 X4.4090 Y2.0976
G01 X3.8590 Y2.0976
G01 X3.8433 Y2.0970
G01 X3.8277 Y2.0953
G01 X3.8173 Y2.0935
G01 X3.8071 Y2.0912
G01 X3.7920 Y2.0868
G01 X3.7773 Y2.0813
G01 X3.7630 Y2.0748
G01 X3.7492 Y2.0672
G01 X3.7340 Y2.0572
G01 X3.7233 Y2.0645
G01 X3.7097 Y2.0724
G01 X3.6956 Y2.0793
G01 X3.6810 Y2.0851
G01 X3.6660 Y2.0899
G01 X3.6507 Y2.0935
G01 X3.6351 Y2.0960
G01 X3.6195 Y2.0973
G01 X3.6090 Y2.0976
G01 X3.0590 Y2.0976
G01 X3.0433 Y2.0970
G01 X3.0277 Y2.0953
G01 X3.0173 Y2.0935
G01 X3.0071 Y2.0912
G01 X2.9920 Y2.0868
G01 X2.9773 Y2.0813
G01 X2.9630 Y2.0748
G01 X2.9492 Y2.0672
G01 X2.9340 Y2.0572
G01 X2.9233 Y2.0645
G01 X2.9097 Y2.0724
G01 X2.8956 Y2.0793
G01 X2.8810 Y2.0851
G01 X2.8660 Y2.0899
G01 X2.8507 Y2.0935
G01 X2.8351 Y2.0960
G01 X2.8195 Y2.0973
G01 X2.8090 Y2.0976
G01 X2.2590 Y2.0976
G01 X2.2485 Y2.0973
G01 X2.2381 Y2.0966
G01 X2.2225 Y2.0945
G01 X2.2071 Y2.0912
G01 X2.1970 Y2.0884
G01 X2.1870 Y2.0851
G01 X2.1773 Y2.0813
G01 X2.1677 Y2.0771
G01 X2.1583 Y2.0724
G01 X2.1492 Y2.0672
G01 X2.1403 Y2.0616
G01 X2.1318 Y2.0556
G01 X2.1195 Y2.0457
G01 X2.1080 Y2.0350
G01 X2.1007 Y2.0274
G01 X2.0939 Y2.0195
G01 X2.0874 Y2.0112
G01 X2.0814 Y2.0027
G01 X2.0758 Y1.9938
G01 X2.0682 Y1.9800
G01 X2.0637 Y1.9706
G01 X2.0597 Y1.9609
G01 X2.0562 Y1.9510
G01 X2.0531 Y1.9410
G01 X2.0506 Y1.9308
G01 X2.0485 Y1.9205
G01 X2.0464 Y1.9049
G01 X2.0457 Y1.8945
G01 X2.0454 Y1.8840
G01 X2.0455 Y0.2788
G01 X2.0460 Y0.2683
G01 X2.0470 Y0.2579
G01 X2.0495 Y0.2423
G01 X2.0531 Y0.2270
G01 X2.0562 Y0.2170
G01 X2.0597 Y0.2071
G01 X2.0659 Y0.1927
G01 X2.0706 Y0.1833
G01 X2.0758 Y0.1742
G01 X2.0814 Y0.1653
G01 X2.0874 Y0.1568
G01 X2.0973 Y0.1445
G01 X2.1043 Y0.1367
G01 X2.1117 Y0.1293
G01 X2.1195 Y0.1223
G01 X2.1276 Y0.1156
G01 X2.1360 Y0.1094
G01 X2.1447 Y0.1035
G01 X2.1537 Y0.0981
G01 X2.1630 Y0.0932
G01 X2.1724 Y0.0887
G01 X2.1821 Y0.0847
G01 X2.1920 Y0.0812
G01 X2.2020 Y0.0781
G01 X2.2122 Y0.0756
G01 X2.2225 Y0.0735
G01 X2.2381 Y0.0714
G01 X2.2485 Y0.0707
G01 X2.2590 Y0.0704
G01 X2.8090 Y0.0704
G01 X2.8195 Y0.0707
G01 X2.8351 Y0.0720
G01 X2.8507 Y0.0745
G01 X2.8660 Y0.0781
G01 X2.8810 Y0.0829
G01 X2.8956 Y0.0887
G01 X2.9097 Y0.0956
G01 X2.9233 Y0.1035
G01 X2.9340 Y0.1108
G01 X2.9447 Y0.1035
G01 X2.9583 Y0.0956
G01 X2.9724 Y0.0887
G01 X2.9870 Y0.0829
G01 X3.0020 Y0.0781
G01 X3.0173 Y0.0745
G01 X3.0329 Y0.0720
G01 X3.0485 Y0.0707
G01 X3.0590 Y0.0704
G01 X3.6090 Y0.0704
G01 X3.6195 Y0.0707
G01 X3.6351 Y0.0720
G01 X3.6507 Y0.0745
G01 X3.6660 Y0.0781
G01 X3.6810 Y0.0829
G01 X3.6956 Y0.0887
G01 X3.7097 Y0.0956
G01 X3.7233 Y0.1035
G01 X3.7340 Y0.1108
G01 X3.7447 Y0.1035
G01 X3.7583 Y0.0956
G01 X3.7724 Y0.0887
G01 X3.7821 Y0.0847
G01 X3.7920 Y0.0812
G01 X3.8071 Y0.0768
G01 X3.8225 Y0.0735
G01 X3.8329 Y0.0720
G00 Z2.0000
G00 X3.0459 Y0.1780
G01 F200.00
G01 Z-0.1000
G01 F300.00
G01 X3.0590 Y0.1772
G01 X3.6090 Y0.1772
G01 X3.6195 Y0.1777
G01 X3.6273 Y0.1788
G01 X3.6350 Y0.1804
G01 X3.6425 Y0.1826
G01 X3.6499 Y0.1853
G01 X3.6570 Y0.1886
G01 X3.6639 Y0.1924
G01 X3.6705 Y0.1967
G01 X3.6768 Y0.2014
G01 X3.6826 Y0.2067
G01 X3.6881 Y0.2123
G01 X3.6932 Y0.2183
G01 X3.6978 Y0.2247
G01 X3.7019 Y0.2314
G01 X3.7055 Y0.2383
G01 X3.7104 Y0.2505
G01 X3.7126 Y0.2580
G01 X3.7142 Y0.2657
G01 X3.7153 Y0.2735
G01 X3.7158 Y0.2840
G01 X3.7157 Y1.8892
G01 X3.7150 Y1.8971
G01 X3.7137 Y1.9048
G01 X3.7119 Y1.9125
G01 X3.7096 Y1.9200
G01 X3.7066 Y1.9273
G01 X3.7032 Y1.9343
G01 X3.6992 Y1.9411
G01 X3.6948 Y1.9476
G01 X3.6899 Y1.9538
G01 X3.6845 Y1.9595
G01 X3.6788 Y1.9649
G01 X3.6705 Y1.9713
G01 X3.6639 Y1.9756
G01 X3.6570 Y1.9794
G01 X3.6499 Y1.9827
G01 X3.6425 Y1.9854
G01 X3.6350 Y1.9876
G01 X3.6273 Y1.9892
G01 X3.6169 Y1.9905
G01 X3.6090 Y1.9908
G01 X3.0590 Y1.9908
G01 X3.0485 Y1.9903
G01 X3.0407 Y1.9892
G01 X3.0330 Y1.9876
G01 X3.0255 Y1.9854
G01 X3.0181 Y1.9827
G01 X3.0110 Y1.9794
G01 X3.0041 Y1.9756
G01 X2.9975 Y1.9713
G01 X2.9912 Y1.9666
G01 X2.9854 Y1.9613
G01 X2.9799 Y1.9557
G01 X2.9748 Y1.9497
G01 X2.9702 Y1.9433
G01 X2.9661 Y1.9366
G01 X2.9625 Y1.9297
G01 X2.9576 Y1.9175
G01 X2.9548 Y1.9074
G01 X2.9534 Y1.8997
G01 X2.9525 Y1.8919
G01 X2.9522 Y1.8840
G01 X2.9523 Y0.2788
G01 X2.9534 Y0.2683
G01 X2.9548 Y0.2606
G01 X2.9568 Y0.2530
G01 X2.9603 Y0.2431
G01 X2.9636 Y0.2360
G01 X2.9688 Y0.2269
G01 X2.9732 Y0.2204
G01 X2.9799 Y0.2123
G01 X2.9873 Y0.2049
G01 X2.9933 Y0.1998
G01 X3.0019 Y0.1938
G01 X3.0087 Y0.1898
G01 X3.0181 Y0.1853
G01 X3.0255 Y0.1826
G01 X3.0356 Y0.1798
G01 X3.0459 Y0.1780
G00 Z2.0000
G00 X2.2459 Y0.1780
G01 F200.00
G01 Z-0.1000
G01 F300.00
G01 X2.2590 Y0.1772
G01 X2.8090 Y0.1772
G01 X2.8195 Y0.1777
G01 X2.8273 Y0.1788
G01 X2.8350 Y0.1804
G01 X2.8425 Y0.1826
G01 X2.8499 Y0.1853
G01 X2.8570 Y0.1886
G01 X2.8639 Y0.1924
G01 X2.8705 Y0.1967
G01 X2.8768 Y0.2014
G01 X2.8826 Y0.2067
G01 X2.8881 Y0.2123
G01 X2.8932 Y0.2183
G01 X2.8978 Y0.2247
G01 X2.9019 Y0.2314
G01 X2.9055 Y0.2383
G01 X2.9104 Y0.2505
G01 X2.9126 Y0.2580
G01 X2.9142 Y0.2657
G01 X2.9153 Y0.2735
G01 X2.9158 Y0.2840
G01 X2.9157 Y1.8892
G01 X2.9150 Y1.8971
G01 X2.9137 Y1.9048
G01 X2.9119 Y1.9125
G01 X2.9096 Y1.9200
G01 X2.9066 Y1.9273
G01 X2.9032 Y1.9343
G01 X2.8992 Y1.9411
G01 X2.8948 Y1.9476
G01 X2.8899 Y1.9538
G01 X2.8845 Y1.9595
G01 X2.8788 Y1.9649
G01 X2.8705 Y1.9713
G01 X2.8639 Y1.9756
G01 X2.8570 Y1.9794
G01 X2.8499 Y1.9827
G01 X2.8425 Y1.9854
G01 X2.8350 Y1.9876
G01 X2.8273 Y1.9892
G01 X2.8169 Y1.9905
G01 X2.8090 Y1.9908
G01 X2.2590 Y1.9908
G01 X2.2485 Y1.9903
G01 X2.2407 Y1.9892
G01 X2.2330 Y1.9876
G01 X2.2255 Y1.9854
G01 X2.2181 Y1.9827
G01 X2.2110 Y1.9794
G01 X2.2041 Y1.9756
G01 X2.1975 Y1.9713
G01 X2.1912 Y1.9666
G01 X2.1854 Y1.9613
G01 X2.1799 Y1.9557
G01 X2.1748 Y1.9497
G01 X2.1702 Y1.9433
G01 X2.1661 Y1.9366
G01 X2.1625 Y1.9297
G01 X2.1576 Y1.9175
G01 X2.1548 Y1.9074
G01 X2.1534 Y1.8997
G01 X2.1525 Y1.8919
G01 X2.1522 Y1.8840
G01 X2.1523 Y0.2788
G01 X2.1534 Y0.2683
G01 X2.1548 Y0.2606
G01 X2.1568 Y0.2530
G01 X2.1603 Y0.2431
G01 X2.1636 Y0.2360
G01 X2.1688 Y0.2269
G01 X2.1732 Y0.2204
G01 X2.1799 Y0.2123
G01 X2.1873 Y0.2049
G01 X2.1933 Y0.1998
G01 X2.2019 Y0.1938
G01 X2.2087 Y0.1898
G01 X2.2181 Y0.1853
G01 X2.2255 Y0.1826
G01 X2.2356 Y0.1798
G01 X2.2459 Y0.1780
G00 Z2.0000
M05
G00 Z2.0000
G00 Z2.00
G00 X0.0 Y0.0


