(G-CODE GENERATED BY FLATCAM v8.994 - www.flatcam.org - Version Date: 2020/11/7)

(Name: teste-tqfp-F_Cu.gbr_iso_combined_1_cnc)
(Type: G-code from Geometry)
(Units: MM)

(Created on Monday, 27 June 2022 at 18:31)

(This preprocessor is the default preprocessor used by FlatCAM.)
(It is made to work with MACH3 compatible motion controllers.)

(TOOL DIAMETER: 0.2036 mm)
(Feedrate_XY: 200.0 mm/min)
(Feedrate_Z: 100.0 mm/min)
(Feedrate rapids 1500.0 mm/min)

(Z_Cut: -0.1 mm)
(Z_Move: 2.0 mm)
(Z Start: None mm)
(Z End: 2.0 mm)
(X,Y End: 0.0000, 0.0000 mm)
(Steps per circle: 64)
(Preprocessor Geometry: default)

(X range:    0.0804 ...   10.5876  mm)
(Y range:    0.0804 ...   10.5876  mm)

(Spindle Speed: 10000.0 RPM)
G21
G90
G94

G01 F200.00

M5
G00 Z2.0000
G00 X0.0000 Y0.0000
T2
M6    
(MSG, Change to Tool Dia = 0.2036)
M0
G00 Z2.0000

M03 S10000.0
G01 F200.00
G00 X0.2591 Y2.0569
G01 F100.00
G01 Z-0.1000
G01 F200.00
G01 X0.2740 Y2.0556
G01 X0.2840 Y2.0554
G01 X1.8840 Y2.0554
G01 X1.8990 Y2.0560
G01 X1.9139 Y2.0576
G01 X1.9335 Y2.0615
G01 X1.9479 Y2.0657
G01 X1.9619 Y2.0709
G01 X1.9755 Y2.0771
G01 X1.9887 Y2.0844
G01 X2.0012 Y2.0925
G01 X2.0132 Y2.1016
G01 X2.0244 Y2.1115
G01 X2.0349 Y2.1223
G01 X2.0445 Y2.1337
G01 X2.0560 Y2.1501
G01 X2.0636 Y2.1630
G01 X2.0701 Y2.1765
G01 X2.0757 Y2.1904
G01 X2.0815 Y2.2095
G01 X2.0837 Y2.2193
G01 X2.0861 Y2.2341
G01 X2.0874 Y2.2490
G01 X2.0876 Y2.2590
G01 X2.0874 Y2.8190
G01 X2.0861 Y2.8339
G01 X2.0837 Y2.8487
G01 X2.0802 Y2.8633
G01 X2.0757 Y2.8776
G01 X2.0701 Y2.8915
G01 X2.0636 Y2.9050
G01 X2.0560 Y2.9179
G01 X2.0447 Y2.9340
G01 X2.0533 Y2.9459
G01 X2.0611 Y2.9586
G01 X2.0681 Y2.9719
G01 X2.0740 Y2.9857
G01 X2.0788 Y2.9999
G01 X2.0827 Y3.0144
G01 X2.0854 Y3.0291
G01 X2.0870 Y3.0440
G01 X2.0876 Y3.0590
G01 X2.0875 Y3.6140
G01 X2.0866 Y3.6290
G01 X2.0846 Y3.6438
G01 X2.0802 Y3.6633
G01 X2.0757 Y3.6776
G01 X2.0701 Y3.6915
G01 X2.0636 Y3.7050
G01 X2.0560 Y3.7179
G01 X2.0447 Y3.7340
G01 X2.0533 Y3.7459
G01 X2.0611 Y3.7586
G01 X2.0681 Y3.7719
G01 X2.0740 Y3.7857
G01 X2.0788 Y3.7999
G01 X2.0827 Y3.8144
G01 X2.0854 Y3.8291
G01 X2.0870 Y3.8440
G01 X2.0876 Y3.8590
G01 X2.0875 Y4.4140
G01 X2.0866 Y4.4290
G01 X2.0846 Y4.4438
G01 X2.0802 Y4.4633
G01 X2.0757 Y4.4776
G01 X2.0701 Y4.4915
G01 X2.0636 Y4.5050
G01 X2.0560 Y4.5179
G01 X2.0447 Y4.5340
G01 X2.0533 Y4.5459
G01 X2.0611 Y4.5586
G01 X2.0681 Y4.5719
G01 X2.0740 Y4.5857
G01 X2.0788 Y4.5999
G01 X2.0827 Y4.6144
G01 X2.0854 Y4.6291
G01 X2.0870 Y4.6440
G01 X2.0876 Y4.6590
G01 X2.0876 Y5.2090
G01 X2.0866 Y5.2290
G01 X2.0846 Y5.2438
G01 X2.0815 Y5.2585
G01 X2.0773 Y5.2729
G01 X2.0721 Y5.2869
G01 X2.0636 Y5.3050
G01 X2.0560 Y5.3179
G01 X2.0447 Y5.3340
G01 X2.0533 Y5.3459
G01 X2.0611 Y5.3586
G01 X2.0681 Y5.3719
G01 X2.0740 Y5.3857
G01 X2.0788 Y5.3999
G01 X2.0827 Y5.4144
G01 X2.0854 Y5.4291
G01 X2.0870 Y5.4440
G01 X2.0876 Y5.4590
G01 X2.0876 Y6.0090
G01 X2.0866 Y6.0290
G01 X2.0846 Y6.0438
G01 X2.0815 Y6.0585
G01 X2.0773 Y6.0729
G01 X2.0721 Y6.0869
G01 X2.0636 Y6.1050
G01 X2.0560 Y6.1179
G01 X2.0447 Y6.1340
G01 X2.0533 Y6.1459
G01 X2.0611 Y6.1586
G01 X2.0681 Y6.1719
G01 X2.0740 Y6.1857
G01 X2.0788 Y6.1999
G01 X2.0827 Y6.2144
G01 X2.0854 Y6.2291
G01 X2.0870 Y6.2440
G01 X2.0876 Y6.2590
G01 X2.0876 Y6.8090
G01 X2.0866 Y6.8290
G01 X2.0846 Y6.8438
G01 X2.0815 Y6.8585
G01 X2.0773 Y6.8729
G01 X2.0721 Y6.8869
G01 X2.0636 Y6.9050
G01 X2.0560 Y6.9179
G01 X2.0447 Y6.9340
G01 X2.0533 Y6.9459
G01 X2.0611 Y6.9586
G01 X2.0681 Y6.9719
G01 X2.0740 Y6.9857
G01 X2.0788 Y6.9999
G01 X2.0827 Y7.0144
G01 X2.0854 Y7.0291
G01 X2.0870 Y7.0440
G01 X2.0876 Y7.0590
G01 X2.0876 Y7.6090
G01 X2.0866 Y7.6290
G01 X2.0846 Y7.6438
G01 X2.0815 Y7.6585
G01 X2.0773 Y7.6729
G01 X2.0721 Y7.6869
G01 X2.0636 Y7.7050
G01 X2.0560 Y7.7179
G01 X2.0447 Y7.7340
G01 X2.0533 Y7.7459
G01 X2.0611 Y7.7586
G01 X2.0681 Y7.7719
G01 X2.0740 Y7.7857
G01 X2.0788 Y7.7999
G01 X2.0827 Y7.8144
G01 X2.0854 Y7.8291
G01 X2.0870 Y7.8440
G01 X2.0876 Y7.8590
G01 X2.0875 Y8.4140
G01 X2.0866 Y8.4290
G01 X2.0837 Y8.4487
G01 X2.0802 Y8.4633
G01 X2.0757 Y8.4776
G01 X2.0701 Y8.4915
G01 X2.0611 Y8.5094
G01 X2.0533 Y8.5221
G01 X2.0445 Y8.5343
G01 X2.0315 Y8.5494
G01 X2.0207 Y8.5599
G01 X2.0093 Y8.5695
G01 X1.9929 Y8.5810
G01 X1.9800 Y8.5886
G01 X1.9665 Y8.5951
G01 X1.9479 Y8.6023
G01 X1.9335 Y8.6065
G01 X1.9188 Y8.6096
G01 X1.9089 Y8.6111
G01 X1.8990 Y8.6120
G01 X1.8840 Y8.6126
G01 X0.2840 Y8.6126
G01 X0.2690 Y8.6120
G01 X0.2541 Y8.6104
G01 X0.2394 Y8.6077
G01 X0.2249 Y8.6038
G01 X0.2107 Y8.5990
G01 X0.1925 Y8.5909
G01 X0.1793 Y8.5836
G01 X0.1668 Y8.5755
G01 X0.1548 Y8.5664
G01 X0.1400 Y8.5530
G01 X0.1298 Y8.5420
G01 X0.1205 Y8.5303
G01 X0.1120 Y8.5179
G01 X0.1044 Y8.5050
G01 X0.0979 Y8.4915
G01 X0.0923 Y8.4776
G01 X0.0865 Y8.4585
G01 X0.0834 Y8.4438
G01 X0.0819 Y8.4339
G01 X0.0810 Y8.4240
G01 X0.0804 Y8.4090
G01 X0.0806 Y7.8490
G01 X0.0819 Y7.8341
G01 X0.0843 Y7.8193
G01 X0.0878 Y7.8047
G01 X0.0923 Y7.7904
G01 X0.0979 Y7.7765
G01 X0.1044 Y7.7630
G01 X0.1120 Y7.7501
G01 X0.1233 Y7.7340
G01 X0.1147 Y7.7221
G01 X0.1069 Y7.7094
G01 X0.0999 Y7.6961
G01 X0.0940 Y7.6823
G01 X0.0892 Y7.6681
G01 X0.0853 Y7.6536
G01 X0.0826 Y7.6389
G01 X0.0810 Y7.6240
G01 X0.0804 Y7.6090
G01 X0.0805 Y7.0540
G01 X0.0814 Y7.0390
G01 X0.0834 Y7.0242
G01 X0.0865 Y7.0095
G01 X0.0923 Y6.9904
G01 X0.0979 Y6.9765
G01 X0.1044 Y6.9630
G01 X0.1120 Y6.9501
G01 X0.1233 Y6.9340
G01 X0.1147 Y6.9221
G01 X0.1069 Y6.9094
G01 X0.0999 Y6.8961
G01 X0.0940 Y6.8823
G01 X0.0892 Y6.8681
G01 X0.0853 Y6.8536
G01 X0.0826 Y6.8389
G01 X0.0810 Y6.8240
G01 X0.0804 Y6.8090
G01 X0.0805 Y6.2540
G01 X0.0814 Y6.2390
G01 X0.0834 Y6.2242
G01 X0.0865 Y6.2095
G01 X0.0923 Y6.1904
G01 X0.0979 Y6.1765
G01 X0.1044 Y6.1630
G01 X0.1120 Y6.1501
G01 X0.1233 Y6.1340
G01 X0.1147 Y6.1221
G01 X0.1069 Y6.1094
G01 X0.0999 Y6.0961
G01 X0.0940 Y6.0823
G01 X0.0892 Y6.0681
G01 X0.0853 Y6.0536
G01 X0.0826 Y6.0389
G01 X0.0810 Y6.0240
G01 X0.0804 Y6.0090
G01 X0.0804 Y5.4590
G01 X0.0814 Y5.4390
G01 X0.0834 Y5.4242
G01 X0.0865 Y5.4095
G01 X0.0907 Y5.3951
G01 X0.0959 Y5.3811
G01 X0.1044 Y5.3630
G01 X0.1120 Y5.3501
G01 X0.1233 Y5.3340
G01 X0.1147 Y5.3221
G01 X0.1069 Y5.3094
G01 X0.0999 Y5.2961
G01 X0.0940 Y5.2823
G01 X0.0892 Y5.2681
G01 X0.0853 Y5.2536
G01 X0.0826 Y5.2389
G01 X0.0810 Y5.2240
G01 X0.0804 Y5.2090
G01 X0.0804 Y4.6590
G01 X0.0814 Y4.6390
G01 X0.0834 Y4.6242
G01 X0.0865 Y4.6095
G01 X0.0907 Y4.5951
G01 X0.0959 Y4.5811
G01 X0.1044 Y4.5630
G01 X0.1120 Y4.5501
G01 X0.1233 Y4.5340
G01 X0.1147 Y4.5221
G01 X0.1069 Y4.5094
G01 X0.0999 Y4.4961
G01 X0.0940 Y4.4823
G01 X0.0892 Y4.4681
G01 X0.0853 Y4.4536
G01 X0.0826 Y4.4389
G01 X0.0810 Y4.4240
G01 X0.0804 Y4.4090
G01 X0.0804 Y3.8590
G01 X0.0810 Y3.8440
G01 X0.0826 Y3.8291
G01 X0.0853 Y3.8144
G01 X0.0907 Y3.7951
G01 X0.0979 Y3.7765
G01 X0.1044 Y3.7630
G01 X0.1120 Y3.7501
G01 X0.1233 Y3.7340
G01 X0.1147 Y3.7221
G01 X0.1069 Y3.7094
G01 X0.0999 Y3.6961
G01 X0.0940 Y3.6823
G01 X0.0892 Y3.6681
G01 X0.0853 Y3.6536
G01 X0.0826 Y3.6389
G01 X0.0810 Y3.6240
G01 X0.0804 Y3.6090
G01 X0.0804 Y3.0590
G01 X0.0810 Y3.0440
G01 X0.0826 Y3.0291
G01 X0.0853 Y3.0144
G01 X0.0907 Y2.9951
G01 X0.0979 Y2.9765
G01 X0.1044 Y2.9630
G01 X0.1120 Y2.9501
G01 X0.1233 Y2.9340
G01 X0.1147 Y2.9221
G01 X0.1069 Y2.9094
G01 X0.0999 Y2.8961
G01 X0.0940 Y2.8823
G01 X0.0892 Y2.8681
G01 X0.0853 Y2.8536
G01 X0.0826 Y2.8389
G01 X0.0810 Y2.8240
G01 X0.0804 Y2.8090
G01 X0.0805 Y2.2540
G01 X0.0814 Y2.2390
G01 X0.0843 Y2.2193
G01 X0.0878 Y2.2047
G01 X0.0940 Y2.1857
G01 X0.0999 Y2.1719
G01 X0.1094 Y2.1543
G01 X0.1205 Y2.1377
G01 X0.1331 Y2.1223
G01 X0.1473 Y2.1081
G01 X0.1627 Y2.0955
G01 X0.1793 Y2.0844
G01 X0.1925 Y2.0771
G01 X0.2107 Y2.0690
G01 X0.2249 Y2.0642
G01 X0.2443 Y2.0593
G01 X0.2591 Y2.0569
G00 Z2.0000
G00 X0.2715 Y2.1580
G01 F100.00
G01 Z-0.1000
G01 F200.00
G01 X0.2840 Y2.1572
G01 X1.8840 Y2.1572
G01 X1.8940 Y2.1577
G01 X1.9039 Y2.1592
G01 X1.9136 Y2.1616
G01 X1.9230 Y2.1649
G01 X1.9298 Y2.1681
G01 X1.9363 Y2.1717
G01 X1.9466 Y2.1787
G01 X1.9524 Y2.1836
G01 X1.9577 Y2.1888
G01 X1.9627 Y2.1944
G01 X1.9672 Y2.2004
G01 X1.9738 Y2.2110
G01 X1.9771 Y2.2177
G01 X1.9798 Y2.2247
G01 X1.9821 Y2.2318
G01 X1.9838 Y2.2391
G01 X1.9855 Y2.2515
G01 X1.9858 Y2.2590
G01 X1.9858 Y2.8115
G01 X1.9853 Y2.8190
G01 X1.9838 Y2.8289
G01 X1.9814 Y2.8386
G01 X1.9781 Y2.8480
G01 X1.9749 Y2.8548
G01 X1.9713 Y2.8613
G01 X1.9672 Y2.8676
G01 X1.9627 Y2.8736
G01 X1.9542 Y2.8827
G01 X1.9486 Y2.8877
G01 X1.9426 Y2.8922
G01 X1.9363 Y2.8963
G01 X1.9298 Y2.8999
G01 X1.9230 Y2.9031
G01 X1.9159 Y2.9057
G01 X1.9087 Y2.9077
G01 X1.9014 Y2.9093
G01 X1.8940 Y2.9103
G01 X1.8865 Y2.9108
G01 X0.2840 Y2.9108
G01 X0.2740 Y2.9103
G01 X0.2641 Y2.9088
G01 X0.2544 Y2.9064
G01 X0.2450 Y2.9031
G01 X0.2338 Y2.8976
G01 X0.2274 Y2.8936
G01 X0.2214 Y2.8893
G01 X0.2156 Y2.8844
G01 X0.2103 Y2.8792
G01 X0.2022 Y2.8696
G01 X0.1980 Y2.8635
G01 X0.1942 Y2.8570
G01 X0.1890 Y2.8456
G01 X0.1866 Y2.8386
G01 X0.1847 Y2.8313
G01 X0.1827 Y2.8190
G01 X0.1822 Y2.8090
G01 X0.1822 Y2.2565
G01 X0.1827 Y2.2490
G01 X0.1842 Y2.2391
G01 X0.1866 Y2.2294
G01 X0.1899 Y2.2200
G01 X0.1942 Y2.2110
G01 X0.1980 Y2.2045
G01 X0.2037 Y2.1964
G01 X0.2086 Y2.1906
G01 X0.2156 Y2.1836
G01 X0.2234 Y2.1772
G01 X0.2295 Y2.1730
G01 X0.2382 Y2.1681
G01 X0.2474 Y2.1640
G01 X0.2544 Y2.1616
G01 X0.2641 Y2.1592
G01 X0.2715 Y2.1580
G00 Z2.0000
G00 X0.2715 Y2.9580
G01 F100.00
G01 Z-0.1000
G01 F200.00
G01 X0.2840 Y2.9572
G01 X1.8840 Y2.9572
G01 X1.8940 Y2.9577
G01 X1.9039 Y2.9592
G01 X1.9136 Y2.9616
G01 X1.9230 Y2.9649
G01 X1.9298 Y2.9681
G01 X1.9363 Y2.9717
G01 X1.9466 Y2.9787
G01 X1.9524 Y2.9836
G01 X1.9577 Y2.9888
G01 X1.9627 Y2.9944
G01 X1.9672 Y3.0004
G01 X1.9738 Y3.0110
G01 X1.9771 Y3.0177
G01 X1.9798 Y3.0247
G01 X1.9821 Y3.0318
G01 X1.9838 Y3.0391
G01 X1.9855 Y3.0515
G01 X1.9858 Y3.0590
G01 X1.9858 Y3.6115
G01 X1.9853 Y3.6190
G01 X1.9838 Y3.6289
G01 X1.9814 Y3.6386
G01 X1.9781 Y3.6480
G01 X1.9749 Y3.6548
G01 X1.9713 Y3.6613
G01 X1.9672 Y3.6676
G01 X1.9627 Y3.6736
G01 X1.9542 Y3.6827
G01 X1.9486 Y3.6877
G01 X1.9426 Y3.6922
G01 X1.9363 Y3.6963
G01 X1.9298 Y3.6999
G01 X1.9230 Y3.7031
G01 X1.9159 Y3.7057
G01 X1.9087 Y3.7077
G01 X1.9014 Y3.7093
G01 X1.8940 Y3.7103
G01 X1.8865 Y3.7108
G01 X0.2840 Y3.7108
G01 X0.2740 Y3.7103
G01 X0.2641 Y3.7088
G01 X0.2544 Y3.7064
G01 X0.2450 Y3.7031
G01 X0.2338 Y3.6976
G01 X0.2274 Y3.6936
G01 X0.2214 Y3.6893
G01 X0.2156 Y3.6844
G01 X0.2103 Y3.6792
G01 X0.2022 Y3.6696
G01 X0.1980 Y3.6635
G01 X0.1942 Y3.6570
G01 X0.1890 Y3.6456
G01 X0.1866 Y3.6386
G01 X0.1847 Y3.6313
G01 X0.1827 Y3.6190
G01 X0.1822 Y3.6090
G01 X0.1822 Y3.0565
G01 X0.1827 Y3.0490
G01 X0.1842 Y3.0391
G01 X0.1866 Y3.0294
G01 X0.1899 Y3.0200
G01 X0.1942 Y3.0110
G01 X0.1980 Y3.0045
G01 X0.2037 Y2.9964
G01 X0.2086 Y2.9906
G01 X0.2156 Y2.9836
G01 X0.2234 Y2.9772
G01 X0.2295 Y2.9730
G01 X0.2382 Y2.9681
G01 X0.2474 Y2.9640
G01 X0.2544 Y2.9616
G01 X0.2641 Y2.9592
G01 X0.2715 Y2.9580
G00 Z2.0000
G00 X0.2715 Y3.7580
G01 F100.00
G01 Z-0.1000
G01 F200.00
G01 X0.2840 Y3.7572
G01 X1.8840 Y3.7572
G01 X1.8940 Y3.7577
G01 X1.9039 Y3.7592
G01 X1.9136 Y3.7616
G01 X1.9230 Y3.7649
G01 X1.9298 Y3.7681
G01 X1.9363 Y3.7717
G01 X1.9466 Y3.7787
G01 X1.9524 Y3.7836
G01 X1.9577 Y3.7888
G01 X1.9627 Y3.7944
G01 X1.9672 Y3.8004
G01 X1.9738 Y3.8110
G01 X1.9771 Y3.8177
G01 X1.9798 Y3.8247
G01 X1.9821 Y3.8318
G01 X1.9838 Y3.8391
G01 X1.9855 Y3.8515
G01 X1.9858 Y3.8590
G01 X1.9858 Y4.4115
G01 X1.9850 Y4.4215
G01 X1.9833 Y4.4313
G01 X1.9807 Y4.4409
G01 X1.9781 Y4.4480
G01 X1.9749 Y4.4548
G01 X1.9713 Y4.4613
G01 X1.9672 Y4.4676
G01 X1.9627 Y4.4736
G01 X1.9577 Y4.4792
G01 X1.9524 Y4.4844
G01 X1.9466 Y4.4893
G01 X1.9406 Y4.4936
G01 X1.9298 Y4.4999
G01 X1.9230 Y4.5031
G01 X1.9159 Y4.5057
G01 X1.9087 Y4.5077
G01 X1.9014 Y4.5093
G01 X1.8940 Y4.5103
G01 X1.8865 Y4.5108
G01 X0.2840 Y4.5108
G01 X0.2740 Y4.5103
G01 X0.2641 Y4.5088
G01 X0.2544 Y4.5064
G01 X0.2450 Y4.5031
G01 X0.2338 Y4.4976
G01 X0.2274 Y4.4936
G01 X0.2214 Y4.4893
G01 X0.2120 Y4.4810
G01 X0.2069 Y4.4755
G01 X0.2022 Y4.4696
G01 X0.1980 Y4.4635
G01 X0.1942 Y4.4570
G01 X0.1890 Y4.4456
G01 X0.1866 Y4.4386
G01 X0.1847 Y4.4313
G01 X0.1827 Y4.4190
G01 X0.1822 Y4.4090
G01 X0.1822 Y3.8565
G01 X0.1827 Y3.8490
G01 X0.1842 Y3.8391
G01 X0.1866 Y3.8294
G01 X0.1899 Y3.8200
G01 X0.1942 Y3.8110
G01 X0.1980 Y3.8045
G01 X0.2037 Y3.7964
G01 X0.2086 Y3.7906
G01 X0.2156 Y3.7836
G01 X0.2234 Y3.7772
G01 X0.2295 Y3.7730
G01 X0.2382 Y3.7681
G01 X0.2474 Y3.7640
G01 X0.2544 Y3.7616
G01 X0.2641 Y3.7592
G01 X0.2715 Y3.7580
G00 Z2.0000
G00 X0.2715 Y4.5580
G01 F100.00
G01 Z-0.1000
G01 F200.00
G01 X0.2840 Y4.5572
G01 X1.8840 Y4.5572
G01 X1.8940 Y4.5577
G01 X1.9039 Y4.5592
G01 X1.9136 Y4.5616
G01 X1.9230 Y4.5649
G01 X1.9298 Y4.5681
G01 X1.9363 Y4.5717
G01 X1.9426 Y4.5758
G01 X1.9486 Y4.5803
G01 X1.9542 Y4.5853
G01 X1.9594 Y4.5906
G01 X1.9672 Y4.6004
G01 X1.9738 Y4.6110
G01 X1.9771 Y4.6177
G01 X1.9798 Y4.6247
G01 X1.9821 Y4.6318
G01 X1.9838 Y4.6391
G01 X1.9855 Y4.6515
G01 X1.9858 Y4.6590
G01 X1.9858 Y5.2115
G01 X1.9850 Y5.2215
G01 X1.9833 Y5.2313
G01 X1.9807 Y5.2409
G01 X1.9781 Y5.2480
G01 X1.9749 Y5.2548
G01 X1.9713 Y5.2613
G01 X1.9672 Y5.2676
G01 X1.9627 Y5.2736
G01 X1.9577 Y5.2792
G01 X1.9524 Y5.2844
G01 X1.9466 Y5.2893
G01 X1.9406 Y5.2936
G01 X1.9298 Y5.2999
G01 X1.9230 Y5.3031
G01 X1.9159 Y5.3057
G01 X1.9087 Y5.3077
G01 X1.9014 Y5.3093
G01 X1.8940 Y5.3103
G01 X1.8865 Y5.3108
G01 X0.2840 Y5.3108
G01 X0.2740 Y5.3103
G01 X0.2641 Y5.3088
G01 X0.2544 Y5.3064
G01 X0.2450 Y5.3031
G01 X0.2338 Y5.2976
G01 X0.2274 Y5.2936
G01 X0.2214 Y5.2893
G01 X0.2120 Y5.2810
G01 X0.2069 Y5.2755
G01 X0.2022 Y5.2696
G01 X0.1980 Y5.2635
G01 X0.1942 Y5.2570
G01 X0.1890 Y5.2456
G01 X0.1866 Y5.2386
G01 X0.1847 Y5.2313
G01 X0.1827 Y5.2190
G01 X0.1822 Y5.2090
G01 X0.1822 Y4.6565
G01 X0.1830 Y4.6465
G01 X0.1842 Y4.6391
G01 X0.1866 Y4.6294
G01 X0.1890 Y4.6224
G01 X0.1931 Y4.6132
G01 X0.1980 Y4.6045
G01 X0.2022 Y4.5984
G01 X0.2086 Y4.5906
G01 X0.2156 Y4.5836
G01 X0.2234 Y4.5772
G01 X0.2295 Y4.5730
G01 X0.2382 Y4.5681
G01 X0.2450 Y4.5649
G01 X0.2544 Y4.5616
G01 X0.2641 Y4.5592
G01 X0.2715 Y4.5580
G00 Z2.0000
G00 X0.2715 Y5.3580
G01 F100.00
G01 Z-0.1000
G01 F200.00
G01 X0.2840 Y5.3572
G01 X1.8840 Y5.3572
G01 X1.8940 Y5.3577
G01 X1.9039 Y5.3592
G01 X1.9136 Y5.3616
G01 X1.9230 Y5.3649
G01 X1.9298 Y5.3681
G01 X1.9363 Y5.3717
G01 X1.9426 Y5.3758
G01 X1.9486 Y5.3803
G01 X1.9542 Y5.3853
G01 X1.9594 Y5.3906
G01 X1.9672 Y5.4004
G01 X1.9738 Y5.4110
G01 X1.9771 Y5.4177
G01 X1.9798 Y5.4247
G01 X1.9821 Y5.4318
G01 X1.9838 Y5.4391
G01 X1.9855 Y5.4515
G01 X1.9858 Y5.4590
G01 X1.9858 Y6.0115
G01 X1.9850 Y6.0215
G01 X1.9833 Y6.0313
G01 X1.9807 Y6.0409
G01 X1.9781 Y6.0480
G01 X1.9749 Y6.0548
G01 X1.9713 Y6.0613
G01 X1.9672 Y6.0676
G01 X1.9627 Y6.0736
G01 X1.9577 Y6.0792
G01 X1.9524 Y6.0844
G01 X1.9466 Y6.0893
G01 X1.9406 Y6.0936
G01 X1.9342 Y6.0976
G01 X1.9275 Y6.1010
G01 X1.9206 Y6.1040
G01 X1.9136 Y6.1064
G01 X1.9063 Y6.1083
G01 X1.8989 Y6.1097
G01 X1.8865 Y6.1108
G01 X0.2840 Y6.1108
G01 X0.2740 Y6.1103
G01 X0.2641 Y6.1088
G01 X0.2544 Y6.1064
G01 X0.2450 Y6.1031
G01 X0.2338 Y6.0976
G01 X0.2274 Y6.0936
G01 X0.2214 Y6.0893
G01 X0.2120 Y6.0810
G01 X0.2069 Y6.0755
G01 X0.2022 Y6.0696
G01 X0.1980 Y6.0635
G01 X0.1942 Y6.0570
G01 X0.1890 Y6.0456
G01 X0.1866 Y6.0386
G01 X0.1847 Y6.0313
G01 X0.1827 Y6.0190
G01 X0.1822 Y6.0090
G01 X0.1822 Y5.4565
G01 X0.1830 Y5.4465
G01 X0.1842 Y5.4391
G01 X0.1866 Y5.4294
G01 X0.1890 Y5.4224
G01 X0.1931 Y5.4132
G01 X0.1980 Y5.4045
G01 X0.2022 Y5.3984
G01 X0.2086 Y5.3906
G01 X0.2156 Y5.3836
G01 X0.2234 Y5.3772
G01 X0.2317 Y5.3717
G01 X0.2382 Y5.3681
G01 X0.2450 Y5.3649
G01 X0.2544 Y5.3616
G01 X0.2641 Y5.3592
G01 X0.2715 Y5.3580
G00 Z2.0000
G00 X0.2715 Y6.1580
G01 F100.00
G01 Z-0.1000
G01 F200.00
G01 X0.2840 Y6.1572
G01 X1.8840 Y6.1572
G01 X1.8940 Y6.1577
G01 X1.9039 Y6.1592
G01 X1.9136 Y6.1616
G01 X1.9230 Y6.1649
G01 X1.9298 Y6.1681
G01 X1.9363 Y6.1717
G01 X1.9426 Y6.1758
G01 X1.9486 Y6.1803
G01 X1.9542 Y6.1853
G01 X1.9594 Y6.1906
G01 X1.9672 Y6.2004
G01 X1.9738 Y6.2110
G01 X1.9771 Y6.2177
G01 X1.9798 Y6.2247
G01 X1.9821 Y6.2318
G01 X1.9838 Y6.2391
G01 X1.9855 Y6.2515
G01 X1.9858 Y6.2590
G01 X1.9858 Y6.8115
G01 X1.9850 Y6.8215
G01 X1.9833 Y6.8313
G01 X1.9807 Y6.8409
G01 X1.9781 Y6.8480
G01 X1.9749 Y6.8548
G01 X1.9713 Y6.8613
G01 X1.9672 Y6.8676
G01 X1.9627 Y6.8736
G01 X1.9577 Y6.8792
G01 X1.9524 Y6.8844
G01 X1.9466 Y6.8893
G01 X1.9406 Y6.8936
G01 X1.9298 Y6.8999
G01 X1.9230 Y6.9031
G01 X1.9159 Y6.9057
G01 X1.9087 Y6.9077
G01 X1.9014 Y6.9093
G01 X1.8940 Y6.9103
G01 X1.8865 Y6.9108
G01 X0.2840 Y6.9108
G01 X0.2740 Y6.9103
G01 X0.2641 Y6.9088
G01 X0.2544 Y6.9064
G01 X0.2450 Y6.9031
G01 X0.2338 Y6.8976
G01 X0.2274 Y6.8936
G01 X0.2214 Y6.8893
G01 X0.2120 Y6.8810
G01 X0.2069 Y6.8755
G01 X0.2022 Y6.8696
G01 X0.1980 Y6.8635
G01 X0.1942 Y6.8570
G01 X0.1890 Y6.8456
G01 X0.1866 Y6.8386
G01 X0.1847 Y6.8313
G01 X0.1827 Y6.8190
G01 X0.1822 Y6.8090
G01 X0.1822 Y6.2565
G01 X0.1830 Y6.2465
G01 X0.1842 Y6.2391
G01 X0.1866 Y6.2294
G01 X0.1890 Y6.2224
G01 X0.1931 Y6.2132
G01 X0.1980 Y6.2045
G01 X0.2022 Y6.1984
G01 X0.2086 Y6.1906
G01 X0.2156 Y6.1836
G01 X0.2234 Y6.1772
G01 X0.2295 Y6.1730
G01 X0.2382 Y6.1681
G01 X0.2450 Y6.1649
G01 X0.2544 Y6.1616
G01 X0.2641 Y6.1592
G01 X0.2715 Y6.1580
G00 Z2.0000
G00 X0.2765 Y6.9575
G01 F100.00
G01 Z-0.1000
G01 F200.00
G01 X0.2840 Y6.9572
G01 X1.8840 Y6.9572
G01 X1.8940 Y6.9577
G01 X1.9039 Y6.9592
G01 X1.9136 Y6.9616
G01 X1.9230 Y6.9649
G01 X1.9298 Y6.9681
G01 X1.9363 Y6.9717
G01 X1.9426 Y6.9758
G01 X1.9486 Y6.9803
G01 X1.9542 Y6.9853
G01 X1.9594 Y6.9906
G01 X1.9672 Y7.0004
G01 X1.9738 Y7.0110
G01 X1.9771 Y7.0177
G01 X1.9798 Y7.0247
G01 X1.9821 Y7.0318
G01 X1.9838 Y7.0391
G01 X1.9855 Y7.0515
G01 X1.9858 Y7.0590
G01 X1.9858 Y7.6115
G01 X1.9850 Y7.6215
G01 X1.9833 Y7.6313
G01 X1.9807 Y7.6409
G01 X1.9781 Y7.6480
G01 X1.9749 Y7.6548
G01 X1.9713 Y7.6613
G01 X1.9672 Y7.6676
G01 X1.9627 Y7.6736
G01 X1.9577 Y7.6792
G01 X1.9524 Y7.6844
G01 X1.9466 Y7.6893
G01 X1.9406 Y7.6936
G01 X1.9342 Y7.6976
G01 X1.9275 Y7.7010
G01 X1.9206 Y7.7040
G01 X1.9136 Y7.7064
G01 X1.9063 Y7.7083
G01 X1.8989 Y7.7097
G01 X1.8865 Y7.7108
G01 X0.2840 Y7.7108
G01 X0.2740 Y7.7103
G01 X0.2641 Y7.7088
G01 X0.2544 Y7.7064
G01 X0.2450 Y7.7031
G01 X0.2338 Y7.6976
G01 X0.2274 Y7.6936
G01 X0.2214 Y7.6893
G01 X0.2120 Y7.6810
G01 X0.2069 Y7.6755
G01 X0.2022 Y7.6696
G01 X0.1980 Y7.6635
G01 X0.1942 Y7.6570
G01 X0.1890 Y7.6456
G01 X0.1866 Y7.6386
G01 X0.1847 Y7.6313
G01 X0.1827 Y7.6190
G01 X0.1822 Y7.6090
G01 X0.1823 Y7.0540
G01 X0.1833 Y7.0441
G01 X0.1853 Y7.0343
G01 X0.1882 Y7.0247
G01 X0.1909 Y7.0177
G01 X0.1954 Y7.0088
G01 X0.2008 Y7.0004
G01 X0.2069 Y6.9925
G01 X0.2120 Y6.9870
G01 X0.2175 Y6.9819
G01 X0.2254 Y6.9758
G01 X0.2338 Y6.9704
G01 X0.2427 Y6.9659
G01 X0.2521 Y6.9623
G01 X0.2593 Y6.9603
G01 X0.2691 Y6.9583
G01 X0.2765 Y6.9575
G00 Z2.0000
G00 X0.2740 Y7.7577
G01 F100.00
G01 Z-0.1000
G01 F200.00
G01 X0.2840 Y7.7572
G01 X1.8840 Y7.7572
G01 X1.8940 Y7.7577
G01 X1.9039 Y7.7592
G01 X1.9136 Y7.7616
G01 X1.9230 Y7.7649
G01 X1.9298 Y7.7681
G01 X1.9363 Y7.7717
G01 X1.9426 Y7.7758
G01 X1.9486 Y7.7803
G01 X1.9577 Y7.7888
G01 X1.9627 Y7.7944
G01 X1.9672 Y7.8004
G01 X1.9713 Y7.8067
G01 X1.9749 Y7.8132
G01 X1.9798 Y7.8247
G01 X1.9833 Y7.8367
G01 X1.9847 Y7.8441
G01 X1.9855 Y7.8515
G01 X1.9858 Y7.8590
G01 X1.9858 Y8.4115
G01 X1.9850 Y8.4215
G01 X1.9833 Y8.4313
G01 X1.9807 Y8.4409
G01 X1.9781 Y8.4480
G01 X1.9749 Y8.4548
G01 X1.9713 Y8.4613
G01 X1.9643 Y8.4716
G01 X1.9594 Y8.4774
G01 X1.9542 Y8.4827
G01 X1.9486 Y8.4877
G01 X1.9426 Y8.4922
G01 X1.9363 Y8.4963
G01 X1.9298 Y8.4999
G01 X1.9230 Y8.5031
G01 X1.9159 Y8.5057
G01 X1.9087 Y8.5077
G01 X1.9014 Y8.5093
G01 X1.8940 Y8.5103
G01 X1.8865 Y8.5108
G01 X0.2840 Y8.5108
G01 X0.2740 Y8.5103
G01 X0.2641 Y8.5088
G01 X0.2544 Y8.5064
G01 X0.2450 Y8.5031
G01 X0.2382 Y8.4999
G01 X0.2317 Y8.4963
G01 X0.2214 Y8.4893
G01 X0.2156 Y8.4844
G01 X0.2103 Y8.4792
G01 X0.2022 Y8.4696
G01 X0.1980 Y8.4635
G01 X0.1942 Y8.4570
G01 X0.1890 Y8.4456
G01 X0.1853 Y8.4337
G01 X0.1837 Y8.4264
G01 X0.1827 Y8.4190
G01 X0.1822 Y8.4090
G01 X0.1823 Y7.8540
G01 X0.1833 Y7.8441
G01 X0.1853 Y7.8343
G01 X0.1882 Y7.8247
G01 X0.1909 Y7.8177
G01 X0.1954 Y7.8088
G01 X0.1994 Y7.8024
G01 X0.2037 Y7.7964
G01 X0.2103 Y7.7888
G01 X0.2175 Y7.7819
G01 X0.2254 Y7.7758
G01 X0.2317 Y7.7717
G01 X0.2405 Y7.7670
G01 X0.2497 Y7.7632
G01 X0.2568 Y7.7609
G01 X0.2641 Y7.7592
G01 X0.2740 Y7.7577
G00 Z2.0000
G00 X2.2490 Y8.6827
G01 F100.00
G01 Z-0.1000
G01 F200.00
G01 X2.2590 Y8.6822
G01 X2.8090 Y8.6822
G01 X2.8190 Y8.6827
G01 X2.8264 Y8.6837
G01 X2.8337 Y8.6853
G01 X2.8409 Y8.6873
G01 X2.8480 Y8.6899
G01 X2.8548 Y8.6931
G01 X2.8613 Y8.6967
G01 X2.8676 Y8.7008
G01 X2.8736 Y8.7053
G01 X2.8827 Y8.7138
G01 X2.8877 Y8.7194
G01 X2.8922 Y8.7254
G01 X2.8963 Y8.7317
G01 X2.8999 Y8.7382
G01 X2.9031 Y8.7450
G01 X2.9057 Y8.7521
G01 X2.9077 Y8.7593
G01 X2.9093 Y8.7666
G01 X2.9105 Y8.7765
G01 X2.9108 Y8.7840
G01 X2.9107 Y10.3890
G01 X2.9100 Y10.3965
G01 X2.9088 Y10.4039
G01 X2.9071 Y10.4112
G01 X2.9048 Y10.4183
G01 X2.9021 Y10.4253
G01 X2.8988 Y10.4320
G01 X2.8950 Y10.4385
G01 X2.8908 Y10.4446
G01 X2.8861 Y10.4505
G01 X2.8810 Y10.4560
G01 X2.8755 Y10.4611
G01 X2.8696 Y10.4658
G01 X2.8635 Y10.4700
G01 X2.8570 Y10.4738
G01 X2.8480 Y10.4781
G01 X2.8409 Y10.4807
G01 X2.8337 Y10.4827
G01 X2.8264 Y10.4843
G01 X2.8190 Y10.4853
G01 X2.8090 Y10.4858
G01 X2.2590 Y10.4858
G01 X2.2490 Y10.4853
G01 X2.2416 Y10.4843
G01 X2.2343 Y10.4827
G01 X2.2271 Y10.4807
G01 X2.2200 Y10.4781
G01 X2.2132 Y10.4749
G01 X2.2067 Y10.4713
G01 X2.1964 Y10.4643
G01 X2.1906 Y10.4594
G01 X2.1853 Y10.4542
G01 X2.1803 Y10.4486
G01 X2.1758 Y10.4426
G01 X2.1717 Y10.4363
G01 X2.1681 Y10.4298
G01 X2.1649 Y10.4230
G01 X2.1623 Y10.4159
G01 X2.1603 Y10.4087
G01 X2.1587 Y10.4014
G01 X2.1575 Y10.3915
G01 X2.1572 Y10.3840
G01 X2.1573 Y8.7790
G01 X2.1583 Y8.7691
G01 X2.1597 Y8.7617
G01 X2.1623 Y8.7521
G01 X2.1649 Y8.7450
G01 X2.1692 Y8.7360
G01 X2.1730 Y8.7295
G01 X2.1787 Y8.7214
G01 X2.1853 Y8.7138
G01 X2.1925 Y8.7069
G01 X2.1984 Y8.7022
G01 X2.2045 Y8.6980
G01 X2.2132 Y8.6931
G01 X2.2200 Y8.6899
G01 X2.2294 Y8.6866
G01 X2.2391 Y8.6842
G01 X2.2490 Y8.6827
G00 Z2.0000
G00 X3.0341 Y8.5819
G01 F100.00
G01 Z-0.1000
G01 F200.00
G01 X3.0440 Y8.5810
G01 X3.0590 Y8.5804
G01 X3.6190 Y8.5806
G01 X3.6339 Y8.5819
G01 X3.6487 Y8.5843
G01 X3.6633 Y8.5878
G01 X3.6776 Y8.5923
G01 X3.6915 Y8.5979
G01 X3.7050 Y8.6044
G01 X3.7179 Y8.6120
G01 X3.7340 Y8.6233
G01 X3.7501 Y8.6120
G01 X3.7630 Y8.6044
G01 X3.7811 Y8.5959
G01 X3.7951 Y8.5907
G01 X3.8144 Y8.5853
G01 X3.8291 Y8.5826
G01 X3.8440 Y8.5810
G01 X3.8590 Y8.5804
G01 X4.4090 Y8.5804
G01 X4.4240 Y8.5810
G01 X4.4389 Y8.5826
G01 X4.4536 Y8.5853
G01 X4.4681 Y8.5892
G01 X4.4823 Y8.5940
G01 X4.4961 Y8.5999
G01 X4.5094 Y8.6069
G01 X4.5221 Y8.6147
G01 X4.5340 Y8.6233
G01 X4.5501 Y8.6120
G01 X4.5630 Y8.6044
G01 X4.5811 Y8.5959
G01 X4.5951 Y8.5907
G01 X4.6095 Y8.5865
G01 X4.6242 Y8.5834
G01 X4.6440 Y8.5810
G01 X4.6590 Y8.5804
G01 X5.2090 Y8.5804
G01 X5.2240 Y8.5810
G01 X5.2389 Y8.5826
G01 X5.2536 Y8.5853
G01 X5.2681 Y8.5892
G01 X5.2823 Y8.5940
G01 X5.2961 Y8.5999
G01 X5.3094 Y8.6069
G01 X5.3221 Y8.6147
G01 X5.3340 Y8.6233
G01 X5.3501 Y8.6120
G01 X5.3630 Y8.6044
G01 X5.3811 Y8.5959
G01 X5.3951 Y8.5907
G01 X5.4095 Y8.5865
G01 X5.4242 Y8.5834
G01 X5.4440 Y8.5810
G01 X5.4590 Y8.5804
G01 X6.0090 Y8.5804
G01 X6.0240 Y8.5810
G01 X6.0389 Y8.5826
G01 X6.0536 Y8.5853
G01 X6.0681 Y8.5892
G01 X6.0823 Y8.5940
G01 X6.0961 Y8.5999
G01 X6.1094 Y8.6069
G01 X6.1221 Y8.6147
G01 X6.1340 Y8.6233
G01 X6.1501 Y8.6120
G01 X6.1630 Y8.6044
G01 X6.1765 Y8.5979
G01 X6.1904 Y8.5923
G01 X6.2047 Y8.5878
G01 X6.2242 Y8.5834
G01 X6.2390 Y8.5814
G01 X6.2540 Y8.5805
G01 X6.8090 Y8.5804
G01 X6.8240 Y8.5810
G01 X6.8389 Y8.5826
G01 X6.8536 Y8.5853
G01 X6.8681 Y8.5892
G01 X6.8823 Y8.5940
G01 X6.8961 Y8.5999
G01 X6.9094 Y8.6069
G01 X6.9221 Y8.6147
G01 X6.9340 Y8.6233
G01 X6.9501 Y8.6120
G01 X6.9630 Y8.6044
G01 X6.9765 Y8.5979
G01 X6.9904 Y8.5923
G01 X7.0047 Y8.5878
G01 X7.0242 Y8.5834
G01 X7.0390 Y8.5814
G01 X7.0540 Y8.5805
G01 X7.6090 Y8.5804
G01 X7.6240 Y8.5810
G01 X7.6389 Y8.5826
G01 X7.6536 Y8.5853
G01 X7.6681 Y8.5892
G01 X7.6823 Y8.5940
G01 X7.6961 Y8.5999
G01 X7.7094 Y8.6069
G01 X7.7221 Y8.6147
G01 X7.7340 Y8.6233
G01 X7.7501 Y8.6120
G01 X7.7630 Y8.6044
G01 X7.7765 Y8.5979
G01 X7.7904 Y8.5923
G01 X7.8047 Y8.5878
G01 X7.8193 Y8.5843
G01 X7.8341 Y8.5819
G01 X7.8490 Y8.5806
G01 X8.4140 Y8.5805
G01 X8.4290 Y8.5814
G01 X8.4438 Y8.5834
G01 X8.4585 Y8.5865
G01 X8.4729 Y8.5907
G01 X8.4869 Y8.5959
G01 X8.5005 Y8.6021
G01 X8.5137 Y8.6094
G01 X8.5262 Y8.6175
G01 X8.5382 Y8.6266
G01 X8.5494 Y8.6365
G01 X8.5599 Y8.6473
G01 X8.5695 Y8.6587
G01 X8.5783 Y8.6709
G01 X8.5861 Y8.6836
G01 X8.5931 Y8.6969
G01 X8.5990 Y8.7107
G01 X8.6038 Y8.7249
G01 X8.6077 Y8.7394
G01 X8.6104 Y8.7541
G01 X8.6120 Y8.7690
G01 X8.6126 Y8.7840
G01 X8.6126 Y10.3840
G01 X8.6120 Y10.3990
G01 X8.6096 Y10.4188
G01 X8.6065 Y10.4335
G01 X8.6023 Y10.4479
G01 X8.5951 Y10.4665
G01 X8.5886 Y10.4800
G01 X8.5810 Y10.4929
G01 X8.5725 Y10.5053
G01 X8.5632 Y10.5170
G01 X8.5530 Y10.5280
G01 X8.5420 Y10.5382
G01 X8.5303 Y10.5475
G01 X8.5137 Y10.5586
G01 X8.5005 Y10.5659
G01 X8.4869 Y10.5721
G01 X8.4729 Y10.5773
G01 X8.4585 Y10.5815
G01 X8.4438 Y10.5846
G01 X8.4290 Y10.5866
G01 X8.4140 Y10.5875
G01 X7.8590 Y10.5876
G01 X7.8440 Y10.5870
G01 X7.8291 Y10.5854
G01 X7.8144 Y10.5827
G01 X7.7999 Y10.5788
G01 X7.7857 Y10.5740
G01 X7.7719 Y10.5681
G01 X7.7586 Y10.5611
G01 X7.7459 Y10.5533
G01 X7.7340 Y10.5447
G01 X7.7179 Y10.5560
G01 X7.7050 Y10.5636
G01 X7.6869 Y10.5721
G01 X7.6729 Y10.5773
G01 X7.6536 Y10.5827
G01 X7.6389 Y10.5854
G01 X7.6240 Y10.5870
G01 X7.6090 Y10.5876
G01 X7.0590 Y10.5876
G01 X7.0440 Y10.5870
G01 X7.0291 Y10.5854
G01 X7.0144 Y10.5827
G01 X6.9999 Y10.5788
G01 X6.9857 Y10.5740
G01 X6.9719 Y10.5681
G01 X6.9586 Y10.5611
G01 X6.9459 Y10.5533
G01 X6.9340 Y10.5447
G01 X6.9179 Y10.5560
G01 X6.9050 Y10.5636
G01 X6.8869 Y10.5721
G01 X6.8729 Y10.5773
G01 X6.8536 Y10.5827
G01 X6.8389 Y10.5854
G01 X6.8240 Y10.5870
G01 X6.8090 Y10.5876
G01 X6.2590 Y10.5876
G01 X6.2440 Y10.5870
G01 X6.2291 Y10.5854
G01 X6.2144 Y10.5827
G01 X6.1999 Y10.5788
G01 X6.1857 Y10.5740
G01 X6.1719 Y10.5681
G01 X6.1586 Y10.5611
G01 X6.1459 Y10.5533
G01 X6.1340 Y10.5447
G01 X6.1179 Y10.5560
G01 X6.1050 Y10.5636
G01 X6.0869 Y10.5721
G01 X6.0729 Y10.5773
G01 X6.0536 Y10.5827
G01 X6.0389 Y10.5854
G01 X6.0240 Y10.5870
G01 X6.0090 Y10.5876
G01 X5.4590 Y10.5876
G01 X5.4440 Y10.5870
G01 X5.4291 Y10.5854
G01 X5.4144 Y10.5827
G01 X5.3999 Y10.5788
G01 X5.3857 Y10.5740
G01 X5.3719 Y10.5681
G01 X5.3586 Y10.5611
G01 X5.3459 Y10.5533
G01 X5.3340 Y10.5447
G01 X5.3179 Y10.5560
G01 X5.3050 Y10.5636
G01 X5.2869 Y10.5721
G01 X5.2729 Y10.5773
G01 X5.2536 Y10.5827
G01 X5.2389 Y10.5854
G01 X5.2240 Y10.5870
G01 X5.2090 Y10.5876
G01 X4.6590 Y10.5876
G01 X4.6440 Y10.5870
G01 X4.6291 Y10.5854
G01 X4.6144 Y10.5827
G01 X4.5999 Y10.5788
G01 X4.5857 Y10.5740
G01 X4.5719 Y10.5681
G01 X4.5586 Y10.5611
G01 X4.5459 Y10.5533
G01 X4.5340 Y10.5447
G01 X4.5179 Y10.5560
G01 X4.5050 Y10.5636
G01 X4.4869 Y10.5721
G01 X4.4729 Y10.5773
G01 X4.4536 Y10.5827
G01 X4.4389 Y10.5854
G01 X4.4240 Y10.5870
G01 X4.4090 Y10.5876
G01 X3.8590 Y10.5876
G01 X3.8440 Y10.5870
G01 X3.8291 Y10.5854
G01 X3.8144 Y10.5827
G01 X3.7999 Y10.5788
G01 X3.7857 Y10.5740
G01 X3.7719 Y10.5681
G01 X3.7586 Y10.5611
G01 X3.7459 Y10.5533
G01 X3.7340 Y10.5447
G01 X3.7179 Y10.5560
G01 X3.7050 Y10.5636
G01 X3.6915 Y10.5701
G01 X3.6776 Y10.5757
G01 X3.6633 Y10.5802
G01 X3.6487 Y10.5837
G01 X3.6339 Y10.5861
G01 X3.6140 Y10.5875
G01 X3.0590 Y10.5876
G01 X3.0440 Y10.5870
G01 X3.0291 Y10.5854
G01 X3.0144 Y10.5827
G01 X2.9999 Y10.5788
G01 X2.9857 Y10.5740
G01 X2.9719 Y10.5681
G01 X2.9586 Y10.5611
G01 X2.9459 Y10.5533
G01 X2.9340 Y10.5447
G01 X2.9179 Y10.5560
G01 X2.9050 Y10.5636
G01 X2.8915 Y10.5701
G01 X2.8776 Y10.5757
G01 X2.8633 Y10.5802
G01 X2.8487 Y10.5837
G01 X2.8339 Y10.5861
G01 X2.8140 Y10.5875
G01 X2.2540 Y10.5875
G01 X2.2341 Y10.5861
G01 X2.2144 Y10.5827
G01 X2.1951 Y10.5773
G01 X2.1765 Y10.5701
G01 X2.1630 Y10.5636
G01 X2.1543 Y10.5586
G01 X2.1418 Y10.5505
G01 X2.1298 Y10.5414
G01 X2.1186 Y10.5315
G01 X2.1081 Y10.5207
G01 X2.1016 Y10.5132
G01 X2.0925 Y10.5012
G01 X2.0844 Y10.4887
G01 X2.0771 Y10.4755
G01 X2.0709 Y10.4619
G01 X2.0657 Y10.4479
G01 X2.0628 Y10.4383
G01 X2.0593 Y10.4237
G01 X2.0569 Y10.4089
G01 X2.0556 Y10.3940
G01 X2.0554 Y8.7840
G01 X2.0564 Y8.7640
G01 X2.0584 Y8.7492
G01 X2.0603 Y8.7394
G01 X2.0657 Y8.7201
G01 X2.0729 Y8.7015
G01 X2.0771 Y8.6925
G01 X2.0844 Y8.6793
G01 X2.0925 Y8.6668
G01 X2.0985 Y8.6587
G01 X2.1048 Y8.6510
G01 X2.1150 Y8.6400
G01 X2.1260 Y8.6298
G01 X2.1377 Y8.6205
G01 X2.1459 Y8.6147
G01 X2.1586 Y8.6069
G01 X2.1675 Y8.6021
G01 X2.1811 Y8.5959
G01 X2.1951 Y8.5907
G01 X2.2095 Y8.5865
G01 X2.2193 Y8.5843
G01 X2.2341 Y8.5819
G01 X2.2440 Y8.5810
G01 X2.2590 Y8.5804
G01 X2.8190 Y8.5806
G01 X2.8339 Y8.5819
G01 X2.8487 Y8.5843
G01 X2.8633 Y8.5878
G01 X2.8776 Y8.5923
G01 X2.8915 Y8.5979
G01 X2.9050 Y8.6044
G01 X2.9179 Y8.6120
G01 X2.9340 Y8.6233
G01 X2.9459 Y8.6147
G01 X2.9586 Y8.6069
G01 X2.9675 Y8.6021
G01 X2.9811 Y8.5959
G01 X2.9951 Y8.5907
G01 X3.0095 Y8.5865
G01 X3.0193 Y8.5843
G01 X3.0341 Y8.5819
G00 Z2.0000
G00 X3.0465 Y8.6830
G01 F100.00
G01 Z-0.1000
G01 F200.00
G01 X3.0590 Y8.6822
G01 X3.6090 Y8.6822
G01 X3.6190 Y8.6827
G01 X3.6264 Y8.6837
G01 X3.6337 Y8.6853
G01 X3.6409 Y8.6873
G01 X3.6480 Y8.6899
G01 X3.6548 Y8.6931
G01 X3.6613 Y8.6967
G01 X3.6676 Y8.7008
G01 X3.6736 Y8.7053
G01 X3.6827 Y8.7138
G01 X3.6877 Y8.7194
G01 X3.6922 Y8.7254
G01 X3.6963 Y8.7317
G01 X3.6999 Y8.7382
G01 X3.7031 Y8.7450
G01 X3.7057 Y8.7521
G01 X3.7077 Y8.7593
G01 X3.7093 Y8.7666
G01 X3.7105 Y8.7765
G01 X3.7108 Y8.7840
G01 X3.7107 Y10.3890
G01 X3.7100 Y10.3965
G01 X3.7088 Y10.4039
G01 X3.7071 Y10.4112
G01 X3.7048 Y10.4183
G01 X3.7021 Y10.4253
G01 X3.6988 Y10.4320
G01 X3.6950 Y10.4385
G01 X3.6908 Y10.4446
G01 X3.6861 Y10.4505
G01 X3.6810 Y10.4560
G01 X3.6755 Y10.4611
G01 X3.6696 Y10.4658
G01 X3.6635 Y10.4700
G01 X3.6570 Y10.4738
G01 X3.6480 Y10.4781
G01 X3.6409 Y10.4807
G01 X3.6337 Y10.4827
G01 X3.6264 Y10.4843
G01 X3.6190 Y10.4853
G01 X3.6090 Y10.4858
G01 X3.0590 Y10.4858
G01 X3.0490 Y10.4853
G01 X3.0416 Y10.4843
G01 X3.0343 Y10.4827
G01 X3.0271 Y10.4807
G01 X3.0200 Y10.4781
G01 X3.0132 Y10.4749
G01 X3.0067 Y10.4713
G01 X2.9964 Y10.4643
G01 X2.9906 Y10.4594
G01 X2.9853 Y10.4542
G01 X2.9803 Y10.4486
G01 X2.9758 Y10.4426
G01 X2.9717 Y10.4363
G01 X2.9681 Y10.4298
G01 X2.9649 Y10.4230
G01 X2.9623 Y10.4159
G01 X2.9603 Y10.4087
G01 X2.9587 Y10.4014
G01 X2.9575 Y10.3915
G01 X2.9572 Y10.3840
G01 X2.9573 Y8.7790
G01 X2.9583 Y8.7691
G01 X2.9597 Y8.7617
G01 X2.9623 Y8.7521
G01 X2.9649 Y8.7450
G01 X2.9692 Y8.7360
G01 X2.9730 Y8.7295
G01 X2.9772 Y8.7234
G01 X2.9836 Y8.7156
G01 X2.9906 Y8.7086
G01 X2.9964 Y8.7037
G01 X3.0045 Y8.6980
G01 X3.0132 Y8.6931
G01 X3.0200 Y8.6899
G01 X3.0294 Y8.6866
G01 X3.0367 Y8.6847
G01 X3.0465 Y8.6830
G00 Z2.0000
G00 X3.8465 Y8.6830
G01 F100.00
G01 Z-0.1000
G01 F200.00
G01 X3.8590 Y8.6822
G01 X4.4090 Y8.6822
G01 X4.4190 Y8.6827
G01 X4.4264 Y8.6837
G01 X4.4337 Y8.6853
G01 X4.4409 Y8.6873
G01 X4.4480 Y8.6899
G01 X4.4548 Y8.6931
G01 X4.4613 Y8.6967
G01 X4.4676 Y8.7008
G01 X4.4736 Y8.7053
G01 X4.4827 Y8.7138
G01 X4.4877 Y8.7194
G01 X4.4922 Y8.7254
G01 X4.4963 Y8.7317
G01 X4.4999 Y8.7382
G01 X4.5031 Y8.7450
G01 X4.5057 Y8.7521
G01 X4.5077 Y8.7593
G01 X4.5093 Y8.7666
G01 X4.5105 Y8.7765
G01 X4.5108 Y8.7840
G01 X4.5107 Y10.3890
G01 X4.5100 Y10.3965
G01 X4.5088 Y10.4039
G01 X4.5071 Y10.4112
G01 X4.5048 Y10.4183
G01 X4.5021 Y10.4253
G01 X4.4988 Y10.4320
G01 X4.4950 Y10.4385
G01 X4.4908 Y10.4446
G01 X4.4861 Y10.4505
G01 X4.4810 Y10.4560
G01 X4.4755 Y10.4611
G01 X4.4696 Y10.4658
G01 X4.4613 Y10.4713
G01 X4.4548 Y10.4749
G01 X4.4480 Y10.4781
G01 X4.4409 Y10.4807
G01 X4.4337 Y10.4827
G01 X4.4264 Y10.4843
G01 X4.4190 Y10.4853
G01 X4.4090 Y10.4858
G01 X3.8590 Y10.4858
G01 X3.8490 Y10.4853
G01 X3.8416 Y10.4843
G01 X3.8343 Y10.4827
G01 X3.8271 Y10.4807
G01 X3.8200 Y10.4781
G01 X3.8132 Y10.4749
G01 X3.8067 Y10.4713
G01 X3.7964 Y10.4643
G01 X3.7906 Y10.4594
G01 X3.7853 Y10.4542
G01 X3.7803 Y10.4486
G01 X3.7758 Y10.4426
G01 X3.7717 Y10.4363
G01 X3.7681 Y10.4298
G01 X3.7649 Y10.4230
G01 X3.7623 Y10.4159
G01 X3.7603 Y10.4087
G01 X3.7587 Y10.4014
G01 X3.7575 Y10.3915
G01 X3.7572 Y10.3840
G01 X3.7573 Y8.7790
G01 X3.7583 Y8.7691
G01 X3.7597 Y8.7617
G01 X3.7623 Y8.7521
G01 X3.7649 Y8.7450
G01 X3.7692 Y8.7360
G01 X3.7730 Y8.7295
G01 X3.7772 Y8.7234
G01 X3.7836 Y8.7156
G01 X3.7906 Y8.7086
G01 X3.7964 Y8.7037
G01 X3.8045 Y8.6980
G01 X3.8132 Y8.6931
G01 X3.8200 Y8.6899
G01 X3.8294 Y8.6866
G01 X3.8367 Y8.6847
G01 X3.8465 Y8.6830
G00 Z2.0000
G00 X4.6465 Y8.6830
G01 F100.00
G01 Z-0.1000
G01 F200.00
G01 X4.6590 Y8.6822
G01 X5.2090 Y8.6822
G01 X5.2190 Y8.6827
G01 X5.2264 Y8.6837
G01 X5.2337 Y8.6853
G01 X5.2409 Y8.6873
G01 X5.2480 Y8.6899
G01 X5.2548 Y8.6931
G01 X5.2613 Y8.6967
G01 X5.2676 Y8.7008
G01 X5.2736 Y8.7053
G01 X5.2827 Y8.7138
G01 X5.2877 Y8.7194
G01 X5.2922 Y8.7254
G01 X5.2963 Y8.7317
G01 X5.2999 Y8.7382
G01 X5.3031 Y8.7450
G01 X5.3057 Y8.7521
G01 X5.3077 Y8.7593
G01 X5.3093 Y8.7666
G01 X5.3105 Y8.7765
G01 X5.3108 Y8.7840
G01 X5.3107 Y10.3890
G01 X5.3100 Y10.3965
G01 X5.3088 Y10.4039
G01 X5.3071 Y10.4112
G01 X5.3048 Y10.4183
G01 X5.3021 Y10.4253
G01 X5.2988 Y10.4320
G01 X5.2950 Y10.4385
G01 X5.2908 Y10.4446
G01 X5.2861 Y10.4505
G01 X5.2810 Y10.4560
G01 X5.2755 Y10.4611
G01 X5.2696 Y10.4658
G01 X5.2613 Y10.4713
G01 X5.2548 Y10.4749
G01 X5.2480 Y10.4781
G01 X5.2409 Y10.4807
G01 X5.2337 Y10.4827
G01 X5.2264 Y10.4843
G01 X5.2190 Y10.4853
G01 X5.2090 Y10.4858
G01 X4.6590 Y10.4858
G01 X4.6490 Y10.4853
G01 X4.6416 Y10.4843
G01 X4.6343 Y10.4827
G01 X4.6271 Y10.4807
G01 X4.6200 Y10.4781
G01 X4.6088 Y10.4726
G01 X4.6024 Y10.4686
G01 X4.5964 Y10.4643
G01 X4.5906 Y10.4594
G01 X4.5853 Y10.4542
G01 X4.5803 Y10.4486
G01 X4.5758 Y10.4426
G01 X4.5717 Y10.4363
G01 X4.5681 Y10.4298
G01 X4.5649 Y10.4230
G01 X4.5623 Y10.4159
G01 X4.5603 Y10.4087
G01 X4.5587 Y10.4014
G01 X4.5575 Y10.3915
G01 X4.5572 Y10.3840
G01 X4.5573 Y8.7790
G01 X4.5583 Y8.7691
G01 X4.5603 Y8.7593
G01 X4.5632 Y8.7497
G01 X4.5659 Y8.7427
G01 X4.5704 Y8.7338
G01 X4.5744 Y8.7274
G01 X4.5787 Y8.7214
G01 X4.5853 Y8.7138
G01 X4.5906 Y8.7086
G01 X4.5984 Y8.7022
G01 X4.6045 Y8.6980
G01 X4.6132 Y8.6931
G01 X4.6200 Y8.6899
G01 X4.6294 Y8.6866
G01 X4.6367 Y8.6847
G01 X4.6465 Y8.6830
G00 Z2.0000
G00 X5.4465 Y8.6830
G01 F100.00
G01 Z-0.1000
G01 F200.00
G01 X5.4590 Y8.6822
G01 X6.0090 Y8.6822
G01 X6.0190 Y8.6827
G01 X6.0264 Y8.6837
G01 X6.0337 Y8.6853
G01 X6.0409 Y8.6873
G01 X6.0480 Y8.6899
G01 X6.0548 Y8.6931
G01 X6.0613 Y8.6967
G01 X6.0676 Y8.7008
G01 X6.0736 Y8.7053
G01 X6.0792 Y8.7103
G01 X6.0844 Y8.7156
G01 X6.0922 Y8.7254
G01 X6.0963 Y8.7317
G01 X6.0999 Y8.7382
G01 X6.1031 Y8.7450
G01 X6.1057 Y8.7521
G01 X6.1077 Y8.7593
G01 X6.1093 Y8.7666
G01 X6.1105 Y8.7765
G01 X6.1108 Y8.7840
G01 X6.1107 Y10.3890
G01 X6.1100 Y10.3965
G01 X6.1088 Y10.4039
G01 X6.1071 Y10.4112
G01 X6.1048 Y10.4183
G01 X6.1021 Y10.4253
G01 X6.0988 Y10.4320
G01 X6.0950 Y10.4385
G01 X6.0908 Y10.4446
G01 X6.0861 Y10.4505
G01 X6.0810 Y10.4560
G01 X6.0755 Y10.4611
G01 X6.0696 Y10.4658
G01 X6.0613 Y10.4713
G01 X6.0548 Y10.4749
G01 X6.0480 Y10.4781
G01 X6.0409 Y10.4807
G01 X6.0337 Y10.4827
G01 X6.0264 Y10.4843
G01 X6.0190 Y10.4853
G01 X6.0090 Y10.4858
G01 X5.4590 Y10.4858
G01 X5.4490 Y10.4853
G01 X5.4416 Y10.4843
G01 X5.4343 Y10.4827
G01 X5.4271 Y10.4807
G01 X5.4200 Y10.4781
G01 X5.4088 Y10.4726
G01 X5.4024 Y10.4686
G01 X5.3964 Y10.4643
G01 X5.3906 Y10.4594
G01 X5.3853 Y10.4542
G01 X5.3803 Y10.4486
G01 X5.3758 Y10.4426
G01 X5.3717 Y10.4363
G01 X5.3681 Y10.4298
G01 X5.3649 Y10.4230
G01 X5.3623 Y10.4159
G01 X5.3603 Y10.4087
G01 X5.3587 Y10.4014
G01 X5.3575 Y10.3915
G01 X5.3572 Y10.3840
G01 X5.3573 Y8.7790
G01 X5.3583 Y8.7691
G01 X5.3603 Y8.7593
G01 X5.3632 Y8.7497
G01 X5.3659 Y8.7427
G01 X5.3704 Y8.7338
G01 X5.3744 Y8.7274
G01 X5.3787 Y8.7214
G01 X5.3853 Y8.7138
G01 X5.3906 Y8.7086
G01 X5.3984 Y8.7022
G01 X5.4045 Y8.6980
G01 X5.4132 Y8.6931
G01 X5.4200 Y8.6899
G01 X5.4294 Y8.6866
G01 X5.4367 Y8.6847
G01 X5.4465 Y8.6830
G00 Z2.0000
G00 X6.2441 Y8.6833
G01 F100.00
G01 Z-0.1000
G01 F200.00
G01 X6.2515 Y8.6825
G01 X6.2590 Y8.6822
G01 X6.8090 Y8.6822
G01 X6.8190 Y8.6827
G01 X6.8264 Y8.6837
G01 X6.8337 Y8.6853
G01 X6.8409 Y8.6873
G01 X6.8480 Y8.6899
G01 X6.8548 Y8.6931
G01 X6.8613 Y8.6967
G01 X6.8676 Y8.7008
G01 X6.8736 Y8.7053
G01 X6.8827 Y8.7138
G01 X6.8877 Y8.7194
G01 X6.8922 Y8.7254
G01 X6.8963 Y8.7317
G01 X6.8999 Y8.7382
G01 X6.9031 Y8.7450
G01 X6.9057 Y8.7521
G01 X6.9077 Y8.7593
G01 X6.9093 Y8.7666
G01 X6.9105 Y8.7765
G01 X6.9108 Y8.7840
G01 X6.9107 Y10.3890
G01 X6.9100 Y10.3965
G01 X6.9088 Y10.4039
G01 X6.9071 Y10.4112
G01 X6.9048 Y10.4183
G01 X6.9021 Y10.4253
G01 X6.8988 Y10.4320
G01 X6.8950 Y10.4385
G01 X6.8908 Y10.4446
G01 X6.8861 Y10.4505
G01 X6.8810 Y10.4560
G01 X6.8755 Y10.4611
G01 X6.8696 Y10.4658
G01 X6.8613 Y10.4713
G01 X6.8548 Y10.4749
G01 X6.8480 Y10.4781
G01 X6.8409 Y10.4807
G01 X6.8337 Y10.4827
G01 X6.8264 Y10.4843
G01 X6.8190 Y10.4853
G01 X6.8090 Y10.4858
G01 X6.2590 Y10.4858
G01 X6.2490 Y10.4853
G01 X6.2416 Y10.4843
G01 X6.2343 Y10.4827
G01 X6.2271 Y10.4807
G01 X6.2200 Y10.4781
G01 X6.2088 Y10.4726
G01 X6.2024 Y10.4686
G01 X6.1964 Y10.4643
G01 X6.1906 Y10.4594
G01 X6.1853 Y10.4542
G01 X6.1803 Y10.4486
G01 X6.1758 Y10.4426
G01 X6.1717 Y10.4363
G01 X6.1681 Y10.4298
G01 X6.1649 Y10.4230
G01 X6.1623 Y10.4159
G01 X6.1603 Y10.4087
G01 X6.1587 Y10.4014
G01 X6.1575 Y10.3915
G01 X6.1572 Y10.3840
G01 X6.1573 Y8.7790
G01 X6.1583 Y8.7691
G01 X6.1597 Y8.7617
G01 X6.1623 Y8.7521
G01 X6.1649 Y8.7450
G01 X6.1681 Y8.7382
G01 X6.1730 Y8.7295
G01 X6.1787 Y8.7214
G01 X6.1836 Y8.7156
G01 X6.1888 Y8.7103
G01 X6.1964 Y8.7037
G01 X6.2045 Y8.6980
G01 X6.2110 Y8.6942
G01 X6.2200 Y8.6899
G01 X6.2271 Y8.6873
G01 X6.2343 Y8.6853
G01 X6.2441 Y8.6833
G00 Z2.0000
G00 X7.0441 Y8.6833
G01 F100.00
G01 Z-0.1000
G01 F200.00
G01 X7.0515 Y8.6825
G01 X7.0590 Y8.6822
G01 X7.6090 Y8.6822
G01 X7.6190 Y8.6827
G01 X7.6264 Y8.6837
G01 X7.6337 Y8.6853
G01 X7.6409 Y8.6873
G01 X7.6480 Y8.6899
G01 X7.6548 Y8.6931
G01 X7.6613 Y8.6967
G01 X7.6676 Y8.7008
G01 X7.6736 Y8.7053
G01 X7.6792 Y8.7103
G01 X7.6844 Y8.7156
G01 X7.6922 Y8.7254
G01 X7.6963 Y8.7317
G01 X7.6999 Y8.7382
G01 X7.7031 Y8.7450
G01 X7.7057 Y8.7521
G01 X7.7077 Y8.7593
G01 X7.7093 Y8.7666
G01 X7.7105 Y8.7765
G01 X7.7108 Y8.7840
G01 X7.7107 Y10.3890
G01 X7.7100 Y10.3965
G01 X7.7088 Y10.4039
G01 X7.7071 Y10.4112
G01 X7.7048 Y10.4183
G01 X7.7021 Y10.4253
G01 X7.6988 Y10.4320
G01 X7.6950 Y10.4385
G01 X7.6908 Y10.4446
G01 X7.6861 Y10.4505
G01 X7.6810 Y10.4560
G01 X7.6755 Y10.4611
G01 X7.6696 Y10.4658
G01 X7.6613 Y10.4713
G01 X7.6548 Y10.4749
G01 X7.6480 Y10.4781
G01 X7.6409 Y10.4807
G01 X7.6337 Y10.4827
G01 X7.6264 Y10.4843
G01 X7.6190 Y10.4853
G01 X7.6090 Y10.4858
G01 X7.0590 Y10.4858
G01 X7.0490 Y10.4853
G01 X7.0416 Y10.4843
G01 X7.0343 Y10.4827
G01 X7.0271 Y10.4807
G01 X7.0200 Y10.4781
G01 X7.0088 Y10.4726
G01 X7.0024 Y10.4686
G01 X6.9964 Y10.4643
G01 X6.9906 Y10.4594
G01 X6.9853 Y10.4542
G01 X6.9803 Y10.4486
G01 X6.9758 Y10.4426
G01 X6.9717 Y10.4363
G01 X6.9681 Y10.4298
G01 X6.9649 Y10.4230
G01 X6.9623 Y10.4159
G01 X6.9603 Y10.4087
G01 X6.9587 Y10.4014
G01 X6.9575 Y10.3915
G01 X6.9572 Y10.3840
G01 X6.9573 Y8.7790
G01 X6.9583 Y8.7691
G01 X6.9597 Y8.7617
G01 X6.9623 Y8.7521
G01 X6.9649 Y8.7450
G01 X6.9681 Y8.7382
G01 X6.9730 Y8.7295
G01 X6.9787 Y8.7214
G01 X6.9836 Y8.7156
G01 X6.9888 Y8.7103
G01 X6.9964 Y8.7037
G01 X7.0045 Y8.6980
G01 X7.0110 Y8.6942
G01 X7.0200 Y8.6899
G01 X7.0271 Y8.6873
G01 X7.0343 Y8.6853
G01 X7.0441 Y8.6833
G00 Z2.0000
G00 X7.8465 Y8.6830
G01 F100.00
G01 Z-0.1000
G01 F200.00
G01 X7.8590 Y8.6822
G01 X8.4090 Y8.6822
G01 X8.4190 Y8.6827
G01 X8.4264 Y8.6837
G01 X8.4337 Y8.6853
G01 X8.4409 Y8.6873
G01 X8.4480 Y8.6899
G01 X8.4548 Y8.6931
G01 X8.4613 Y8.6967
G01 X8.4676 Y8.7008
G01 X8.4736 Y8.7053
G01 X8.4792 Y8.7103
G01 X8.4844 Y8.7156
G01 X8.4893 Y8.7214
G01 X8.4936 Y8.7274
G01 X8.4999 Y8.7382
G01 X8.5031 Y8.7450
G01 X8.5057 Y8.7521
G01 X8.5083 Y8.7617
G01 X8.5097 Y8.7691
G01 X8.5105 Y8.7765
G01 X8.5108 Y8.7840
G01 X8.5107 Y10.3890
G01 X8.5100 Y10.3965
G01 X8.5088 Y10.4039
G01 X8.5071 Y10.4112
G01 X8.5048 Y10.4183
G01 X8.5021 Y10.4253
G01 X8.4976 Y10.4342
G01 X8.4936 Y10.4406
G01 X8.4893 Y10.4466
G01 X8.4844 Y10.4524
G01 X8.4792 Y10.4577
G01 X8.4736 Y10.4627
G01 X8.4676 Y10.4672
G01 X8.4613 Y10.4713
G01 X8.4548 Y10.4749
G01 X8.4480 Y10.4781
G01 X8.4409 Y10.4807
G01 X8.4337 Y10.4827
G01 X8.4264 Y10.4843
G01 X8.4190 Y10.4853
G01 X8.4090 Y10.4858
G01 X7.8590 Y10.4858
G01 X7.8490 Y10.4853
G01 X7.8416 Y10.4843
G01 X7.8343 Y10.4827
G01 X7.8271 Y10.4807
G01 X7.8200 Y10.4781
G01 X7.8088 Y10.4726
G01 X7.8024 Y10.4686
G01 X7.7964 Y10.4643
G01 X7.7906 Y10.4594
G01 X7.7853 Y10.4542
G01 X7.7803 Y10.4486
G01 X7.7758 Y10.4426
G01 X7.7717 Y10.4363
G01 X7.7681 Y10.4298
G01 X7.7649 Y10.4230
G01 X7.7623 Y10.4159
G01 X7.7603 Y10.4087
G01 X7.7587 Y10.4014
G01 X7.7575 Y10.3915
G01 X7.7572 Y10.3840
G01 X7.7573 Y8.7790
G01 X7.7583 Y8.7691
G01 X7.7597 Y8.7617
G01 X7.7623 Y8.7521
G01 X7.7649 Y8.7450
G01 X7.7681 Y8.7382
G01 X7.7730 Y8.7295
G01 X7.7772 Y8.7234
G01 X7.7836 Y8.7156
G01 X7.7888 Y8.7103
G01 X7.7964 Y8.7037
G01 X7.8045 Y8.6980
G01 X7.8132 Y8.6931
G01 X7.8224 Y8.6890
G01 X7.8294 Y8.6866
G01 X7.8391 Y8.6842
G01 X7.8465 Y8.6830
G00 Z2.0000
G00 X8.7715 Y7.7580
G01 F100.00
G01 Z-0.1000
G01 F200.00
G01 X8.7840 Y7.7572
G01 X10.3840 Y7.7572
G01 X10.3940 Y7.7577
G01 X10.4039 Y7.7592
G01 X10.4136 Y7.7616
G01 X10.4230 Y7.7649
G01 X10.4298 Y7.7681
G01 X10.4363 Y7.7717
G01 X10.4466 Y7.7787
G01 X10.4560 Y7.7870
G01 X10.4611 Y7.7925
G01 X10.4658 Y7.7984
G01 X10.4700 Y7.8045
G01 X10.4738 Y7.8110
G01 X10.4771 Y7.8177
G01 X10.4798 Y7.8247
G01 X10.4821 Y7.8318
G01 X10.4838 Y7.8391
G01 X10.4855 Y7.8515
G01 X10.4858 Y7.8590
G01 X10.4858 Y8.4115
G01 X10.4850 Y8.4215
G01 X10.4833 Y8.4313
G01 X10.4807 Y8.4409
G01 X10.4781 Y8.4480
G01 X10.4749 Y8.4548
G01 X10.4713 Y8.4613
G01 X10.4672 Y8.4676
G01 X10.4627 Y8.4736
G01 X10.4577 Y8.4792
G01 X10.4524 Y8.4844
G01 X10.4466 Y8.4893
G01 X10.4406 Y8.4936
G01 X10.4342 Y8.4976
G01 X10.4275 Y8.5010
G01 X10.4206 Y8.5040
G01 X10.4136 Y8.5064
G01 X10.4014 Y8.5093
G01 X10.3940 Y8.5103
G01 X10.3865 Y8.5108
G01 X8.7840 Y8.5108
G01 X8.7740 Y8.5103
G01 X8.7641 Y8.5088
G01 X8.7544 Y8.5064
G01 X8.7450 Y8.5031
G01 X8.7338 Y8.4976
G01 X8.7274 Y8.4936
G01 X8.7214 Y8.4893
G01 X8.7156 Y8.4844
G01 X8.7103 Y8.4792
G01 X8.7022 Y8.4696
G01 X8.6954 Y8.4592
G01 X8.6920 Y8.4525
G01 X8.6890 Y8.4456
G01 X8.6853 Y8.4337
G01 X8.6837 Y8.4264
G01 X8.6827 Y8.4190
G01 X8.6822 Y8.4090
G01 X8.6822 Y7.8565
G01 X8.6827 Y7.8490
G01 X8.6842 Y7.8391
G01 X8.6866 Y7.8294
G01 X8.6890 Y7.8224
G01 X8.6920 Y7.8155
G01 X8.6967 Y7.8067
G01 X8.7022 Y7.7984
G01 X8.7086 Y7.7906
G01 X8.7156 Y7.7836
G01 X8.7214 Y7.7787
G01 X8.7295 Y7.7730
G01 X8.7382 Y7.7681
G01 X8.7474 Y7.7640
G01 X8.7544 Y7.7616
G01 X8.7641 Y7.7592
G01 X8.7715 Y7.7580
G00 Z2.0000
G00 X8.7691 Y6.9583
G01 F100.00
G01 Z-0.1000
G01 F200.00
G01 X8.7765 Y6.9575
G01 X8.7840 Y6.9572
G01 X10.3840 Y6.9572
G01 X10.3940 Y6.9577
G01 X10.4039 Y6.9592
G01 X10.4136 Y6.9616
G01 X10.4230 Y6.9649
G01 X10.4342 Y6.9704
G01 X10.4406 Y6.9744
G01 X10.4466 Y6.9787
G01 X10.4524 Y6.9836
G01 X10.4577 Y6.9888
G01 X10.4658 Y6.9984
G01 X10.4700 Y7.0045
G01 X10.4738 Y7.0110
G01 X10.4771 Y7.0177
G01 X10.4798 Y7.0247
G01 X10.4833 Y7.0367
G01 X10.4847 Y7.0441
G01 X10.4855 Y7.0515
G01 X10.4858 Y7.0590
G01 X10.4858 Y7.6115
G01 X10.4850 Y7.6215
G01 X10.4833 Y7.6313
G01 X10.4807 Y7.6409
G01 X10.4781 Y7.6480
G01 X10.4749 Y7.6548
G01 X10.4713 Y7.6613
G01 X10.4672 Y7.6676
G01 X10.4627 Y7.6736
G01 X10.4542 Y7.6827
G01 X10.4486 Y7.6877
G01 X10.4426 Y7.6922
G01 X10.4363 Y7.6963
G01 X10.4298 Y7.6999
G01 X10.4230 Y7.7031
G01 X10.4159 Y7.7057
G01 X10.4087 Y7.7077
G01 X10.4014 Y7.7093
G01 X10.3940 Y7.7103
G01 X10.3865 Y7.7108
G01 X8.7840 Y7.7108
G01 X8.7740 Y7.7103
G01 X8.7641 Y7.7088
G01 X8.7544 Y7.7064
G01 X8.7450 Y7.7031
G01 X8.7382 Y7.6999
G01 X8.7317 Y7.6963
G01 X8.7214 Y7.6893
G01 X8.7120 Y7.6810
G01 X8.7069 Y7.6755
G01 X8.7022 Y7.6696
G01 X8.6980 Y7.6635
G01 X8.6942 Y7.6570
G01 X8.6890 Y7.6456
G01 X8.6866 Y7.6386
G01 X8.6847 Y7.6313
G01 X8.6827 Y7.6190
G01 X8.6822 Y7.6090
G01 X8.6822 Y7.0565
G01 X8.6827 Y7.0490
G01 X8.6842 Y7.0391
G01 X8.6866 Y7.0294
G01 X8.6890 Y7.0224
G01 X8.6920 Y7.0155
G01 X8.6967 Y7.0067
G01 X8.7022 Y6.9984
G01 X8.7086 Y6.9906
G01 X8.7156 Y6.9836
G01 X8.7214 Y6.9787
G01 X8.7295 Y6.9730
G01 X8.7360 Y6.9692
G01 X8.7450 Y6.9649
G01 X8.7521 Y6.9623
G01 X8.7593 Y6.9603
G01 X8.7691 Y6.9583
G00 Z2.0000
G00 X8.7691 Y6.1583
G01 F100.00
G01 Z-0.1000
G01 F200.00
G01 X8.7765 Y6.1575
G01 X8.7840 Y6.1572
G01 X10.3840 Y6.1572
G01 X10.3940 Y6.1577
G01 X10.4039 Y6.1592
G01 X10.4136 Y6.1616
G01 X10.4230 Y6.1649
G01 X10.4342 Y6.1704
G01 X10.4406 Y6.1744
G01 X10.4466 Y6.1787
G01 X10.4524 Y6.1836
G01 X10.4577 Y6.1888
G01 X10.4658 Y6.1984
G01 X10.4700 Y6.2045
G01 X10.4738 Y6.2110
G01 X10.4771 Y6.2177
G01 X10.4798 Y6.2247
G01 X10.4833 Y6.2367
G01 X10.4847 Y6.2441
G01 X10.4855 Y6.2515
G01 X10.4858 Y6.2590
G01 X10.4858 Y6.8115
G01 X10.4850 Y6.8215
G01 X10.4833 Y6.8313
G01 X10.4807 Y6.8409
G01 X10.4781 Y6.8480
G01 X10.4749 Y6.8548
G01 X10.4713 Y6.8613
G01 X10.4672 Y6.8676
G01 X10.4627 Y6.8736
G01 X10.4542 Y6.8827
G01 X10.4486 Y6.8877
G01 X10.4426 Y6.8922
G01 X10.4363 Y6.8963
G01 X10.4298 Y6.8999
G01 X10.4230 Y6.9031
G01 X10.4159 Y6.9057
G01 X10.4087 Y6.9077
G01 X10.4014 Y6.9093
G01 X10.3940 Y6.9103
G01 X10.3865 Y6.9108
G01 X8.7840 Y6.9108
G01 X8.7740 Y6.9103
G01 X8.7641 Y6.9088
G01 X8.7544 Y6.9064
G01 X8.7450 Y6.9031
G01 X8.7382 Y6.8999
G01 X8.7317 Y6.8963
G01 X8.7214 Y6.8893
G01 X8.7120 Y6.8810
G01 X8.7069 Y6.8755
G01 X8.7022 Y6.8696
G01 X8.6980 Y6.8635
G01 X8.6942 Y6.8570
G01 X8.6890 Y6.8456
G01 X8.6866 Y6.8386
G01 X8.6847 Y6.8313
G01 X8.6827 Y6.8190
G01 X8.6822 Y6.8090
G01 X8.6822 Y6.2565
G01 X8.6827 Y6.2490
G01 X8.6842 Y6.2391
G01 X8.6866 Y6.2294
G01 X8.6890 Y6.2224
G01 X8.6920 Y6.2155
G01 X8.6967 Y6.2067
G01 X8.7022 Y6.1984
G01 X8.7086 Y6.1906
G01 X8.7156 Y6.1836
G01 X8.7214 Y6.1787
G01 X8.7295 Y6.1730
G01 X8.7360 Y6.1692
G01 X8.7450 Y6.1649
G01 X8.7521 Y6.1623
G01 X8.7593 Y6.1603
G01 X8.7691 Y6.1583
G00 Z2.0000
G00 X8.7691 Y5.3583
G01 F100.00
G01 Z-0.1000
G01 F200.00
G01 X8.7765 Y5.3575
G01 X8.7840 Y5.3572
G01 X10.3840 Y5.3572
G01 X10.3940 Y5.3577
G01 X10.4039 Y5.3592
G01 X10.4136 Y5.3616
G01 X10.4230 Y5.3649
G01 X10.4342 Y5.3704
G01 X10.4406 Y5.3744
G01 X10.4466 Y5.3787
G01 X10.4524 Y5.3836
G01 X10.4577 Y5.3888
G01 X10.4658 Y5.3984
G01 X10.4700 Y5.4045
G01 X10.4738 Y5.4110
G01 X10.4771 Y5.4177
G01 X10.4798 Y5.4247
G01 X10.4833 Y5.4367
G01 X10.4847 Y5.4441
G01 X10.4855 Y5.4515
G01 X10.4858 Y5.4590
G01 X10.4858 Y6.0115
G01 X10.4850 Y6.0215
G01 X10.4833 Y6.0313
G01 X10.4807 Y6.0409
G01 X10.4781 Y6.0480
G01 X10.4749 Y6.0548
G01 X10.4713 Y6.0613
G01 X10.4672 Y6.0676
G01 X10.4627 Y6.0736
G01 X10.4542 Y6.0827
G01 X10.4486 Y6.0877
G01 X10.4426 Y6.0922
G01 X10.4363 Y6.0963
G01 X10.4298 Y6.0999
G01 X10.4230 Y6.1031
G01 X10.4159 Y6.1057
G01 X10.4087 Y6.1077
G01 X10.4014 Y6.1093
G01 X10.3940 Y6.1103
G01 X10.3865 Y6.1108
G01 X8.7840 Y6.1108
G01 X8.7740 Y6.1103
G01 X8.7641 Y6.1088
G01 X8.7544 Y6.1064
G01 X8.7450 Y6.1031
G01 X8.7382 Y6.0999
G01 X8.7317 Y6.0963
G01 X8.7214 Y6.0893
G01 X8.7120 Y6.0810
G01 X8.7069 Y6.0755
G01 X8.7022 Y6.0696
G01 X8.6980 Y6.0635
G01 X8.6942 Y6.0570
G01 X8.6890 Y6.0456
G01 X8.6866 Y6.0386
G01 X8.6847 Y6.0313
G01 X8.6827 Y6.0190
G01 X8.6822 Y6.0090
G01 X8.6822 Y5.4565
G01 X8.6827 Y5.4490
G01 X8.6842 Y5.4391
G01 X8.6866 Y5.4294
G01 X8.6890 Y5.4224
G01 X8.6920 Y5.4155
G01 X8.6967 Y5.4067
G01 X8.7022 Y5.3984
G01 X8.7086 Y5.3906
G01 X8.7156 Y5.3836
G01 X8.7214 Y5.3787
G01 X8.7295 Y5.3730
G01 X8.7360 Y5.3692
G01 X8.7450 Y5.3649
G01 X8.7521 Y5.3623
G01 X8.7593 Y5.3603
G01 X8.7691 Y5.3583
G00 Z2.0000
G00 X8.7691 Y4.5583
G01 F100.00
G01 Z-0.1000
G01 F200.00
G01 X8.7765 Y4.5575
G01 X8.7840 Y4.5572
G01 X10.3840 Y4.5572
G01 X10.3940 Y4.5577
G01 X10.4039 Y4.5592
G01 X10.4136 Y4.5616
G01 X10.4230 Y4.5649
G01 X10.4342 Y4.5704
G01 X10.4406 Y4.5744
G01 X10.4466 Y4.5787
G01 X10.4524 Y4.5836
G01 X10.4577 Y4.5888
G01 X10.4658 Y4.5984
G01 X10.4700 Y4.6045
G01 X10.4738 Y4.6110
G01 X10.4771 Y4.6177
G01 X10.4798 Y4.6247
G01 X10.4833 Y4.6367
G01 X10.4847 Y4.6441
G01 X10.4855 Y4.6515
G01 X10.4858 Y4.6590
G01 X10.4858 Y5.2115
G01 X10.4850 Y5.2215
G01 X10.4833 Y5.2313
G01 X10.4807 Y5.2409
G01 X10.4781 Y5.2480
G01 X10.4749 Y5.2548
G01 X10.4713 Y5.2613
G01 X10.4672 Y5.2676
G01 X10.4627 Y5.2736
G01 X10.4542 Y5.2827
G01 X10.4486 Y5.2877
G01 X10.4426 Y5.2922
G01 X10.4363 Y5.2963
G01 X10.4298 Y5.2999
G01 X10.4230 Y5.3031
G01 X10.4159 Y5.3057
G01 X10.4087 Y5.3077
G01 X10.4014 Y5.3093
G01 X10.3940 Y5.3103
G01 X10.3865 Y5.3108
G01 X8.7840 Y5.3108
G01 X8.7740 Y5.3103
G01 X8.7641 Y5.3088
G01 X8.7544 Y5.3064
G01 X8.7450 Y5.3031
G01 X8.7382 Y5.2999
G01 X8.7317 Y5.2963
G01 X8.7214 Y5.2893
G01 X8.7120 Y5.2810
G01 X8.7069 Y5.2755
G01 X8.7022 Y5.2696
G01 X8.6980 Y5.2635
G01 X8.6942 Y5.2570
G01 X8.6890 Y5.2456
G01 X8.6866 Y5.2386
G01 X8.6847 Y5.2313
G01 X8.6827 Y5.2190
G01 X8.6822 Y5.2090
G01 X8.6822 Y4.6565
G01 X8.6827 Y4.6490
G01 X8.6842 Y4.6391
G01 X8.6866 Y4.6294
G01 X8.6890 Y4.6224
G01 X8.6920 Y4.6155
G01 X8.6967 Y4.6067
G01 X8.7022 Y4.5984
G01 X8.7086 Y4.5906
G01 X8.7156 Y4.5836
G01 X8.7214 Y4.5787
G01 X8.7295 Y4.5730
G01 X8.7360 Y4.5692
G01 X8.7450 Y4.5649
G01 X8.7521 Y4.5623
G01 X8.7593 Y4.5603
G01 X8.7691 Y4.5583
G00 Z2.0000
G00 X8.7691 Y3.7583
G01 F100.00
G01 Z-0.1000
G01 F200.00
G01 X8.7765 Y3.7575
G01 X8.7840 Y3.7572
G01 X10.3840 Y3.7572
G01 X10.3940 Y3.7577
G01 X10.4039 Y3.7592
G01 X10.4136 Y3.7616
G01 X10.4230 Y3.7649
G01 X10.4342 Y3.7704
G01 X10.4406 Y3.7744
G01 X10.4466 Y3.7787
G01 X10.4560 Y3.7870
G01 X10.4611 Y3.7925
G01 X10.4658 Y3.7984
G01 X10.4700 Y3.8045
G01 X10.4738 Y3.8110
G01 X10.4771 Y3.8177
G01 X10.4798 Y3.8247
G01 X10.4833 Y3.8367
G01 X10.4847 Y3.8441
G01 X10.4855 Y3.8515
G01 X10.4858 Y3.8590
G01 X10.4858 Y4.4115
G01 X10.4850 Y4.4215
G01 X10.4833 Y4.4313
G01 X10.4807 Y4.4409
G01 X10.4781 Y4.4480
G01 X10.4749 Y4.4548
G01 X10.4713 Y4.4613
G01 X10.4672 Y4.4676
G01 X10.4627 Y4.4736
G01 X10.4542 Y4.4827
G01 X10.4486 Y4.4877
G01 X10.4426 Y4.4922
G01 X10.4363 Y4.4963
G01 X10.4298 Y4.4999
G01 X10.4230 Y4.5031
G01 X10.4159 Y4.5057
G01 X10.4087 Y4.5077
G01 X10.4014 Y4.5093
G01 X10.3940 Y4.5103
G01 X10.3865 Y4.5108
G01 X8.7840 Y4.5108
G01 X8.7740 Y4.5103
G01 X8.7641 Y4.5088
G01 X8.7544 Y4.5064
G01 X8.7450 Y4.5031
G01 X8.7382 Y4.4999
G01 X8.7317 Y4.4963
G01 X8.7214 Y4.4893
G01 X8.7120 Y4.4810
G01 X8.7069 Y4.4755
G01 X8.7022 Y4.4696
G01 X8.6980 Y4.4635
G01 X8.6942 Y4.4570
G01 X8.6890 Y4.4456
G01 X8.6866 Y4.4386
G01 X8.6847 Y4.4313
G01 X8.6827 Y4.4190
G01 X8.6822 Y4.4090
G01 X8.6822 Y3.8565
G01 X8.6827 Y3.8490
G01 X8.6842 Y3.8391
G01 X8.6866 Y3.8294
G01 X8.6890 Y3.8224
G01 X8.6920 Y3.8155
G01 X8.6967 Y3.8067
G01 X8.7022 Y3.7984
G01 X8.7086 Y3.7906
G01 X8.7156 Y3.7836
G01 X8.7214 Y3.7787
G01 X8.7295 Y3.7730
G01 X8.7360 Y3.7692
G01 X8.7427 Y3.7659
G01 X8.7521 Y3.7623
G01 X8.7593 Y3.7603
G01 X8.7691 Y3.7583
G00 Z2.0000
G00 X8.7691 Y2.9583
G01 F100.00
G01 Z-0.1000
G01 F200.00
G01 X8.7765 Y2.9575
G01 X8.7840 Y2.9572
G01 X10.3840 Y2.9572
G01 X10.3940 Y2.9577
G01 X10.4039 Y2.9592
G01 X10.4136 Y2.9616
G01 X10.4230 Y2.9649
G01 X10.4342 Y2.9704
G01 X10.4406 Y2.9744
G01 X10.4466 Y2.9787
G01 X10.4560 Y2.9870
G01 X10.4611 Y2.9925
G01 X10.4658 Y2.9984
G01 X10.4700 Y3.0045
G01 X10.4738 Y3.0110
G01 X10.4771 Y3.0177
G01 X10.4798 Y3.0247
G01 X10.4833 Y3.0367
G01 X10.4847 Y3.0441
G01 X10.4855 Y3.0515
G01 X10.4858 Y3.0590
G01 X10.4858 Y3.6115
G01 X10.4850 Y3.6215
G01 X10.4833 Y3.6313
G01 X10.4807 Y3.6409
G01 X10.4781 Y3.6480
G01 X10.4749 Y3.6548
G01 X10.4713 Y3.6613
G01 X10.4672 Y3.6676
G01 X10.4627 Y3.6736
G01 X10.4542 Y3.6827
G01 X10.4486 Y3.6877
G01 X10.4426 Y3.6922
G01 X10.4363 Y3.6963
G01 X10.4298 Y3.6999
G01 X10.4230 Y3.7031
G01 X10.4159 Y3.7057
G01 X10.4087 Y3.7077
G01 X10.4014 Y3.7093
G01 X10.3940 Y3.7103
G01 X10.3865 Y3.7108
G01 X8.7840 Y3.7108
G01 X8.7740 Y3.7103
G01 X8.7641 Y3.7088
G01 X8.7544 Y3.7064
G01 X8.7450 Y3.7031
G01 X8.7382 Y3.6999
G01 X8.7317 Y3.6963
G01 X8.7214 Y3.6893
G01 X8.7120 Y3.6810
G01 X8.7069 Y3.6755
G01 X8.7022 Y3.6696
G01 X8.6980 Y3.6635
G01 X8.6942 Y3.6570
G01 X8.6890 Y3.6456
G01 X8.6866 Y3.6386
G01 X8.6847 Y3.6313
G01 X8.6827 Y3.6190
G01 X8.6822 Y3.6090
G01 X8.6822 Y3.0565
G01 X8.6827 Y3.0490
G01 X8.6842 Y3.0391
G01 X8.6866 Y3.0294
G01 X8.6890 Y3.0224
G01 X8.6920 Y3.0155
G01 X8.6967 Y3.0067
G01 X8.7022 Y2.9984
G01 X8.7086 Y2.9906
G01 X8.7156 Y2.9836
G01 X8.7214 Y2.9787
G01 X8.7295 Y2.9730
G01 X8.7360 Y2.9692
G01 X8.7427 Y2.9659
G01 X8.7521 Y2.9623
G01 X8.7593 Y2.9603
G01 X8.7691 Y2.9583
G00 Z2.0000
G00 X8.7691 Y2.1583
G01 F100.00
G01 Z-0.1000
G01 F200.00
G01 X8.7765 Y2.1575
G01 X8.7840 Y2.1572
G01 X10.3840 Y2.1572
G01 X10.3940 Y2.1577
G01 X10.4039 Y2.1592
G01 X10.4136 Y2.1616
G01 X10.4230 Y2.1649
G01 X10.4342 Y2.1704
G01 X10.4406 Y2.1744
G01 X10.4466 Y2.1787
G01 X10.4560 Y2.1870
G01 X10.4611 Y2.1925
G01 X10.4658 Y2.1984
G01 X10.4700 Y2.2045
G01 X10.4738 Y2.2110
G01 X10.4771 Y2.2177
G01 X10.4798 Y2.2247
G01 X10.4833 Y2.2367
G01 X10.4847 Y2.2441
G01 X10.4855 Y2.2515
G01 X10.4858 Y2.2590
G01 X10.4858 Y2.8115
G01 X10.4850 Y2.8215
G01 X10.4833 Y2.8313
G01 X10.4807 Y2.8409
G01 X10.4781 Y2.8480
G01 X10.4749 Y2.8548
G01 X10.4713 Y2.8613
G01 X10.4672 Y2.8676
G01 X10.4627 Y2.8736
G01 X10.4542 Y2.8827
G01 X10.4486 Y2.8877
G01 X10.4426 Y2.8922
G01 X10.4363 Y2.8963
G01 X10.4298 Y2.8999
G01 X10.4230 Y2.9031
G01 X10.4159 Y2.9057
G01 X10.4087 Y2.9077
G01 X10.4014 Y2.9093
G01 X10.3940 Y2.9103
G01 X10.3865 Y2.9108
G01 X8.7840 Y2.9108
G01 X8.7740 Y2.9103
G01 X8.7641 Y2.9088
G01 X8.7544 Y2.9064
G01 X8.7450 Y2.9031
G01 X8.7382 Y2.8999
G01 X8.7317 Y2.8963
G01 X8.7214 Y2.8893
G01 X8.7120 Y2.8810
G01 X8.7069 Y2.8755
G01 X8.7022 Y2.8696
G01 X8.6980 Y2.8635
G01 X8.6942 Y2.8570
G01 X8.6890 Y2.8456
G01 X8.6866 Y2.8386
G01 X8.6847 Y2.8313
G01 X8.6827 Y2.8190
G01 X8.6822 Y2.8090
G01 X8.6822 Y2.2565
G01 X8.6827 Y2.2490
G01 X8.6842 Y2.2391
G01 X8.6866 Y2.2294
G01 X8.6890 Y2.2224
G01 X8.6920 Y2.2155
G01 X8.6967 Y2.2067
G01 X8.7022 Y2.1984
G01 X8.7086 Y2.1906
G01 X8.7156 Y2.1836
G01 X8.7214 Y2.1787
G01 X8.7295 Y2.1730
G01 X8.7360 Y2.1692
G01 X8.7427 Y2.1659
G01 X8.7521 Y2.1623
G01 X8.7593 Y2.1603
G01 X8.7691 Y2.1583
G00 Z2.0000
G00 X8.7541 Y2.0576
G01 F100.00
G01 Z-0.1000
G01 F200.00
G01 X8.7690 Y2.0560
G01 X8.7840 Y2.0554
G01 X10.3840 Y2.0554
G01 X10.3990 Y2.0560
G01 X10.4139 Y2.0576
G01 X10.4286 Y2.0603
G01 X10.4431 Y2.0642
G01 X10.4573 Y2.0690
G01 X10.4711 Y2.0749
G01 X10.4844 Y2.0819
G01 X10.4971 Y2.0897
G01 X10.5132 Y2.1016
G01 X10.5280 Y2.1150
G01 X10.5382 Y2.1260
G01 X10.5475 Y2.1377
G01 X10.5560 Y2.1501
G01 X10.5636 Y2.1630
G01 X10.5721 Y2.1811
G01 X10.5773 Y2.1951
G01 X10.5815 Y2.2095
G01 X10.5837 Y2.2193
G01 X10.5861 Y2.2341
G01 X10.5870 Y2.2440
G01 X10.5876 Y2.2590
G01 X10.5874 Y2.8190
G01 X10.5861 Y2.8339
G01 X10.5837 Y2.8487
G01 X10.5802 Y2.8633
G01 X10.5757 Y2.8776
G01 X10.5701 Y2.8915
G01 X10.5636 Y2.9050
G01 X10.5560 Y2.9179
G01 X10.5447 Y2.9340
G01 X10.5533 Y2.9459
G01 X10.5611 Y2.9586
G01 X10.5681 Y2.9719
G01 X10.5740 Y2.9857
G01 X10.5788 Y2.9999
G01 X10.5827 Y3.0144
G01 X10.5854 Y3.0291
G01 X10.5870 Y3.0440
G01 X10.5876 Y3.0590
G01 X10.5875 Y3.6140
G01 X10.5866 Y3.6290
G01 X10.5846 Y3.6438
G01 X10.5815 Y3.6585
G01 X10.5757 Y3.6776
G01 X10.5701 Y3.6915
G01 X10.5636 Y3.7050
G01 X10.5560 Y3.7179
G01 X10.5447 Y3.7340
G01 X10.5533 Y3.7459
G01 X10.5611 Y3.7586
G01 X10.5681 Y3.7719
G01 X10.5740 Y3.7857
G01 X10.5788 Y3.7999
G01 X10.5827 Y3.8144
G01 X10.5854 Y3.8291
G01 X10.5870 Y3.8440
G01 X10.5876 Y3.8590
G01 X10.5875 Y4.4140
G01 X10.5866 Y4.4290
G01 X10.5846 Y4.4438
G01 X10.5815 Y4.4585
G01 X10.5757 Y4.4776
G01 X10.5701 Y4.4915
G01 X10.5636 Y4.5050
G01 X10.5560 Y4.5179
G01 X10.5447 Y4.5340
G01 X10.5533 Y4.5459
G01 X10.5611 Y4.5586
G01 X10.5681 Y4.5719
G01 X10.5740 Y4.5857
G01 X10.5788 Y4.5999
G01 X10.5827 Y4.6144
G01 X10.5854 Y4.6291
G01 X10.5870 Y4.6440
G01 X10.5876 Y4.6590
G01 X10.5876 Y5.2090
G01 X10.5870 Y5.2240
G01 X10.5854 Y5.2389
G01 X10.5827 Y5.2536
G01 X10.5773 Y5.2729
G01 X10.5701 Y5.2915
G01 X10.5636 Y5.3050
G01 X10.5560 Y5.3179
G01 X10.5447 Y5.3340
G01 X10.5533 Y5.3459
G01 X10.5611 Y5.3586
G01 X10.5681 Y5.3719
G01 X10.5740 Y5.3857
G01 X10.5788 Y5.3999
G01 X10.5827 Y5.4144
G01 X10.5854 Y5.4291
G01 X10.5870 Y5.4440
G01 X10.5876 Y5.4590
G01 X10.5876 Y6.0090
G01 X10.5870 Y6.0240
G01 X10.5854 Y6.0389
G01 X10.5827 Y6.0536
G01 X10.5773 Y6.0729
G01 X10.5701 Y6.0915
G01 X10.5636 Y6.1050
G01 X10.5560 Y6.1179
G01 X10.5447 Y6.1340
G01 X10.5533 Y6.1459
G01 X10.5611 Y6.1586
G01 X10.5681 Y6.1719
G01 X10.5740 Y6.1857
G01 X10.5788 Y6.1999
G01 X10.5827 Y6.2144
G01 X10.5854 Y6.2291
G01 X10.5870 Y6.2440
G01 X10.5876 Y6.2590
G01 X10.5876 Y6.8090
G01 X10.5870 Y6.8240
G01 X10.5854 Y6.8389
G01 X10.5827 Y6.8536
G01 X10.5773 Y6.8729
G01 X10.5701 Y6.8915
G01 X10.5636 Y6.9050
G01 X10.5560 Y6.9179
G01 X10.5447 Y6.9340
G01 X10.5533 Y6.9459
G01 X10.5611 Y6.9586
G01 X10.5681 Y6.9719
G01 X10.5740 Y6.9857
G01 X10.5788 Y6.9999
G01 X10.5827 Y7.0144
G01 X10.5854 Y7.0291
G01 X10.5870 Y7.0440
G01 X10.5876 Y7.0590
G01 X10.5876 Y7.6090
G01 X10.5870 Y7.6240
G01 X10.5854 Y7.6389
G01 X10.5827 Y7.6536
G01 X10.5773 Y7.6729
G01 X10.5701 Y7.6915
G01 X10.5636 Y7.7050
G01 X10.5560 Y7.7179
G01 X10.5447 Y7.7340
G01 X10.5533 Y7.7459
G01 X10.5611 Y7.7586
G01 X10.5681 Y7.7719
G01 X10.5740 Y7.7857
G01 X10.5788 Y7.7999
G01 X10.5827 Y7.8144
G01 X10.5854 Y7.8291
G01 X10.5870 Y7.8440
G01 X10.5876 Y7.8590
G01 X10.5875 Y8.4140
G01 X10.5866 Y8.4290
G01 X10.5846 Y8.4438
G01 X10.5815 Y8.4585
G01 X10.5757 Y8.4776
G01 X10.5701 Y8.4915
G01 X10.5611 Y8.5094
G01 X10.5533 Y8.5221
G01 X10.5414 Y8.5382
G01 X10.5315 Y8.5494
G01 X10.5207 Y8.5599
G01 X10.5093 Y8.5695
G01 X10.4929 Y8.5810
G01 X10.4800 Y8.5886
G01 X10.4619 Y8.5971
G01 X10.4479 Y8.6023
G01 X10.4335 Y8.6065
G01 X10.4237 Y8.6087
G01 X10.4089 Y8.6111
G01 X10.3990 Y8.6120
G01 X10.3840 Y8.6126
G01 X8.7840 Y8.6126
G01 X8.7690 Y8.6120
G01 X8.7492 Y8.6096
G01 X8.7345 Y8.6065
G01 X8.7201 Y8.6023
G01 X8.7061 Y8.5971
G01 X8.6925 Y8.5909
G01 X8.6793 Y8.5836
G01 X8.6668 Y8.5755
G01 X8.6548 Y8.5664
G01 X8.6436 Y8.5565
G01 X8.6331 Y8.5457
G01 X8.6235 Y8.5343
G01 X8.6120 Y8.5179
G01 X8.6021 Y8.5005
G01 X8.5959 Y8.4869
G01 X8.5907 Y8.4729
G01 X8.5865 Y8.4585
G01 X8.5843 Y8.4487
G01 X8.5819 Y8.4339
G01 X8.5810 Y8.4240
G01 X8.5804 Y8.4090
G01 X8.5806 Y7.8490
G01 X8.5819 Y7.8341
G01 X8.5843 Y7.8193
G01 X8.5878 Y7.8047
G01 X8.5923 Y7.7904
G01 X8.5979 Y7.7765
G01 X8.6044 Y7.7630
G01 X8.6120 Y7.7501
G01 X8.6233 Y7.7340
G01 X8.6147 Y7.7221
G01 X8.6069 Y7.7094
G01 X8.5999 Y7.6961
G01 X8.5940 Y7.6823
G01 X8.5892 Y7.6681
G01 X8.5853 Y7.6536
G01 X8.5826 Y7.6389
G01 X8.5810 Y7.6240
G01 X8.5804 Y7.6090
G01 X8.5805 Y7.0540
G01 X8.5814 Y7.0390
G01 X8.5843 Y7.0193
G01 X8.5878 Y7.0047
G01 X8.5923 Y6.9904
G01 X8.5979 Y6.9765
G01 X8.6044 Y6.9630
G01 X8.6120 Y6.9501
G01 X8.6233 Y6.9340
G01 X8.6147 Y6.9221
G01 X8.6069 Y6.9094
G01 X8.5999 Y6.8961
G01 X8.5940 Y6.8823
G01 X8.5892 Y6.8681
G01 X8.5853 Y6.8536
G01 X8.5826 Y6.8389
G01 X8.5810 Y6.8240
G01 X8.5804 Y6.8090
G01 X8.5805 Y6.2540
G01 X8.5814 Y6.2390
G01 X8.5843 Y6.2193
G01 X8.5878 Y6.2047
G01 X8.5923 Y6.1904
G01 X8.5979 Y6.1765
G01 X8.6044 Y6.1630
G01 X8.6120 Y6.1501
G01 X8.6233 Y6.1340
G01 X8.6147 Y6.1221
G01 X8.6069 Y6.1094
G01 X8.5999 Y6.0961
G01 X8.5940 Y6.0823
G01 X8.5892 Y6.0681
G01 X8.5853 Y6.0536
G01 X8.5826 Y6.0389
G01 X8.5810 Y6.0240
G01 X8.5804 Y6.0090
G01 X8.5804 Y5.4590
G01 X8.5810 Y5.4440
G01 X8.5826 Y5.4291
G01 X8.5865 Y5.4095
G01 X8.5907 Y5.3951
G01 X8.5959 Y5.3811
G01 X8.6044 Y5.3630
G01 X8.6120 Y5.3501
G01 X8.6233 Y5.3340
G01 X8.6147 Y5.3221
G01 X8.6069 Y5.3094
G01 X8.5999 Y5.2961
G01 X8.5940 Y5.2823
G01 X8.5892 Y5.2681
G01 X8.5853 Y5.2536
G01 X8.5826 Y5.2389
G01 X8.5810 Y5.2240
G01 X8.5804 Y5.2090
G01 X8.5804 Y4.6590
G01 X8.5810 Y4.6440
G01 X8.5826 Y4.6291
G01 X8.5865 Y4.6095
G01 X8.5907 Y4.5951
G01 X8.5959 Y4.5811
G01 X8.6044 Y4.5630
G01 X8.6120 Y4.5501
G01 X8.6233 Y4.5340
G01 X8.6147 Y4.5221
G01 X8.6069 Y4.5094
G01 X8.5999 Y4.4961
G01 X8.5940 Y4.4823
G01 X8.5892 Y4.4681
G01 X8.5853 Y4.4536
G01 X8.5826 Y4.4389
G01 X8.5810 Y4.4240
G01 X8.5804 Y4.4090
G01 X8.5804 Y3.8590
G01 X8.5810 Y3.8440
G01 X8.5826 Y3.8291
G01 X8.5865 Y3.8095
G01 X8.5907 Y3.7951
G01 X8.5959 Y3.7811
G01 X8.6044 Y3.7630
G01 X8.6120 Y3.7501
G01 X8.6233 Y3.7340
G01 X8.6147 Y3.7221
G01 X8.6069 Y3.7094
G01 X8.5999 Y3.6961
G01 X8.5940 Y3.6823
G01 X8.5892 Y3.6681
G01 X8.5853 Y3.6536
G01 X8.5826 Y3.6389
G01 X8.5810 Y3.6240
G01 X8.5804 Y3.6090
G01 X8.5804 Y3.0590
G01 X8.5810 Y3.0440
G01 X8.5826 Y3.0291
G01 X8.5865 Y3.0095
G01 X8.5907 Y2.9951
G01 X8.5959 Y2.9811
G01 X8.6044 Y2.9630
G01 X8.6120 Y2.9501
G01 X8.6233 Y2.9340
G01 X8.6147 Y2.9221
G01 X8.6069 Y2.9094
G01 X8.5999 Y2.8961
G01 X8.5940 Y2.8823
G01 X8.5892 Y2.8681
G01 X8.5853 Y2.8536
G01 X8.5826 Y2.8389
G01 X8.5810 Y2.8240
G01 X8.5804 Y2.8090
G01 X8.5805 Y2.2540
G01 X8.5819 Y2.2341
G01 X8.5853 Y2.2144
G01 X8.5907 Y2.1951
G01 X8.5959 Y2.1811
G01 X8.6044 Y2.1630
G01 X8.6120 Y2.1501
G01 X8.6205 Y2.1377
G01 X8.6331 Y2.1223
G01 X8.6473 Y2.1081
G01 X8.6587 Y2.0985
G01 X8.6751 Y2.0870
G01 X8.6880 Y2.0794
G01 X8.7061 Y2.0709
G01 X8.7201 Y2.0657
G01 X8.7345 Y2.0615
G01 X8.7541 Y2.0576
G00 Z2.0000
G00 X7.8441 Y0.1833
G01 F100.00
G01 Z-0.1000
G01 F200.00
G01 X7.8515 Y0.1825
G01 X7.8590 Y0.1822
G01 X8.4090 Y0.1822
G01 X8.4190 Y0.1827
G01 X8.4264 Y0.1837
G01 X8.4337 Y0.1853
G01 X8.4409 Y0.1873
G01 X8.4480 Y0.1899
G01 X8.4548 Y0.1931
G01 X8.4613 Y0.1967
G01 X8.4676 Y0.2008
G01 X8.4736 Y0.2053
G01 X8.4792 Y0.2103
G01 X8.4844 Y0.2156
G01 X8.4922 Y0.2254
G01 X8.4963 Y0.2317
G01 X8.4999 Y0.2382
G01 X8.5031 Y0.2450
G01 X8.5057 Y0.2521
G01 X8.5077 Y0.2593
G01 X8.5097 Y0.2691
G01 X8.5105 Y0.2765
G01 X8.5108 Y0.2840
G01 X8.5107 Y1.8890
G01 X8.5100 Y1.8965
G01 X8.5088 Y1.9039
G01 X8.5071 Y1.9112
G01 X8.5048 Y1.9183
G01 X8.5021 Y1.9253
G01 X8.4988 Y1.9320
G01 X8.4950 Y1.9385
G01 X8.4908 Y1.9446
G01 X8.4844 Y1.9524
G01 X8.4792 Y1.9577
G01 X8.4736 Y1.9627
G01 X8.4676 Y1.9672
G01 X8.4613 Y1.9713
G01 X8.4548 Y1.9749
G01 X8.4480 Y1.9781
G01 X8.4409 Y1.9807
G01 X8.4337 Y1.9827
G01 X8.4264 Y1.9843
G01 X8.4165 Y1.9855
G01 X8.4090 Y1.9858
G01 X7.8590 Y1.9858
G01 X7.8490 Y1.9853
G01 X7.8416 Y1.9843
G01 X7.8343 Y1.9827
G01 X7.8271 Y1.9807
G01 X7.8200 Y1.9781
G01 X7.8088 Y1.9726
G01 X7.8024 Y1.9686
G01 X7.7964 Y1.9643
G01 X7.7906 Y1.9594
G01 X7.7853 Y1.9542
G01 X7.7803 Y1.9486
G01 X7.7758 Y1.9426
G01 X7.7717 Y1.9363
G01 X7.7681 Y1.9298
G01 X7.7649 Y1.9230
G01 X7.7623 Y1.9159
G01 X7.7603 Y1.9087
G01 X7.7587 Y1.9014
G01 X7.7575 Y1.8915
G01 X7.7572 Y1.8840
G01 X7.7573 Y0.2790
G01 X7.7583 Y0.2691
G01 X7.7597 Y0.2617
G01 X7.7623 Y0.2521
G01 X7.7649 Y0.2450
G01 X7.7681 Y0.2382
G01 X7.7730 Y0.2295
G01 X7.7772 Y0.2234
G01 X7.7836 Y0.2156
G01 X7.7888 Y0.2103
G01 X7.7964 Y0.2037
G01 X7.8024 Y0.1994
G01 X7.8110 Y0.1942
G01 X7.8177 Y0.1909
G01 X7.8271 Y0.1873
G01 X7.8343 Y0.1853
G01 X7.8441 Y0.1833
G00 Z2.0000
G00 X7.0465 Y0.1830
G01 F100.00
G01 Z-0.1000
G01 F200.00
G01 X7.0590 Y0.1822
G01 X7.6090 Y0.1822
G01 X7.6190 Y0.1827
G01 X7.6264 Y0.1837
G01 X7.6337 Y0.1853
G01 X7.6409 Y0.1873
G01 X7.6480 Y0.1899
G01 X7.6592 Y0.1954
G01 X7.6656 Y0.1994
G01 X7.6716 Y0.2037
G01 X7.6774 Y0.2086
G01 X7.6827 Y0.2138
G01 X7.6877 Y0.2194
G01 X7.6922 Y0.2254
G01 X7.6963 Y0.2317
G01 X7.6999 Y0.2382
G01 X7.7031 Y0.2450
G01 X7.7057 Y0.2521
G01 X7.7083 Y0.2617
G01 X7.7097 Y0.2691
G01 X7.7105 Y0.2765
G01 X7.7108 Y0.2840
G01 X7.7107 Y1.8890
G01 X7.7100 Y1.8965
G01 X7.7088 Y1.9039
G01 X7.7071 Y1.9112
G01 X7.7048 Y1.9183
G01 X7.7021 Y1.9253
G01 X7.6988 Y1.9320
G01 X7.6950 Y1.9385
G01 X7.6908 Y1.9446
G01 X7.6861 Y1.9505
G01 X7.6810 Y1.9560
G01 X7.6736 Y1.9627
G01 X7.6676 Y1.9672
G01 X7.6613 Y1.9713
G01 X7.6548 Y1.9749
G01 X7.6480 Y1.9781
G01 X7.6409 Y1.9807
G01 X7.6313 Y1.9833
G01 X7.6239 Y1.9847
G01 X7.6165 Y1.9855
G01 X7.6090 Y1.9858
G01 X7.0590 Y1.9858
G01 X7.0490 Y1.9853
G01 X7.0416 Y1.9843
G01 X7.0343 Y1.9827
G01 X7.0271 Y1.9807
G01 X7.0200 Y1.9781
G01 X7.0088 Y1.9726
G01 X7.0024 Y1.9686
G01 X6.9964 Y1.9643
G01 X6.9906 Y1.9594
G01 X6.9853 Y1.9542
G01 X6.9803 Y1.9486
G01 X6.9758 Y1.9426
G01 X6.9717 Y1.9363
G01 X6.9681 Y1.9298
G01 X6.9649 Y1.9230
G01 X6.9623 Y1.9159
G01 X6.9603 Y1.9087
G01 X6.9587 Y1.9014
G01 X6.9575 Y1.8915
G01 X6.9572 Y1.8840
G01 X6.9573 Y0.2790
G01 X6.9583 Y0.2691
G01 X6.9597 Y0.2617
G01 X6.9623 Y0.2521
G01 X6.9649 Y0.2450
G01 X6.9681 Y0.2382
G01 X6.9730 Y0.2295
G01 X6.9772 Y0.2234
G01 X6.9836 Y0.2156
G01 X6.9906 Y0.2086
G01 X6.9984 Y0.2022
G01 X7.0045 Y0.1980
G01 X7.0132 Y0.1931
G01 X7.0200 Y0.1899
G01 X7.0294 Y0.1866
G01 X7.0367 Y0.1847
G01 X7.0465 Y0.1830
G00 Z2.0000
G00 X6.2465 Y0.1830
G01 F100.00
G01 Z-0.1000
G01 F200.00
G01 X6.2590 Y0.1822
G01 X6.8090 Y0.1822
G01 X6.8190 Y0.1827
G01 X6.8264 Y0.1837
G01 X6.8337 Y0.1853
G01 X6.8409 Y0.1873
G01 X6.8480 Y0.1899
G01 X6.8592 Y0.1954
G01 X6.8656 Y0.1994
G01 X6.8716 Y0.2037
G01 X6.8774 Y0.2086
G01 X6.8827 Y0.2138
G01 X6.8877 Y0.2194
G01 X6.8922 Y0.2254
G01 X6.8963 Y0.2317
G01 X6.8999 Y0.2382
G01 X6.9031 Y0.2450
G01 X6.9057 Y0.2521
G01 X6.9083 Y0.2617
G01 X6.9097 Y0.2691
G01 X6.9105 Y0.2765
G01 X6.9108 Y0.2840
G01 X6.9107 Y1.8890
G01 X6.9100 Y1.8965
G01 X6.9088 Y1.9039
G01 X6.9071 Y1.9112
G01 X6.9048 Y1.9183
G01 X6.9021 Y1.9253
G01 X6.8988 Y1.9320
G01 X6.8950 Y1.9385
G01 X6.8908 Y1.9446
G01 X6.8861 Y1.9505
G01 X6.8810 Y1.9560
G01 X6.8736 Y1.9627
G01 X6.8676 Y1.9672
G01 X6.8613 Y1.9713
G01 X6.8548 Y1.9749
G01 X6.8480 Y1.9781
G01 X6.8409 Y1.9807
G01 X6.8313 Y1.9833
G01 X6.8239 Y1.9847
G01 X6.8165 Y1.9855
G01 X6.8090 Y1.9858
G01 X6.2590 Y1.9858
G01 X6.2490 Y1.9853
G01 X6.2416 Y1.9843
G01 X6.2343 Y1.9827
G01 X6.2271 Y1.9807
G01 X6.2200 Y1.9781
G01 X6.2088 Y1.9726
G01 X6.2024 Y1.9686
G01 X6.1964 Y1.9643
G01 X6.1906 Y1.9594
G01 X6.1853 Y1.9542
G01 X6.1803 Y1.9486
G01 X6.1758 Y1.9426
G01 X6.1717 Y1.9363
G01 X6.1681 Y1.9298
G01 X6.1649 Y1.9230
G01 X6.1623 Y1.9159
G01 X6.1603 Y1.9087
G01 X6.1587 Y1.9014
G01 X6.1575 Y1.8915
G01 X6.1572 Y1.8840
G01 X6.1573 Y0.2790
G01 X6.1583 Y0.2691
G01 X6.1597 Y0.2617
G01 X6.1623 Y0.2521
G01 X6.1649 Y0.2450
G01 X6.1681 Y0.2382
G01 X6.1730 Y0.2295
G01 X6.1772 Y0.2234
G01 X6.1836 Y0.2156
G01 X6.1906 Y0.2086
G01 X6.1964 Y0.2037
G01 X6.2024 Y0.1994
G01 X6.2110 Y0.1942
G01 X6.2200 Y0.1899
G01 X6.2294 Y0.1866
G01 X6.2367 Y0.1847
G01 X6.2465 Y0.1830
G00 Z2.0000
G00 X5.4465 Y0.1830
G01 F100.00
G01 Z-0.1000
G01 F200.00
G01 X5.4590 Y0.1822
G01 X6.0090 Y0.1822
G01 X6.0190 Y0.1827
G01 X6.0264 Y0.1837
G01 X6.0337 Y0.1853
G01 X6.0409 Y0.1873
G01 X6.0480 Y0.1899
G01 X6.0592 Y0.1954
G01 X6.0656 Y0.1994
G01 X6.0716 Y0.2037
G01 X6.0774 Y0.2086
G01 X6.0827 Y0.2138
G01 X6.0877 Y0.2194
G01 X6.0922 Y0.2254
G01 X6.0963 Y0.2317
G01 X6.0999 Y0.2382
G01 X6.1031 Y0.2450
G01 X6.1057 Y0.2521
G01 X6.1083 Y0.2617
G01 X6.1097 Y0.2691
G01 X6.1105 Y0.2765
G01 X6.1108 Y0.2840
G01 X6.1107 Y1.8890
G01 X6.1100 Y1.8965
G01 X6.1088 Y1.9039
G01 X6.1071 Y1.9112
G01 X6.1048 Y1.9183
G01 X6.1021 Y1.9253
G01 X6.0988 Y1.9320
G01 X6.0950 Y1.9385
G01 X6.0908 Y1.9446
G01 X6.0861 Y1.9505
G01 X6.0810 Y1.9560
G01 X6.0736 Y1.9627
G01 X6.0676 Y1.9672
G01 X6.0613 Y1.9713
G01 X6.0548 Y1.9749
G01 X6.0480 Y1.9781
G01 X6.0409 Y1.9807
G01 X6.0313 Y1.9833
G01 X6.0239 Y1.9847
G01 X6.0165 Y1.9855
G01 X6.0090 Y1.9858
G01 X5.4590 Y1.9858
G01 X5.4490 Y1.9853
G01 X5.4416 Y1.9843
G01 X5.4343 Y1.9827
G01 X5.4271 Y1.9807
G01 X5.4200 Y1.9781
G01 X5.4088 Y1.9726
G01 X5.4024 Y1.9686
G01 X5.3964 Y1.9643
G01 X5.3906 Y1.9594
G01 X5.3853 Y1.9542
G01 X5.3803 Y1.9486
G01 X5.3758 Y1.9426
G01 X5.3717 Y1.9363
G01 X5.3681 Y1.9298
G01 X5.3649 Y1.9230
G01 X5.3623 Y1.9159
G01 X5.3603 Y1.9087
G01 X5.3587 Y1.9014
G01 X5.3575 Y1.8915
G01 X5.3572 Y1.8840
G01 X5.3573 Y0.2790
G01 X5.3583 Y0.2691
G01 X5.3597 Y0.2617
G01 X5.3623 Y0.2521
G01 X5.3649 Y0.2450
G01 X5.3681 Y0.2382
G01 X5.3730 Y0.2295
G01 X5.3772 Y0.2234
G01 X5.3836 Y0.2156
G01 X5.3906 Y0.2086
G01 X5.3984 Y0.2022
G01 X5.4045 Y0.1980
G01 X5.4132 Y0.1931
G01 X5.4200 Y0.1899
G01 X5.4294 Y0.1866
G01 X5.4367 Y0.1847
G01 X5.4465 Y0.1830
G00 Z2.0000
G00 X4.6465 Y0.1830
G01 F100.00
G01 Z-0.1000
G01 F200.00
G01 X4.6590 Y0.1822
G01 X5.2090 Y0.1822
G01 X5.2190 Y0.1827
G01 X5.2264 Y0.1837
G01 X5.2337 Y0.1853
G01 X5.2409 Y0.1873
G01 X5.2480 Y0.1899
G01 X5.2592 Y0.1954
G01 X5.2656 Y0.1994
G01 X5.2716 Y0.2037
G01 X5.2774 Y0.2086
G01 X5.2827 Y0.2138
G01 X5.2877 Y0.2194
G01 X5.2922 Y0.2254
G01 X5.2963 Y0.2317
G01 X5.2999 Y0.2382
G01 X5.3031 Y0.2450
G01 X5.3057 Y0.2521
G01 X5.3083 Y0.2617
G01 X5.3097 Y0.2691
G01 X5.3105 Y0.2765
G01 X5.3108 Y0.2840
G01 X5.3107 Y1.8890
G01 X5.3100 Y1.8965
G01 X5.3088 Y1.9039
G01 X5.3071 Y1.9112
G01 X5.3048 Y1.9183
G01 X5.3021 Y1.9253
G01 X5.2988 Y1.9320
G01 X5.2950 Y1.9385
G01 X5.2908 Y1.9446
G01 X5.2861 Y1.9505
G01 X5.2810 Y1.9560
G01 X5.2736 Y1.9627
G01 X5.2676 Y1.9672
G01 X5.2613 Y1.9713
G01 X5.2548 Y1.9749
G01 X5.2480 Y1.9781
G01 X5.2409 Y1.9807
G01 X5.2313 Y1.9833
G01 X5.2239 Y1.9847
G01 X5.2165 Y1.9855
G01 X5.2090 Y1.9858
G01 X4.6590 Y1.9858
G01 X4.6490 Y1.9853
G01 X4.6416 Y1.9843
G01 X4.6343 Y1.9827
G01 X4.6271 Y1.9807
G01 X4.6200 Y1.9781
G01 X4.6088 Y1.9726
G01 X4.6024 Y1.9686
G01 X4.5964 Y1.9643
G01 X4.5906 Y1.9594
G01 X4.5853 Y1.9542
G01 X4.5803 Y1.9486
G01 X4.5758 Y1.9426
G01 X4.5717 Y1.9363
G01 X4.5681 Y1.9298
G01 X4.5649 Y1.9230
G01 X4.5623 Y1.9159
G01 X4.5603 Y1.9087
G01 X4.5587 Y1.9014
G01 X4.5575 Y1.8915
G01 X4.5572 Y1.8840
G01 X4.5573 Y0.2790
G01 X4.5583 Y0.2691
G01 X4.5597 Y0.2617
G01 X4.5623 Y0.2521
G01 X4.5649 Y0.2450
G01 X4.5681 Y0.2382
G01 X4.5730 Y0.2295
G01 X4.5772 Y0.2234
G01 X4.5836 Y0.2156
G01 X4.5906 Y0.2086
G01 X4.5964 Y0.2037
G01 X4.6024 Y0.1994
G01 X4.6110 Y0.1942
G01 X4.6200 Y0.1899
G01 X4.6294 Y0.1866
G01 X4.6367 Y0.1847
G01 X4.6465 Y0.1830
G00 Z2.0000
G00 X3.8465 Y0.1830
G01 F100.00
G01 Z-0.1000
G01 F200.00
G01 X3.8590 Y0.1822
G01 X4.4090 Y0.1822
G01 X4.4190 Y0.1827
G01 X4.4264 Y0.1837
G01 X4.4337 Y0.1853
G01 X4.4409 Y0.1873
G01 X4.4480 Y0.1899
G01 X4.4592 Y0.1954
G01 X4.4656 Y0.1994
G01 X4.4716 Y0.2037
G01 X4.4774 Y0.2086
G01 X4.4827 Y0.2138
G01 X4.4877 Y0.2194
G01 X4.4922 Y0.2254
G01 X4.4963 Y0.2317
G01 X4.4999 Y0.2382
G01 X4.5031 Y0.2450
G01 X4.5057 Y0.2521
G01 X4.5083 Y0.2617
G01 X4.5097 Y0.2691
G01 X4.5105 Y0.2765
G01 X4.5108 Y0.2840
G01 X4.5107 Y1.8890
G01 X4.5100 Y1.8965
G01 X4.5088 Y1.9039
G01 X4.5071 Y1.9112
G01 X4.5048 Y1.9183
G01 X4.5021 Y1.9253
G01 X4.4988 Y1.9320
G01 X4.4950 Y1.9385
G01 X4.4908 Y1.9446
G01 X4.4861 Y1.9505
G01 X4.4810 Y1.9560
G01 X4.4736 Y1.9627
G01 X4.4676 Y1.9672
G01 X4.4613 Y1.9713
G01 X4.4548 Y1.9749
G01 X4.4480 Y1.9781
G01 X4.4409 Y1.9807
G01 X4.4313 Y1.9833
G01 X4.4239 Y1.9847
G01 X4.4165 Y1.9855
G01 X4.4090 Y1.9858
G01 X3.8590 Y1.9858
G01 X3.8490 Y1.9853
G01 X3.8416 Y1.9843
G01 X3.8343 Y1.9827
G01 X3.8271 Y1.9807
G01 X3.8200 Y1.9781
G01 X3.8088 Y1.9726
G01 X3.8024 Y1.9686
G01 X3.7964 Y1.9643
G01 X3.7906 Y1.9594
G01 X3.7853 Y1.9542
G01 X3.7803 Y1.9486
G01 X3.7758 Y1.9426
G01 X3.7717 Y1.9363
G01 X3.7681 Y1.9298
G01 X3.7649 Y1.9230
G01 X3.7623 Y1.9159
G01 X3.7603 Y1.9087
G01 X3.7587 Y1.9014
G01 X3.7575 Y1.8915
G01 X3.7572 Y1.8840
G01 X3.7573 Y0.2790
G01 X3.7583 Y0.2691
G01 X3.7597 Y0.2617
G01 X3.7623 Y0.2521
G01 X3.7649 Y0.2450
G01 X3.7692 Y0.2360
G01 X3.7744 Y0.2274
G01 X3.7787 Y0.2214
G01 X3.7853 Y0.2138
G01 X3.7925 Y0.2069
G01 X3.7984 Y0.2022
G01 X3.8067 Y0.1967
G01 X3.8132 Y0.1931
G01 X3.8224 Y0.1890
G01 X3.8294 Y0.1866
G01 X3.8391 Y0.1842
G01 X3.8465 Y0.1830
G00 Z2.0000
G00 X3.8341 Y0.0819
G01 F100.00
G01 Z-0.1000
G01 F200.00
G01 X3.8490 Y0.0806
G01 X3.8590 Y0.0804
G01 X4.4190 Y0.0806
G01 X4.4339 Y0.0819
G01 X4.4487 Y0.0843
G01 X4.4633 Y0.0878
G01 X4.4776 Y0.0923
G01 X4.4915 Y0.0979
G01 X4.5050 Y0.1044
G01 X4.5179 Y0.1120
G01 X4.5340 Y0.1233
G01 X4.5501 Y0.1120
G01 X4.5630 Y0.1044
G01 X4.5811 Y0.0959
G01 X4.5951 Y0.0907
G01 X4.6095 Y0.0865
G01 X4.6291 Y0.0826
G01 X4.6440 Y0.0810
G01 X4.6590 Y0.0804
G01 X5.2090 Y0.0804
G01 X5.2240 Y0.0810
G01 X5.2389 Y0.0826
G01 X5.2536 Y0.0853
G01 X5.2681 Y0.0892
G01 X5.2823 Y0.0940
G01 X5.2961 Y0.0999
G01 X5.3094 Y0.1069
G01 X5.3221 Y0.1147
G01 X5.3340 Y0.1233
G01 X5.3501 Y0.1120
G01 X5.3630 Y0.1044
G01 X5.3811 Y0.0959
G01 X5.3951 Y0.0907
G01 X5.4095 Y0.0865
G01 X5.4291 Y0.0826
G01 X5.4440 Y0.0810
G01 X5.4590 Y0.0804
G01 X6.0090 Y0.0804
G01 X6.0240 Y0.0810
G01 X6.0389 Y0.0826
G01 X6.0536 Y0.0853
G01 X6.0681 Y0.0892
G01 X6.0823 Y0.0940
G01 X6.0961 Y0.0999
G01 X6.1094 Y0.1069
G01 X6.1221 Y0.1147
G01 X6.1340 Y0.1233
G01 X6.1501 Y0.1120
G01 X6.1630 Y0.1044
G01 X6.1765 Y0.0979
G01 X6.1904 Y0.0923
G01 X6.2095 Y0.0865
G01 X6.2242 Y0.0834
G01 X6.2390 Y0.0814
G01 X6.2540 Y0.0805
G01 X6.8090 Y0.0804
G01 X6.8240 Y0.0810
G01 X6.8389 Y0.0826
G01 X6.8536 Y0.0853
G01 X6.8681 Y0.0892
G01 X6.8823 Y0.0940
G01 X6.8961 Y0.0999
G01 X6.9094 Y0.1069
G01 X6.9221 Y0.1147
G01 X6.9340 Y0.1233
G01 X6.9501 Y0.1120
G01 X6.9630 Y0.1044
G01 X6.9765 Y0.0979
G01 X6.9904 Y0.0923
G01 X7.0095 Y0.0865
G01 X7.0242 Y0.0834
G01 X7.0390 Y0.0814
G01 X7.0540 Y0.0805
G01 X7.6090 Y0.0804
G01 X7.6240 Y0.0810
G01 X7.6389 Y0.0826
G01 X7.6536 Y0.0853
G01 X7.6681 Y0.0892
G01 X7.6823 Y0.0940
G01 X7.6961 Y0.0999
G01 X7.7094 Y0.1069
G01 X7.7221 Y0.1147
G01 X7.7340 Y0.1233
G01 X7.7501 Y0.1120
G01 X7.7630 Y0.1044
G01 X7.7765 Y0.0979
G01 X7.7904 Y0.0923
G01 X7.8047 Y0.0878
G01 X7.8193 Y0.0843
G01 X7.8341 Y0.0819
G01 X7.8490 Y0.0806
G01 X8.4140 Y0.0805
G01 X8.4339 Y0.0819
G01 X8.4487 Y0.0843
G01 X8.4633 Y0.0878
G01 X8.4823 Y0.0940
G01 X8.4915 Y0.0979
G01 X8.5050 Y0.1044
G01 X8.5179 Y0.1120
G01 X8.5303 Y0.1205
G01 X8.5420 Y0.1298
G01 X8.5530 Y0.1400
G01 X8.5632 Y0.1510
G01 X8.5725 Y0.1627
G01 X8.5783 Y0.1709
G01 X8.5861 Y0.1836
G01 X8.5931 Y0.1969
G01 X8.5990 Y0.2107
G01 X8.6038 Y0.2249
G01 X8.6077 Y0.2394
G01 X8.6104 Y0.2541
G01 X8.6120 Y0.2690
G01 X8.6126 Y0.2840
G01 X8.6126 Y1.8840
G01 X8.6116 Y1.9040
G01 X8.6087 Y1.9237
G01 X8.6038 Y1.9431
G01 X8.5990 Y1.9573
G01 X8.5931 Y1.9711
G01 X8.5861 Y1.9844
G01 X8.5783 Y1.9971
G01 X8.5695 Y2.0093
G01 X8.5599 Y2.0207
G01 X8.5494 Y2.0315
G01 X8.5382 Y2.0414
G01 X8.5262 Y2.0505
G01 X8.5137 Y2.0586
G01 X8.5005 Y2.0659
G01 X8.4869 Y2.0721
G01 X8.4729 Y2.0773
G01 X8.4585 Y2.0815
G01 X8.4438 Y2.0846
G01 X8.4290 Y2.0866
G01 X8.4140 Y2.0875
G01 X7.8590 Y2.0876
G01 X7.8440 Y2.0870
G01 X7.8291 Y2.0854
G01 X7.8144 Y2.0827
G01 X7.7999 Y2.0788
G01 X7.7857 Y2.0740
G01 X7.7719 Y2.0681
G01 X7.7586 Y2.0611
G01 X7.7459 Y2.0533
G01 X7.7340 Y2.0447
G01 X7.7179 Y2.0560
G01 X7.7050 Y2.0636
G01 X7.6915 Y2.0701
G01 X7.6776 Y2.0757
G01 X7.6633 Y2.0802
G01 X7.6487 Y2.0837
G01 X7.6339 Y2.0861
G01 X7.6140 Y2.0875
G01 X7.0590 Y2.0876
G01 X7.0440 Y2.0870
G01 X7.0291 Y2.0854
G01 X7.0144 Y2.0827
G01 X6.9999 Y2.0788
G01 X6.9857 Y2.0740
G01 X6.9719 Y2.0681
G01 X6.9586 Y2.0611
G01 X6.9459 Y2.0533
G01 X6.9340 Y2.0447
G01 X6.9179 Y2.0560
G01 X6.9050 Y2.0636
G01 X6.8915 Y2.0701
G01 X6.8776 Y2.0757
G01 X6.8633 Y2.0802
G01 X6.8487 Y2.0837
G01 X6.8339 Y2.0861
G01 X6.8140 Y2.0875
G01 X6.2590 Y2.0876
G01 X6.2440 Y2.0870
G01 X6.2291 Y2.0854
G01 X6.2144 Y2.0827
G01 X6.1999 Y2.0788
G01 X6.1857 Y2.0740
G01 X6.1719 Y2.0681
G01 X6.1586 Y2.0611
G01 X6.1459 Y2.0533
G01 X6.1340 Y2.0447
G01 X6.1221 Y2.0533
G01 X6.1094 Y2.0611
G01 X6.0961 Y2.0681
G01 X6.0823 Y2.0740
G01 X6.0681 Y2.0788
G01 X6.0536 Y2.0827
G01 X6.0389 Y2.0854
G01 X6.0240 Y2.0870
G01 X6.0090 Y2.0876
G01 X5.4540 Y2.0875
G01 X5.4341 Y2.0861
G01 X5.4193 Y2.0837
G01 X5.4047 Y2.0802
G01 X5.3904 Y2.0757
G01 X5.3765 Y2.0701
G01 X5.3630 Y2.0636
G01 X5.3501 Y2.0560
G01 X5.3340 Y2.0447
G01 X5.3221 Y2.0533
G01 X5.3094 Y2.0611
G01 X5.2961 Y2.0681
G01 X5.2823 Y2.0740
G01 X5.2681 Y2.0788
G01 X5.2536 Y2.0827
G01 X5.2389 Y2.0854
G01 X5.2240 Y2.0870
G01 X5.2090 Y2.0876
G01 X4.6590 Y2.0876
G01 X4.6440 Y2.0870
G01 X4.6291 Y2.0854
G01 X4.6095 Y2.0815
G01 X4.5951 Y2.0773
G01 X4.5765 Y2.0701
G01 X4.5630 Y2.0636
G01 X4.5501 Y2.0560
G01 X4.5340 Y2.0447
G01 X4.5221 Y2.0533
G01 X4.5094 Y2.0611
G01 X4.4961 Y2.0681
G01 X4.4823 Y2.0740
G01 X4.4681 Y2.0788
G01 X4.4536 Y2.0827
G01 X4.4389 Y2.0854
G01 X4.4240 Y2.0870
G01 X4.4090 Y2.0876
G01 X3.8590 Y2.0876
G01 X3.8440 Y2.0870
G01 X3.8291 Y2.0854
G01 X3.8095 Y2.0815
G01 X3.7951 Y2.0773
G01 X3.7765 Y2.0701
G01 X3.7630 Y2.0636
G01 X3.7501 Y2.0560
G01 X3.7340 Y2.0447
G01 X3.7221 Y2.0533
G01 X3.7094 Y2.0611
G01 X3.6961 Y2.0681
G01 X3.6823 Y2.0740
G01 X3.6681 Y2.0788
G01 X3.6536 Y2.0827
G01 X3.6389 Y2.0854
G01 X3.6240 Y2.0870
G01 X3.6090 Y2.0876
G01 X3.0590 Y2.0876
G01 X3.0440 Y2.0870
G01 X3.0291 Y2.0854
G01 X3.0095 Y2.0815
G01 X2.9951 Y2.0773
G01 X2.9765 Y2.0701
G01 X2.9630 Y2.0636
G01 X2.9501 Y2.0560
G01 X2.9340 Y2.0447
G01 X2.9221 Y2.0533
G01 X2.9094 Y2.0611
G01 X2.8961 Y2.0681
G01 X2.8823 Y2.0740
G01 X2.8681 Y2.0788
G01 X2.8536 Y2.0827
G01 X2.8389 Y2.0854
G01 X2.8240 Y2.0870
G01 X2.8090 Y2.0876
G01 X2.2590 Y2.0876
G01 X2.2440 Y2.0870
G01 X2.2242 Y2.0846
G01 X2.2095 Y2.0815
G01 X2.1904 Y2.0757
G01 X2.1719 Y2.0681
G01 X2.1586 Y2.0611
G01 X2.1418 Y2.0505
G01 X2.1260 Y2.0382
G01 X2.1150 Y2.0280
G01 X2.1081 Y2.0207
G01 X2.0955 Y2.0053
G01 X2.0844 Y1.9887
G01 X2.0749 Y1.9711
G01 X2.0709 Y1.9619
G01 X2.0657 Y1.9479
G01 X2.0603 Y1.9286
G01 X2.0569 Y1.9089
G01 X2.0560 Y1.8990
G01 X2.0554 Y1.8840
G01 X2.0555 Y0.2790
G01 X2.0564 Y0.2640
G01 X2.0593 Y0.2443
G01 X2.0628 Y0.2297
G01 X2.0690 Y0.2107
G01 X2.0771 Y0.1925
G01 X2.0844 Y0.1793
G01 X2.0925 Y0.1668
G01 X2.1048 Y0.1510
G01 X2.1115 Y0.1436
G01 X2.1223 Y0.1331
G01 X2.1377 Y0.1205
G01 X2.1543 Y0.1094
G01 X2.1719 Y0.0999
G01 X2.1904 Y0.0923
G01 X2.2095 Y0.0865
G01 X2.2291 Y0.0826
G01 X2.2490 Y0.0806
G01 X2.8090 Y0.0804
G01 X2.8240 Y0.0810
G01 X2.8389 Y0.0826
G01 X2.8536 Y0.0853
G01 X2.8681 Y0.0892
G01 X2.8823 Y0.0940
G01 X2.8961 Y0.0999
G01 X2.9094 Y0.1069
G01 X2.9221 Y0.1147
G01 X2.9340 Y0.1233
G01 X2.9501 Y0.1120
G01 X2.9630 Y0.1044
G01 X2.9765 Y0.0979
G01 X2.9904 Y0.0923
G01 X3.0047 Y0.0878
G01 X3.0193 Y0.0843
G01 X3.0341 Y0.0819
G01 X3.0490 Y0.0806
G01 X3.6090 Y0.0804
G01 X3.6240 Y0.0810
G01 X3.6389 Y0.0826
G01 X3.6536 Y0.0853
G01 X3.6681 Y0.0892
G01 X3.6823 Y0.0940
G01 X3.6961 Y0.0999
G01 X3.7094 Y0.1069
G01 X3.7221 Y0.1147
G01 X3.7340 Y0.1233
G01 X3.7459 Y0.1147
G01 X3.7586 Y0.1069
G01 X3.7719 Y0.0999
G01 X3.7811 Y0.0959
G01 X3.7951 Y0.0907
G01 X3.8095 Y0.0865
G01 X3.8193 Y0.0843
G01 X3.8341 Y0.0819
G00 Z2.0000
G00 X3.0465 Y0.1830
G01 F100.00
G01 Z-0.1000
G01 F200.00
G01 X3.0590 Y0.1822
G01 X3.6090 Y0.1822
G01 X3.6190 Y0.1827
G01 X3.6264 Y0.1837
G01 X3.6337 Y0.1853
G01 X3.6409 Y0.1873
G01 X3.6480 Y0.1899
G01 X3.6592 Y0.1954
G01 X3.6656 Y0.1994
G01 X3.6716 Y0.2037
G01 X3.6774 Y0.2086
G01 X3.6827 Y0.2138
G01 X3.6877 Y0.2194
G01 X3.6922 Y0.2254
G01 X3.6963 Y0.2317
G01 X3.6999 Y0.2382
G01 X3.7031 Y0.2450
G01 X3.7057 Y0.2521
G01 X3.7077 Y0.2593
G01 X3.7097 Y0.2691
G01 X3.7105 Y0.2765
G01 X3.7108 Y0.2840
G01 X3.7107 Y1.8890
G01 X3.7100 Y1.8965
G01 X3.7088 Y1.9039
G01 X3.7071 Y1.9112
G01 X3.7048 Y1.9183
G01 X3.7021 Y1.9253
G01 X3.6988 Y1.9320
G01 X3.6950 Y1.9385
G01 X3.6908 Y1.9446
G01 X3.6861 Y1.9505
G01 X3.6810 Y1.9560
G01 X3.6755 Y1.9611
G01 X3.6676 Y1.9672
G01 X3.6613 Y1.9713
G01 X3.6548 Y1.9749
G01 X3.6480 Y1.9781
G01 X3.6409 Y1.9807
G01 X3.6337 Y1.9827
G01 X3.6239 Y1.9847
G01 X3.6165 Y1.9855
G01 X3.6090 Y1.9858
G01 X3.0590 Y1.9858
G01 X3.0490 Y1.9853
G01 X3.0416 Y1.9843
G01 X3.0343 Y1.9827
G01 X3.0271 Y1.9807
G01 X3.0200 Y1.9781
G01 X3.0088 Y1.9726
G01 X3.0024 Y1.9686
G01 X2.9964 Y1.9643
G01 X2.9906 Y1.9594
G01 X2.9853 Y1.9542
G01 X2.9803 Y1.9486
G01 X2.9758 Y1.9426
G01 X2.9717 Y1.9363
G01 X2.9681 Y1.9298
G01 X2.9649 Y1.9230
G01 X2.9623 Y1.9159
G01 X2.9603 Y1.9087
G01 X2.9587 Y1.9014
G01 X2.9575 Y1.8915
G01 X2.9572 Y1.8840
G01 X2.9573 Y0.2790
G01 X2.9583 Y0.2691
G01 X2.9597 Y0.2617
G01 X2.9623 Y0.2521
G01 X2.9649 Y0.2450
G01 X2.9692 Y0.2360
G01 X2.9744 Y0.2274
G01 X2.9787 Y0.2214
G01 X2.9853 Y0.2138
G01 X2.9925 Y0.2069
G01 X2.9984 Y0.2022
G01 X3.0067 Y0.1967
G01 X3.0132 Y0.1931
G01 X3.0224 Y0.1890
G01 X3.0294 Y0.1866
G01 X3.0391 Y0.1842
G01 X3.0465 Y0.1830
G00 Z2.0000
G00 X2.2465 Y0.1830
G01 F100.00
G01 Z-0.1000
G01 F200.00
G01 X2.2590 Y0.1822
G01 X2.8090 Y0.1822
G01 X2.8190 Y0.1827
G01 X2.8264 Y0.1837
G01 X2.8337 Y0.1853
G01 X2.8409 Y0.1873
G01 X2.8480 Y0.1899
G01 X2.8592 Y0.1954
G01 X2.8656 Y0.1994
G01 X2.8716 Y0.2037
G01 X2.8774 Y0.2086
G01 X2.8827 Y0.2138
G01 X2.8877 Y0.2194
G01 X2.8922 Y0.2254
G01 X2.8963 Y0.2317
G01 X2.8999 Y0.2382
G01 X2.9031 Y0.2450
G01 X2.9057 Y0.2521
G01 X2.9077 Y0.2593
G01 X2.9097 Y0.2691
G01 X2.9105 Y0.2765
G01 X2.9108 Y0.2840
G01 X2.9107 Y1.8890
G01 X2.9100 Y1.8965
G01 X2.9088 Y1.9039
G01 X2.9071 Y1.9112
G01 X2.9048 Y1.9183
G01 X2.9021 Y1.9253
G01 X2.8988 Y1.9320
G01 X2.8950 Y1.9385
G01 X2.8908 Y1.9446
G01 X2.8861 Y1.9505
G01 X2.8810 Y1.9560
G01 X2.8755 Y1.9611
G01 X2.8676 Y1.9672
G01 X2.8613 Y1.9713
G01 X2.8548 Y1.9749
G01 X2.8480 Y1.9781
G01 X2.8409 Y1.9807
G01 X2.8337 Y1.9827
G01 X2.8239 Y1.9847
G01 X2.8165 Y1.9855
G01 X2.8090 Y1.9858
G01 X2.2590 Y1.9858
G01 X2.2490 Y1.9853
G01 X2.2416 Y1.9843
G01 X2.2343 Y1.9827
G01 X2.2271 Y1.9807
G01 X2.2200 Y1.9781
G01 X2.2088 Y1.9726
G01 X2.2024 Y1.9686
G01 X2.1964 Y1.9643
G01 X2.1906 Y1.9594
G01 X2.1853 Y1.9542
G01 X2.1803 Y1.9486
G01 X2.1758 Y1.9426
G01 X2.1717 Y1.9363
G01 X2.1681 Y1.9298
G01 X2.1649 Y1.9230
G01 X2.1623 Y1.9159
G01 X2.1603 Y1.9087
G01 X2.1587 Y1.9014
G01 X2.1575 Y1.8915
G01 X2.1572 Y1.8840
G01 X2.1573 Y0.2790
G01 X2.1583 Y0.2691
G01 X2.1597 Y0.2617
G01 X2.1623 Y0.2521
G01 X2.1649 Y0.2450
G01 X2.1692 Y0.2360
G01 X2.1744 Y0.2274
G01 X2.1787 Y0.2214
G01 X2.1853 Y0.2138
G01 X2.1925 Y0.2069
G01 X2.1984 Y0.2022
G01 X2.2067 Y0.1967
G01 X2.2132 Y0.1931
G01 X2.2224 Y0.1890
G01 X2.2294 Y0.1866
G01 X2.2391 Y0.1842
G01 X2.2465 Y0.1830
G00 Z2.0000
M05
G00 Z2.0000
G00 Z2.00
G00 X0.0 Y0.0


