(G-CODE GENERATED BY FLATCAM v8.994 - www.flatcam.org - Version Date: 2020/11/7)

(Name: teste-tqfp-F_Cu.gbr_iso_combined_cnc)
(Type: G-code from Geometry)
(Units: MM)

(Created on Monday, 27 June 2022 at 18:21)

(This preprocessor is the default preprocessor used by FlatCAM.)
(It is made to work with MACH3 compatible motion controllers.)

(TOOL DIAMETER: 0.2436 mm)
(Feedrate_XY: 100.0 mm/min)
(Feedrate_Z: 50.0 mm/min)
(Feedrate rapids 1500.0 mm/min)

(Z_Cut: -0.1 mm)
(Z_Move: 2.0 mm)
(Z Start: None mm)
(Z End: 2.0 mm)
(X,Y End: 0.0000, 0.0000 mm)
(Steps per circle: 64)
(Preprocessor Geometry: default)

(X range:    0.0404 ...   10.6276  mm)
(Y range:    0.0404 ...   10.6276  mm)

(Spindle Speed: 10000.0 RPM)
G21
G90
G94

G01 F100.00

M5
G00 Z2.0000
G00 X0.0000 Y0.0000
T2
M6    
(MSG, Change to Tool Dia = 0.2436)
M0
G00 Z2.0000

M03 S10000.0
G01 F100.00
G00 X0.2542 Y2.0172
G01 F50.00
G01 Z-0.1000
G01 F100.00
G01 X0.2661 Y2.0161
G01 X0.2840 Y2.0154
G01 X1.8840 Y2.0154
G01 X1.8960 Y2.0157
G01 X1.9079 Y2.0166
G01 X1.9256 Y2.0190
G01 X1.9374 Y2.0213
G01 X1.9490 Y2.0242
G01 X1.9661 Y2.0296
G01 X1.9827 Y2.0363
G01 X1.9988 Y2.0442
G01 X2.0143 Y2.0532
G01 X2.0291 Y2.0633
G01 X2.0431 Y2.0745
G01 X2.0563 Y2.0867
G01 X2.0685 Y2.0999
G01 X2.0797 Y2.1139
G01 X2.0865 Y2.1237
G01 X2.0929 Y2.1338
G01 X2.1016 Y2.1495
G01 X2.1091 Y2.1658
G01 X2.1153 Y2.1826
G01 X2.1203 Y2.1998
G01 X2.1229 Y2.2115
G01 X2.1258 Y2.2292
G01 X2.1273 Y2.2470
G01 X2.1276 Y2.2590
G01 X2.1276 Y2.8090
G01 X2.1273 Y2.8210
G01 X2.1258 Y2.8388
G01 X2.1240 Y2.8506
G01 X2.1203 Y2.8682
G01 X2.1171 Y2.8797
G01 X2.1113 Y2.8967
G01 X2.1067 Y2.9077
G01 X2.1016 Y2.9185
G01 X2.0931 Y2.9340
G01 X2.1016 Y2.9495
G01 X2.1067 Y2.9603
G01 X2.1134 Y2.9769
G01 X2.1171 Y2.9883
G01 X2.1217 Y3.0056
G01 X2.1240 Y3.0174
G01 X2.1264 Y3.0351
G01 X2.1273 Y3.0470
G01 X2.1276 Y3.0590
G01 X2.1275 Y3.6150
G01 X2.1269 Y3.6269
G01 X2.1250 Y3.6447
G01 X2.1229 Y3.6565
G01 X2.1188 Y3.6740
G01 X2.1134 Y3.6911
G01 X2.1091 Y3.7022
G01 X2.1016 Y3.7185
G01 X2.0931 Y3.7340
G01 X2.1016 Y3.7495
G01 X2.1067 Y3.7603
G01 X2.1134 Y3.7769
G01 X2.1171 Y3.7883
G01 X2.1217 Y3.8056
G01 X2.1240 Y3.8174
G01 X2.1264 Y3.8351
G01 X2.1273 Y3.8470
G01 X2.1276 Y3.8590
G01 X2.1276 Y4.4090
G01 X2.1269 Y4.4269
G01 X2.1258 Y4.4388
G01 X2.1229 Y4.4565
G01 X2.1188 Y4.4740
G01 X2.1134 Y4.4911
G01 X2.1091 Y4.5022
G01 X2.1016 Y4.5185
G01 X2.0931 Y4.5340
G01 X2.1016 Y4.5495
G01 X2.1067 Y4.5603
G01 X2.1113 Y4.5713
G01 X2.1171 Y4.5883
G01 X2.1217 Y4.6056
G01 X2.1240 Y4.6174
G01 X2.1258 Y4.6292
G01 X2.1273 Y4.6470
G01 X2.1276 Y4.6590
G01 X2.1276 Y5.2090
G01 X2.1269 Y5.2269
G01 X2.1258 Y5.2388
G01 X2.1229 Y5.2565
G01 X2.1188 Y5.2740
G01 X2.1134 Y5.2911
G01 X2.1091 Y5.3022
G01 X2.1016 Y5.3185
G01 X2.0931 Y5.3340
G01 X2.1016 Y5.3495
G01 X2.1067 Y5.3603
G01 X2.1113 Y5.3713
G01 X2.1171 Y5.3883
G01 X2.1217 Y5.4056
G01 X2.1240 Y5.4174
G01 X2.1258 Y5.4292
G01 X2.1273 Y5.4470
G01 X2.1276 Y5.4590
G01 X2.1276 Y6.0090
G01 X2.1269 Y6.0269
G01 X2.1258 Y6.0388
G01 X2.1229 Y6.0565
G01 X2.1188 Y6.0740
G01 X2.1134 Y6.0911
G01 X2.1091 Y6.1022
G01 X2.1016 Y6.1185
G01 X2.0931 Y6.1340
G01 X2.1016 Y6.1495
G01 X2.1067 Y6.1603
G01 X2.1113 Y6.1713
G01 X2.1171 Y6.1883
G01 X2.1217 Y6.2056
G01 X2.1240 Y6.2174
G01 X2.1258 Y6.2292
G01 X2.1273 Y6.2470
G01 X2.1276 Y6.2590
G01 X2.1276 Y6.8090
G01 X2.1269 Y6.8269
G01 X2.1258 Y6.8388
G01 X2.1229 Y6.8565
G01 X2.1188 Y6.8740
G01 X2.1134 Y6.8911
G01 X2.1091 Y6.9022
G01 X2.1016 Y6.9185
G01 X2.0931 Y6.9340
G01 X2.1016 Y6.9495
G01 X2.1067 Y6.9603
G01 X2.1113 Y6.9713
G01 X2.1171 Y6.9883
G01 X2.1217 Y7.0056
G01 X2.1240 Y7.0174
G01 X2.1258 Y7.0292
G01 X2.1273 Y7.0470
G01 X2.1276 Y7.0590
G01 X2.1276 Y7.6090
G01 X2.1269 Y7.6269
G01 X2.1258 Y7.6388
G01 X2.1229 Y7.6565
G01 X2.1188 Y7.6740
G01 X2.1134 Y7.6911
G01 X2.1091 Y7.7022
G01 X2.1016 Y7.7185
G01 X2.0931 Y7.7340
G01 X2.1016 Y7.7495
G01 X2.1067 Y7.7603
G01 X2.1134 Y7.7769
G01 X2.1171 Y7.7883
G01 X2.1217 Y7.8056
G01 X2.1240 Y7.8174
G01 X2.1258 Y7.8292
G01 X2.1273 Y7.8470
G01 X2.1276 Y7.8590
G01 X2.1275 Y8.4150
G01 X2.1264 Y8.4329
G01 X2.1250 Y8.4447
G01 X2.1229 Y8.4565
G01 X2.1203 Y8.4682
G01 X2.1171 Y8.4797
G01 X2.1113 Y8.4967
G01 X2.1042 Y8.5132
G01 X2.0960 Y8.5291
G01 X2.0898 Y8.5393
G01 X2.0832 Y8.5493
G01 X2.0723 Y8.5635
G01 X2.0604 Y8.5770
G01 X2.0476 Y8.5895
G01 X2.0385 Y8.5973
G01 X2.0291 Y8.6047
G01 X2.0143 Y8.6148
G01 X2.0041 Y8.6210
G01 X1.9935 Y8.6266
G01 X1.9772 Y8.6341
G01 X1.9604 Y8.6403
G01 X1.9432 Y8.6453
G01 X1.9256 Y8.6490
G01 X1.9138 Y8.6508
G01 X1.8960 Y8.6523
G01 X1.8840 Y8.6526
G01 X0.2840 Y8.6526
G01 X0.2720 Y8.6523
G01 X0.2601 Y8.6514
G01 X0.2424 Y8.6490
G01 X0.2248 Y8.6453
G01 X0.2076 Y8.6403
G01 X0.1908 Y8.6341
G01 X0.1745 Y8.6266
G01 X0.1588 Y8.6179
G01 X0.1437 Y8.6082
G01 X0.1341 Y8.6010
G01 X0.1249 Y8.5935
G01 X0.1117 Y8.5813
G01 X0.0995 Y8.5681
G01 X0.0883 Y8.5541
G01 X0.0782 Y8.5393
G01 X0.0692 Y8.5238
G01 X0.0613 Y8.5077
G01 X0.0567 Y8.4967
G01 X0.0527 Y8.4854
G01 X0.0477 Y8.4682
G01 X0.0451 Y8.4565
G01 X0.0422 Y8.4388
G01 X0.0411 Y8.4269
G01 X0.0404 Y8.4090
G01 X0.0404 Y7.8590
G01 X0.0407 Y7.8470
G01 X0.0416 Y7.8351
G01 X0.0440 Y7.8174
G01 X0.0463 Y7.8056
G01 X0.0509 Y7.7883
G01 X0.0567 Y7.7713
G01 X0.0613 Y7.7603
G01 X0.0664 Y7.7495
G01 X0.0749 Y7.7340
G01 X0.0664 Y7.7185
G01 X0.0613 Y7.7077
G01 X0.0546 Y7.6911
G01 X0.0509 Y7.6797
G01 X0.0463 Y7.6624
G01 X0.0440 Y7.6506
G01 X0.0422 Y7.6388
G01 X0.0407 Y7.6210
G01 X0.0404 Y7.6090
G01 X0.0405 Y7.0530
G01 X0.0411 Y7.0411
G01 X0.0430 Y7.0233
G01 X0.0451 Y7.0115
G01 X0.0492 Y6.9940
G01 X0.0546 Y6.9769
G01 X0.0589 Y6.9658
G01 X0.0664 Y6.9495
G01 X0.0749 Y6.9340
G01 X0.0664 Y6.9185
G01 X0.0613 Y6.9077
G01 X0.0546 Y6.8911
G01 X0.0509 Y6.8797
G01 X0.0463 Y6.8624
G01 X0.0440 Y6.8506
G01 X0.0422 Y6.8388
G01 X0.0407 Y6.8210
G01 X0.0404 Y6.8090
G01 X0.0404 Y6.2590
G01 X0.0411 Y6.2411
G01 X0.0422 Y6.2292
G01 X0.0451 Y6.2115
G01 X0.0492 Y6.1940
G01 X0.0546 Y6.1769
G01 X0.0589 Y6.1658
G01 X0.0664 Y6.1495
G01 X0.0749 Y6.1340
G01 X0.0664 Y6.1185
G01 X0.0613 Y6.1077
G01 X0.0546 Y6.0911
G01 X0.0509 Y6.0797
G01 X0.0463 Y6.0624
G01 X0.0440 Y6.0506
G01 X0.0422 Y6.0388
G01 X0.0407 Y6.0210
G01 X0.0404 Y6.0090
G01 X0.0404 Y5.4590
G01 X0.0411 Y5.4411
G01 X0.0422 Y5.4292
G01 X0.0451 Y5.4115
G01 X0.0492 Y5.3940
G01 X0.0546 Y5.3769
G01 X0.0589 Y5.3658
G01 X0.0664 Y5.3495
G01 X0.0749 Y5.3340
G01 X0.0664 Y5.3185
G01 X0.0613 Y5.3077
G01 X0.0546 Y5.2911
G01 X0.0509 Y5.2797
G01 X0.0463 Y5.2624
G01 X0.0440 Y5.2506
G01 X0.0422 Y5.2388
G01 X0.0407 Y5.2210
G01 X0.0404 Y5.2090
G01 X0.0404 Y4.6590
G01 X0.0411 Y4.6411
G01 X0.0422 Y4.6292
G01 X0.0451 Y4.6115
G01 X0.0492 Y4.5940
G01 X0.0546 Y4.5769
G01 X0.0589 Y4.5658
G01 X0.0664 Y4.5495
G01 X0.0749 Y4.5340
G01 X0.0664 Y4.5185
G01 X0.0613 Y4.5077
G01 X0.0546 Y4.4911
G01 X0.0509 Y4.4797
G01 X0.0463 Y4.4624
G01 X0.0440 Y4.4506
G01 X0.0422 Y4.4388
G01 X0.0407 Y4.4210
G01 X0.0404 Y4.4090
G01 X0.0404 Y3.8590
G01 X0.0411 Y3.8411
G01 X0.0422 Y3.8292
G01 X0.0451 Y3.8115
G01 X0.0492 Y3.7940
G01 X0.0546 Y3.7769
G01 X0.0589 Y3.7658
G01 X0.0664 Y3.7495
G01 X0.0749 Y3.7340
G01 X0.0664 Y3.7185
G01 X0.0613 Y3.7077
G01 X0.0567 Y3.6967
G01 X0.0509 Y3.6797
G01 X0.0477 Y3.6682
G01 X0.0440 Y3.6506
G01 X0.0416 Y3.6329
G01 X0.0407 Y3.6210
G01 X0.0404 Y3.6090
G01 X0.0404 Y3.0590
G01 X0.0411 Y3.0411
G01 X0.0422 Y3.0292
G01 X0.0451 Y3.0115
G01 X0.0492 Y2.9940
G01 X0.0546 Y2.9769
G01 X0.0589 Y2.9658
G01 X0.0664 Y2.9495
G01 X0.0749 Y2.9340
G01 X0.0664 Y2.9185
G01 X0.0613 Y2.9077
G01 X0.0567 Y2.8967
G01 X0.0509 Y2.8797
G01 X0.0477 Y2.8682
G01 X0.0440 Y2.8506
G01 X0.0416 Y2.8329
G01 X0.0407 Y2.8210
G01 X0.0404 Y2.8090
G01 X0.0405 Y2.2530
G01 X0.0416 Y2.2351
G01 X0.0430 Y2.2233
G01 X0.0451 Y2.2115
G01 X0.0477 Y2.1998
G01 X0.0509 Y2.1883
G01 X0.0546 Y2.1769
G01 X0.0589 Y2.1658
G01 X0.0664 Y2.1495
G01 X0.0720 Y2.1389
G01 X0.0782 Y2.1287
G01 X0.0848 Y2.1187
G01 X0.0920 Y2.1091
G01 X0.1035 Y2.0954
G01 X0.1160 Y2.0826
G01 X0.1249 Y2.0745
G01 X0.1341 Y2.0670
G01 X0.1437 Y2.0598
G01 X0.1537 Y2.0532
G01 X0.1692 Y2.0442
G01 X0.1798 Y2.0388
G01 X0.1908 Y2.0339
G01 X0.2076 Y2.0277
G01 X0.2190 Y2.0242
G01 X0.2306 Y2.0213
G01 X0.2424 Y2.0190
G01 X0.2542 Y2.0172
G00 Z2.0000
G00 X0.2691 Y2.1381
G01 F50.00
G01 Z-0.1000
G01 F100.00
G01 X0.2840 Y2.1372
G01 X1.8840 Y2.1372
G01 X1.8959 Y2.1378
G01 X1.9078 Y2.1395
G01 X1.9194 Y2.1424
G01 X1.9306 Y2.1465
G01 X1.9388 Y2.1502
G01 X1.9466 Y2.1545
G01 X1.9589 Y2.1630
G01 X1.9658 Y2.1688
G01 X1.9722 Y2.1750
G01 X1.9818 Y2.1864
G01 X1.9869 Y2.1938
G01 X1.9914 Y2.2016
G01 X1.9976 Y2.2152
G01 X2.0006 Y2.2236
G01 X2.0028 Y2.2323
G01 X2.0052 Y2.2471
G01 X2.0058 Y2.2590
G01 X2.0058 Y2.8120
G01 X2.0049 Y2.8239
G01 X2.0028 Y2.8357
G01 X1.9997 Y2.8472
G01 X1.9965 Y2.8556
G01 X1.9900 Y2.8690
G01 X1.9853 Y2.8767
G01 X1.9800 Y2.8839
G01 X1.9742 Y2.8908
G01 X1.9680 Y2.8972
G01 X1.9613 Y2.9032
G01 X1.9541 Y2.9086
G01 X1.9466 Y2.9135
G01 X1.9388 Y2.9178
G01 X1.9306 Y2.9215
G01 X1.9222 Y2.9247
G01 X1.9136 Y2.9271
G01 X1.9048 Y2.9290
G01 X1.8900 Y2.9307
G01 X0.2840 Y2.9308
G01 X0.2721 Y2.9302
G01 X0.2602 Y2.9285
G01 X0.2486 Y2.9256
G01 X0.2374 Y2.9215
G01 X0.2240 Y2.9150
G01 X0.2163 Y2.9103
G01 X0.2091 Y2.9050
G01 X0.1979 Y2.8951
G01 X0.1918 Y2.8886
G01 X0.1862 Y2.8816
G01 X0.1780 Y2.8690
G01 X0.1715 Y2.8556
G01 X0.1683 Y2.8472
G01 X0.1659 Y2.8386
G01 X0.1631 Y2.8239
G01 X0.1622 Y2.8090
G01 X0.1623 Y2.2530
G01 X0.1631 Y2.2441
G01 X0.1652 Y2.2323
G01 X0.1674 Y2.2236
G01 X0.1715 Y2.2124
G01 X0.1752 Y2.2042
G01 X0.1811 Y2.1938
G01 X0.1880 Y2.1841
G01 X0.1938 Y2.1772
G01 X0.2022 Y2.1688
G01 X0.2091 Y2.1630
G01 X0.2188 Y2.1561
G01 X0.2292 Y2.1502
G01 X0.2374 Y2.1465
G01 X0.2486 Y2.1424
G01 X0.2602 Y2.1395
G01 X0.2691 Y2.1381
G00 Z2.0000
G00 X0.2691 Y2.9381
G01 F50.00
G01 Z-0.1000
G01 F100.00
G01 X0.2840 Y2.9372
G01 X1.8840 Y2.9372
G01 X1.8959 Y2.9378
G01 X1.9078 Y2.9395
G01 X1.9194 Y2.9424
G01 X1.9306 Y2.9465
G01 X1.9388 Y2.9502
G01 X1.9466 Y2.9545
G01 X1.9589 Y2.9630
G01 X1.9658 Y2.9688
G01 X1.9722 Y2.9750
G01 X1.9818 Y2.9864
G01 X1.9869 Y2.9938
G01 X1.9914 Y3.0016
G01 X1.9976 Y3.0152
G01 X2.0006 Y3.0236
G01 X2.0028 Y3.0323
G01 X2.0052 Y3.0471
G01 X2.0058 Y3.0590
G01 X2.0058 Y3.6120
G01 X2.0049 Y3.6239
G01 X2.0028 Y3.6357
G01 X1.9997 Y3.6472
G01 X1.9965 Y3.6556
G01 X1.9900 Y3.6690
G01 X1.9853 Y3.6767
G01 X1.9800 Y3.6839
G01 X1.9742 Y3.6908
G01 X1.9680 Y3.6972
G01 X1.9613 Y3.7032
G01 X1.9541 Y3.7086
G01 X1.9466 Y3.7135
G01 X1.9388 Y3.7178
G01 X1.9306 Y3.7215
G01 X1.9222 Y3.7247
G01 X1.9136 Y3.7271
G01 X1.9048 Y3.7290
G01 X1.8900 Y3.7307
G01 X0.2840 Y3.7308
G01 X0.2721 Y3.7302
G01 X0.2602 Y3.7285
G01 X0.2486 Y3.7256
G01 X0.2374 Y3.7215
G01 X0.2240 Y3.7150
G01 X0.2163 Y3.7103
G01 X0.2091 Y3.7050
G01 X0.1979 Y3.6951
G01 X0.1918 Y3.6886
G01 X0.1862 Y3.6816
G01 X0.1780 Y3.6690
G01 X0.1715 Y3.6556
G01 X0.1683 Y3.6472
G01 X0.1659 Y3.6386
G01 X0.1631 Y3.6239
G01 X0.1622 Y3.6090
G01 X0.1623 Y3.0530
G01 X0.1631 Y3.0441
G01 X0.1652 Y3.0323
G01 X0.1674 Y3.0236
G01 X0.1715 Y3.0124
G01 X0.1752 Y3.0042
G01 X0.1811 Y2.9938
G01 X0.1880 Y2.9841
G01 X0.1938 Y2.9772
G01 X0.2022 Y2.9688
G01 X0.2091 Y2.9630
G01 X0.2188 Y2.9561
G01 X0.2292 Y2.9502
G01 X0.2374 Y2.9465
G01 X0.2486 Y2.9424
G01 X0.2602 Y2.9395
G01 X0.2691 Y2.9381
G00 Z2.0000
G00 X0.2691 Y3.7381
G01 F50.00
G01 Z-0.1000
G01 F100.00
G01 X0.2840 Y3.7372
G01 X1.8840 Y3.7372
G01 X1.8959 Y3.7378
G01 X1.9078 Y3.7395
G01 X1.9194 Y3.7424
G01 X1.9306 Y3.7465
G01 X1.9388 Y3.7502
G01 X1.9466 Y3.7545
G01 X1.9589 Y3.7630
G01 X1.9658 Y3.7688
G01 X1.9722 Y3.7750
G01 X1.9818 Y3.7864
G01 X1.9869 Y3.7938
G01 X1.9914 Y3.8016
G01 X1.9976 Y3.8152
G01 X2.0006 Y3.8236
G01 X2.0028 Y3.8323
G01 X2.0052 Y3.8471
G01 X2.0058 Y3.8590
G01 X2.0058 Y4.4120
G01 X2.0052 Y4.4209
G01 X2.0035 Y4.4328
G01 X2.0006 Y4.4444
G01 X1.9965 Y4.4556
G01 X1.9928 Y4.4638
G01 X1.9885 Y4.4716
G01 X1.9800 Y4.4839
G01 X1.9742 Y4.4908
G01 X1.9680 Y4.4972
G01 X1.9613 Y4.5032
G01 X1.9541 Y4.5086
G01 X1.9466 Y4.5135
G01 X1.9388 Y4.5178
G01 X1.9250 Y4.5237
G01 X1.9165 Y4.5264
G01 X1.9078 Y4.5285
G01 X1.8989 Y4.5299
G01 X1.8900 Y4.5307
G01 X0.2840 Y4.5308
G01 X0.2721 Y4.5302
G01 X0.2602 Y4.5285
G01 X0.2486 Y4.5256
G01 X0.2374 Y4.5215
G01 X0.2240 Y4.5150
G01 X0.2114 Y4.5068
G01 X0.2044 Y4.5012
G01 X0.1979 Y4.4951
G01 X0.1880 Y4.4839
G01 X0.1827 Y4.4767
G01 X0.1780 Y4.4690
G01 X0.1715 Y4.4556
G01 X0.1683 Y4.4472
G01 X0.1659 Y4.4386
G01 X0.1631 Y4.4239
G01 X0.1622 Y4.4090
G01 X0.1623 Y3.8530
G01 X0.1631 Y3.8441
G01 X0.1652 Y3.8323
G01 X0.1674 Y3.8236
G01 X0.1715 Y3.8124
G01 X0.1752 Y3.8042
G01 X0.1811 Y3.7938
G01 X0.1880 Y3.7841
G01 X0.1938 Y3.7772
G01 X0.2022 Y3.7688
G01 X0.2091 Y3.7630
G01 X0.2188 Y3.7561
G01 X0.2292 Y3.7502
G01 X0.2374 Y3.7465
G01 X0.2486 Y3.7424
G01 X0.2602 Y3.7395
G01 X0.2691 Y3.7381
G00 Z2.0000
G00 X0.2691 Y4.5381
G01 F50.00
G01 Z-0.1000
G01 F100.00
G01 X0.2840 Y4.5372
G01 X1.8840 Y4.5372
G01 X1.8959 Y4.5378
G01 X1.9078 Y4.5395
G01 X1.9194 Y4.5424
G01 X1.9306 Y4.5465
G01 X1.9440 Y4.5530
G01 X1.9517 Y4.5577
G01 X1.9589 Y4.5630
G01 X1.9658 Y4.5688
G01 X1.9722 Y4.5750
G01 X1.9818 Y4.5864
G01 X1.9900 Y4.5990
G01 X1.9941 Y4.6069
G01 X1.9976 Y4.6152
G01 X2.0006 Y4.6236
G01 X2.0028 Y4.6323
G01 X2.0052 Y4.6471
G01 X2.0058 Y4.6590
G01 X2.0058 Y5.2120
G01 X2.0052 Y5.2209
G01 X2.0035 Y5.2328
G01 X2.0006 Y5.2444
G01 X1.9965 Y5.2556
G01 X1.9928 Y5.2638
G01 X1.9885 Y5.2716
G01 X1.9800 Y5.2839
G01 X1.9742 Y5.2908
G01 X1.9680 Y5.2972
G01 X1.9613 Y5.3032
G01 X1.9541 Y5.3086
G01 X1.9466 Y5.3135
G01 X1.9388 Y5.3178
G01 X1.9250 Y5.3237
G01 X1.9165 Y5.3264
G01 X1.9078 Y5.3285
G01 X1.8989 Y5.3299
G01 X1.8900 Y5.3307
G01 X0.2840 Y5.3308
G01 X0.2721 Y5.3302
G01 X0.2602 Y5.3285
G01 X0.2486 Y5.3256
G01 X0.2374 Y5.3215
G01 X0.2240 Y5.3150
G01 X0.2114 Y5.3068
G01 X0.2044 Y5.3012
G01 X0.1979 Y5.2951
G01 X0.1880 Y5.2839
G01 X0.1827 Y5.2767
G01 X0.1780 Y5.2690
G01 X0.1715 Y5.2556
G01 X0.1683 Y5.2472
G01 X0.1659 Y5.2386
G01 X0.1631 Y5.2239
G01 X0.1622 Y5.2090
G01 X0.1623 Y4.6530
G01 X0.1631 Y4.6441
G01 X0.1652 Y4.6323
G01 X0.1683 Y4.6208
G01 X0.1726 Y4.6096
G01 X0.1780 Y4.5990
G01 X0.1827 Y4.5913
G01 X0.1898 Y4.5817
G01 X0.1958 Y4.5750
G01 X0.2044 Y4.5668
G01 X0.2114 Y4.5612
G01 X0.2214 Y4.5545
G01 X0.2292 Y4.5502
G01 X0.2374 Y4.5465
G01 X0.2486 Y4.5424
G01 X0.2573 Y4.5402
G01 X0.2691 Y4.5381
G00 Z2.0000
G00 X0.2691 Y5.3381
G01 F50.00
G01 Z-0.1000
G01 F100.00
G01 X0.2840 Y5.3372
G01 X1.8840 Y5.3372
G01 X1.8959 Y5.3378
G01 X1.9078 Y5.3395
G01 X1.9194 Y5.3424
G01 X1.9306 Y5.3465
G01 X1.9440 Y5.3530
G01 X1.9517 Y5.3577
G01 X1.9589 Y5.3630
G01 X1.9658 Y5.3688
G01 X1.9722 Y5.3750
G01 X1.9818 Y5.3864
G01 X1.9900 Y5.3990
G01 X1.9941 Y5.4069
G01 X1.9976 Y5.4152
G01 X2.0006 Y5.4236
G01 X2.0028 Y5.4323
G01 X2.0052 Y5.4471
G01 X2.0058 Y5.4590
G01 X2.0058 Y6.0120
G01 X2.0052 Y6.0209
G01 X2.0035 Y6.0328
G01 X2.0006 Y6.0444
G01 X1.9965 Y6.0556
G01 X1.9928 Y6.0638
G01 X1.9885 Y6.0716
G01 X1.9800 Y6.0839
G01 X1.9742 Y6.0908
G01 X1.9680 Y6.0972
G01 X1.9613 Y6.1032
G01 X1.9541 Y6.1086
G01 X1.9466 Y6.1135
G01 X1.9388 Y6.1178
G01 X1.9250 Y6.1237
G01 X1.9165 Y6.1264
G01 X1.9078 Y6.1285
G01 X1.8989 Y6.1299
G01 X1.8900 Y6.1307
G01 X0.2840 Y6.1308
G01 X0.2721 Y6.1302
G01 X0.2602 Y6.1285
G01 X0.2486 Y6.1256
G01 X0.2374 Y6.1215
G01 X0.2240 Y6.1150
G01 X0.2114 Y6.1068
G01 X0.2044 Y6.1012
G01 X0.1979 Y6.0951
G01 X0.1880 Y6.0839
G01 X0.1827 Y6.0767
G01 X0.1780 Y6.0690
G01 X0.1715 Y6.0556
G01 X0.1683 Y6.0472
G01 X0.1659 Y6.0386
G01 X0.1631 Y6.0239
G01 X0.1622 Y6.0090
G01 X0.1623 Y5.4530
G01 X0.1631 Y5.4441
G01 X0.1652 Y5.4323
G01 X0.1683 Y5.4208
G01 X0.1726 Y5.4096
G01 X0.1780 Y5.3990
G01 X0.1827 Y5.3913
G01 X0.1898 Y5.3817
G01 X0.1958 Y5.3750
G01 X0.2044 Y5.3668
G01 X0.2114 Y5.3612
G01 X0.2214 Y5.3545
G01 X0.2292 Y5.3502
G01 X0.2374 Y5.3465
G01 X0.2486 Y5.3424
G01 X0.2573 Y5.3402
G01 X0.2691 Y5.3381
G00 Z2.0000
G00 X0.2691 Y6.1381
G01 F50.00
G01 Z-0.1000
G01 F100.00
G01 X0.2840 Y6.1372
G01 X1.8840 Y6.1372
G01 X1.8959 Y6.1378
G01 X1.9078 Y6.1395
G01 X1.9194 Y6.1424
G01 X1.9306 Y6.1465
G01 X1.9440 Y6.1530
G01 X1.9517 Y6.1577
G01 X1.9589 Y6.1630
G01 X1.9658 Y6.1688
G01 X1.9722 Y6.1750
G01 X1.9818 Y6.1864
G01 X1.9900 Y6.1990
G01 X1.9941 Y6.2069
G01 X1.9976 Y6.2152
G01 X2.0006 Y6.2236
G01 X2.0028 Y6.2323
G01 X2.0052 Y6.2471
G01 X2.0058 Y6.2590
G01 X2.0058 Y6.8120
G01 X2.0052 Y6.8209
G01 X2.0035 Y6.8328
G01 X2.0006 Y6.8444
G01 X1.9965 Y6.8556
G01 X1.9928 Y6.8638
G01 X1.9885 Y6.8716
G01 X1.9800 Y6.8839
G01 X1.9742 Y6.8908
G01 X1.9680 Y6.8972
G01 X1.9613 Y6.9032
G01 X1.9541 Y6.9086
G01 X1.9466 Y6.9135
G01 X1.9388 Y6.9178
G01 X1.9250 Y6.9237
G01 X1.9165 Y6.9264
G01 X1.9078 Y6.9285
G01 X1.8989 Y6.9299
G01 X1.8900 Y6.9307
G01 X0.2840 Y6.9308
G01 X0.2721 Y6.9302
G01 X0.2602 Y6.9285
G01 X0.2486 Y6.9256
G01 X0.2374 Y6.9215
G01 X0.2240 Y6.9150
G01 X0.2114 Y6.9068
G01 X0.2044 Y6.9012
G01 X0.1979 Y6.8951
G01 X0.1880 Y6.8839
G01 X0.1827 Y6.8767
G01 X0.1780 Y6.8690
G01 X0.1715 Y6.8556
G01 X0.1683 Y6.8472
G01 X0.1659 Y6.8386
G01 X0.1631 Y6.8239
G01 X0.1622 Y6.8090
G01 X0.1623 Y6.2530
G01 X0.1631 Y6.2441
G01 X0.1652 Y6.2323
G01 X0.1683 Y6.2208
G01 X0.1726 Y6.2096
G01 X0.1780 Y6.1990
G01 X0.1827 Y6.1913
G01 X0.1898 Y6.1817
G01 X0.1958 Y6.1750
G01 X0.2044 Y6.1668
G01 X0.2114 Y6.1612
G01 X0.2214 Y6.1545
G01 X0.2292 Y6.1502
G01 X0.2374 Y6.1465
G01 X0.2486 Y6.1424
G01 X0.2573 Y6.1402
G01 X0.2691 Y6.1381
G00 Z2.0000
G00 X0.2750 Y6.9375
G01 F50.00
G01 Z-0.1000
G01 F100.00
G01 X0.2840 Y6.9372
G01 X1.8840 Y6.9372
G01 X1.8959 Y6.9378
G01 X1.9078 Y6.9395
G01 X1.9194 Y6.9424
G01 X1.9306 Y6.9465
G01 X1.9440 Y6.9530
G01 X1.9517 Y6.9577
G01 X1.9589 Y6.9630
G01 X1.9658 Y6.9688
G01 X1.9722 Y6.9750
G01 X1.9818 Y6.9864
G01 X1.9900 Y6.9990
G01 X1.9941 Y7.0069
G01 X1.9976 Y7.0152
G01 X2.0006 Y7.0236
G01 X2.0028 Y7.0323
G01 X2.0052 Y7.0471
G01 X2.0058 Y7.0590
G01 X2.0058 Y7.6120
G01 X2.0052 Y7.6209
G01 X2.0035 Y7.6328
G01 X2.0006 Y7.6444
G01 X1.9965 Y7.6556
G01 X1.9928 Y7.6638
G01 X1.9885 Y7.6716
G01 X1.9800 Y7.6839
G01 X1.9742 Y7.6908
G01 X1.9680 Y7.6972
G01 X1.9613 Y7.7032
G01 X1.9541 Y7.7086
G01 X1.9466 Y7.7135
G01 X1.9388 Y7.7178
G01 X1.9250 Y7.7237
G01 X1.9165 Y7.7264
G01 X1.9078 Y7.7285
G01 X1.8989 Y7.7299
G01 X1.8900 Y7.7307
G01 X0.2840 Y7.7308
G01 X0.2721 Y7.7302
G01 X0.2602 Y7.7285
G01 X0.2486 Y7.7256
G01 X0.2374 Y7.7215
G01 X0.2240 Y7.7150
G01 X0.2114 Y7.7068
G01 X0.2044 Y7.7012
G01 X0.1979 Y7.6951
G01 X0.1880 Y7.6839
G01 X0.1827 Y7.6767
G01 X0.1780 Y7.6690
G01 X0.1715 Y7.6556
G01 X0.1683 Y7.6472
G01 X0.1659 Y7.6386
G01 X0.1631 Y7.6239
G01 X0.1622 Y7.6090
G01 X0.1623 Y7.0530
G01 X0.1631 Y7.0441
G01 X0.1652 Y7.0323
G01 X0.1683 Y7.0208
G01 X0.1726 Y7.0096
G01 X0.1780 Y6.9990
G01 X0.1827 Y6.9913
G01 X0.1898 Y6.9817
G01 X0.1958 Y6.9750
G01 X0.2044 Y6.9668
G01 X0.2139 Y6.9594
G01 X0.2240 Y6.9530
G01 X0.2319 Y6.9489
G01 X0.2430 Y6.9443
G01 X0.2544 Y6.9409
G01 X0.2661 Y6.9385
G01 X0.2750 Y6.9375
G00 Z2.0000
G00 X0.2721 Y7.7378
G01 F50.00
G01 Z-0.1000
G01 F100.00
G01 X0.2840 Y7.7372
G01 X1.8840 Y7.7372
G01 X1.8959 Y7.7378
G01 X1.9078 Y7.7395
G01 X1.9194 Y7.7424
G01 X1.9306 Y7.7465
G01 X1.9388 Y7.7502
G01 X1.9466 Y7.7545
G01 X1.9589 Y7.7630
G01 X1.9658 Y7.7688
G01 X1.9722 Y7.7750
G01 X1.9818 Y7.7864
G01 X1.9869 Y7.7938
G01 X1.9914 Y7.8016
G01 X1.9976 Y7.8152
G01 X2.0006 Y7.8236
G01 X2.0028 Y7.8323
G01 X2.0052 Y7.8471
G01 X2.0058 Y7.8590
G01 X2.0058 Y8.4120
G01 X2.0049 Y8.4239
G01 X2.0028 Y8.4357
G01 X2.0006 Y8.4444
G01 X1.9965 Y8.4556
G01 X1.9928 Y8.4638
G01 X1.9885 Y8.4716
G01 X1.9800 Y8.4839
G01 X1.9742 Y8.4908
G01 X1.9680 Y8.4972
G01 X1.9613 Y8.5032
G01 X1.9541 Y8.5086
G01 X1.9414 Y8.5164
G01 X1.9334 Y8.5204
G01 X1.9250 Y8.5237
G01 X1.9165 Y8.5264
G01 X1.9078 Y8.5285
G01 X1.8989 Y8.5299
G01 X1.8900 Y8.5307
G01 X0.2840 Y8.5308
G01 X0.2721 Y8.5302
G01 X0.2602 Y8.5285
G01 X0.2486 Y8.5256
G01 X0.2374 Y8.5215
G01 X0.2240 Y8.5150
G01 X0.2163 Y8.5103
G01 X0.2091 Y8.5050
G01 X0.1979 Y8.4951
G01 X0.1880 Y8.4839
G01 X0.1795 Y8.4716
G01 X0.1752 Y8.4638
G01 X0.1715 Y8.4556
G01 X0.1666 Y8.4415
G01 X0.1645 Y8.4328
G01 X0.1631 Y8.4239
G01 X0.1622 Y8.4090
G01 X0.1623 Y7.8530
G01 X0.1631 Y7.8441
G01 X0.1652 Y7.8323
G01 X0.1683 Y7.8208
G01 X0.1726 Y7.8096
G01 X0.1780 Y7.7990
G01 X0.1827 Y7.7913
G01 X0.1898 Y7.7817
G01 X0.1958 Y7.7750
G01 X0.2044 Y7.7668
G01 X0.2139 Y7.7594
G01 X0.2240 Y7.7530
G01 X0.2319 Y7.7489
G01 X0.2430 Y7.7443
G01 X0.2515 Y7.7416
G01 X0.2602 Y7.7395
G01 X0.2721 Y7.7378
G00 Z2.0000
G00 X2.2471 Y8.6628
G01 F50.00
G01 Z-0.1000
G01 F100.00
G01 X2.2590 Y8.6622
G01 X2.8090 Y8.6622
G01 X2.8239 Y8.6631
G01 X2.8328 Y8.6645
G01 X2.8415 Y8.6666
G01 X2.8500 Y8.6693
G01 X2.8584 Y8.6726
G01 X2.8716 Y8.6795
G01 X2.8791 Y8.6844
G01 X2.8863 Y8.6898
G01 X2.8972 Y8.7000
G01 X2.9032 Y8.7067
G01 X2.9086 Y8.7139
G01 X2.9135 Y8.7214
G01 X2.9178 Y8.7292
G01 X2.9215 Y8.7374
G01 X2.9247 Y8.7458
G01 X2.9271 Y8.7544
G01 X2.9295 Y8.7661
G01 X2.9305 Y8.7750
G01 X2.9308 Y8.7840
G01 X2.9307 Y10.3900
G01 X2.9299 Y10.3989
G01 X2.9285 Y10.4078
G01 X2.9264 Y10.4165
G01 X2.9237 Y10.4250
G01 X2.9204 Y10.4334
G01 X2.9164 Y10.4414
G01 X2.9119 Y10.4492
G01 X2.9068 Y10.4566
G01 X2.9012 Y10.4636
G01 X2.8930 Y10.4722
G01 X2.8863 Y10.4782
G01 X2.8791 Y10.4836
G01 X2.8716 Y10.4885
G01 X2.8638 Y10.4928
G01 X2.8556 Y10.4965
G01 X2.8472 Y10.4997
G01 X2.8386 Y10.5021
G01 X2.8298 Y10.5040
G01 X2.8180 Y10.5055
G01 X2.8090 Y10.5058
G01 X2.2590 Y10.5058
G01 X2.2471 Y10.5052
G01 X2.2323 Y10.5028
G01 X2.2236 Y10.5006
G01 X2.2152 Y10.4976
G01 X2.2069 Y10.4941
G01 X2.1990 Y10.4900
G01 X2.1913 Y10.4853
G01 X2.1841 Y10.4800
G01 X2.1772 Y10.4742
G01 X2.1708 Y10.4680
G01 X2.1648 Y10.4613
G01 X2.1594 Y10.4541
G01 X2.1545 Y10.4466
G01 X2.1502 Y10.4388
G01 X2.1465 Y10.4306
G01 X2.1433 Y10.4222
G01 X2.1409 Y10.4136
G01 X2.1390 Y10.4048
G01 X2.1375 Y10.3930
G01 X2.1372 Y10.3840
G01 X2.1373 Y8.7780
G01 X2.1385 Y8.7661
G01 X2.1409 Y8.7544
G01 X2.1443 Y8.7430
G01 X2.1476 Y8.7346
G01 X2.1530 Y8.7240
G01 X2.1577 Y8.7163
G01 X2.1648 Y8.7067
G01 X2.1708 Y8.7000
G01 X2.1794 Y8.6918
G01 X2.1864 Y8.6862
G01 X2.1938 Y8.6811
G01 X2.2042 Y8.6752
G01 X2.2152 Y8.6704
G01 X2.2265 Y8.6666
G01 X2.2352 Y8.6645
G01 X2.2471 Y8.6628
G00 Z2.0000
G00 X3.0292 Y8.5422
G01 F50.00
G01 Z-0.1000
G01 F100.00
G01 X3.0411 Y8.5411
G01 X3.0590 Y8.5404
G01 X3.6090 Y8.5404
G01 X3.6210 Y8.5407
G01 X3.6329 Y8.5416
G01 X3.6506 Y8.5440
G01 X3.6682 Y8.5477
G01 X3.6797 Y8.5509
G01 X3.6967 Y8.5567
G01 X3.7077 Y8.5613
G01 X3.7185 Y8.5664
G01 X3.7340 Y8.5749
G01 X3.7495 Y8.5664
G01 X3.7658 Y8.5589
G01 X3.7769 Y8.5546
G01 X3.7940 Y8.5492
G01 X3.8115 Y8.5451
G01 X3.8292 Y8.5422
G01 X3.8411 Y8.5411
G01 X3.8590 Y8.5404
G01 X4.4090 Y8.5404
G01 X4.4210 Y8.5407
G01 X4.4329 Y8.5416
G01 X4.4506 Y8.5440
G01 X4.4682 Y8.5477
G01 X4.4797 Y8.5509
G01 X4.4967 Y8.5567
G01 X4.5077 Y8.5613
G01 X4.5185 Y8.5664
G01 X4.5340 Y8.5749
G01 X4.5495 Y8.5664
G01 X4.5658 Y8.5589
G01 X4.5769 Y8.5546
G01 X4.5940 Y8.5492
G01 X4.6115 Y8.5451
G01 X4.6292 Y8.5422
G01 X4.6411 Y8.5411
G01 X4.6590 Y8.5404
G01 X5.2090 Y8.5404
G01 X5.2210 Y8.5407
G01 X5.2329 Y8.5416
G01 X5.2506 Y8.5440
G01 X5.2682 Y8.5477
G01 X5.2797 Y8.5509
G01 X5.2967 Y8.5567
G01 X5.3077 Y8.5613
G01 X5.3185 Y8.5664
G01 X5.3340 Y8.5749
G01 X5.3495 Y8.5664
G01 X5.3658 Y8.5589
G01 X5.3769 Y8.5546
G01 X5.3940 Y8.5492
G01 X5.4115 Y8.5451
G01 X5.4292 Y8.5422
G01 X5.4411 Y8.5411
G01 X5.4590 Y8.5404
G01 X6.0090 Y8.5404
G01 X6.0210 Y8.5407
G01 X6.0329 Y8.5416
G01 X6.0506 Y8.5440
G01 X6.0682 Y8.5477
G01 X6.0797 Y8.5509
G01 X6.0967 Y8.5567
G01 X6.1077 Y8.5613
G01 X6.1185 Y8.5664
G01 X6.1340 Y8.5749
G01 X6.1495 Y8.5664
G01 X6.1658 Y8.5589
G01 X6.1769 Y8.5546
G01 X6.1940 Y8.5492
G01 X6.2115 Y8.5451
G01 X6.2292 Y8.5422
G01 X6.2411 Y8.5411
G01 X6.2590 Y8.5404
G01 X6.8090 Y8.5404
G01 X6.8210 Y8.5407
G01 X6.8329 Y8.5416
G01 X6.8506 Y8.5440
G01 X6.8682 Y8.5477
G01 X6.8797 Y8.5509
G01 X6.8967 Y8.5567
G01 X6.9077 Y8.5613
G01 X6.9185 Y8.5664
G01 X6.9340 Y8.5749
G01 X6.9495 Y8.5664
G01 X6.9658 Y8.5589
G01 X6.9769 Y8.5546
G01 X6.9940 Y8.5492
G01 X7.0115 Y8.5451
G01 X7.0233 Y8.5430
G01 X7.0411 Y8.5411
G01 X7.0530 Y8.5405
G01 X7.6090 Y8.5404
G01 X7.6210 Y8.5407
G01 X7.6329 Y8.5416
G01 X7.6506 Y8.5440
G01 X7.6682 Y8.5477
G01 X7.6797 Y8.5509
G01 X7.6967 Y8.5567
G01 X7.7077 Y8.5613
G01 X7.7185 Y8.5664
G01 X7.7340 Y8.5749
G01 X7.7495 Y8.5664
G01 X7.7658 Y8.5589
G01 X7.7769 Y8.5546
G01 X7.7940 Y8.5492
G01 X7.8115 Y8.5451
G01 X7.8233 Y8.5430
G01 X7.8351 Y8.5416
G01 X7.8530 Y8.5405
G01 X8.4150 Y8.5405
G01 X8.4329 Y8.5416
G01 X8.4506 Y8.5440
G01 X8.4682 Y8.5477
G01 X8.4854 Y8.5527
G01 X8.5022 Y8.5589
G01 X8.5185 Y8.5664
G01 X8.5342 Y8.5751
G01 X8.5493 Y8.5848
G01 X8.5635 Y8.5957
G01 X8.5770 Y8.6076
G01 X8.5895 Y8.6204
G01 X8.6010 Y8.6341
G01 X8.6115 Y8.6487
G01 X8.6210 Y8.6639
G01 X8.6292 Y8.6798
G01 X8.6363 Y8.6963
G01 X8.6421 Y8.7133
G01 X8.6467 Y8.7306
G01 X8.6500 Y8.7483
G01 X8.6519 Y8.7661
G01 X8.6526 Y8.7840
G01 X8.6526 Y10.3840
G01 X8.6519 Y10.4019
G01 X8.6500 Y10.4197
G01 X8.6467 Y10.4374
G01 X8.6438 Y10.4490
G01 X8.6403 Y10.4604
G01 X8.6341 Y10.4772
G01 X8.6266 Y10.4935
G01 X8.6179 Y10.5092
G01 X8.6115 Y10.5193
G01 X8.6047 Y10.5291
G01 X8.5935 Y10.5431
G01 X8.5813 Y10.5563
G01 X8.5681 Y10.5685
G01 X8.5541 Y10.5797
G01 X8.5393 Y10.5898
G01 X8.5238 Y10.5988
G01 X8.5077 Y10.6067
G01 X8.4967 Y10.6113
G01 X8.4854 Y10.6153
G01 X8.4682 Y10.6203
G01 X8.4506 Y10.6240
G01 X8.4329 Y10.6264
G01 X8.4150 Y10.6275
G01 X7.8590 Y10.6276
G01 X7.8470 Y10.6273
G01 X7.8351 Y10.6264
G01 X7.8174 Y10.6240
G01 X7.8056 Y10.6217
G01 X7.7883 Y10.6171
G01 X7.7713 Y10.6113
G01 X7.7603 Y10.6067
G01 X7.7495 Y10.6016
G01 X7.7340 Y10.5931
G01 X7.7185 Y10.6016
G01 X7.7022 Y10.6091
G01 X7.6854 Y10.6153
G01 X7.6740 Y10.6188
G01 X7.6565 Y10.6229
G01 X7.6447 Y10.6250
G01 X7.6269 Y10.6269
G01 X7.6090 Y10.6276
G01 X7.0590 Y10.6276
G01 X7.0470 Y10.6273
G01 X7.0351 Y10.6264
G01 X7.0174 Y10.6240
G01 X7.0056 Y10.6217
G01 X6.9883 Y10.6171
G01 X6.9713 Y10.6113
G01 X6.9603 Y10.6067
G01 X6.9495 Y10.6016
G01 X6.9340 Y10.5931
G01 X6.9185 Y10.6016
G01 X6.9022 Y10.6091
G01 X6.8854 Y10.6153
G01 X6.8740 Y10.6188
G01 X6.8565 Y10.6229
G01 X6.8447 Y10.6250
G01 X6.8269 Y10.6269
G01 X6.8090 Y10.6276
G01 X6.2590 Y10.6276
G01 X6.2470 Y10.6273
G01 X6.2351 Y10.6264
G01 X6.2174 Y10.6240
G01 X6.2056 Y10.6217
G01 X6.1883 Y10.6171
G01 X6.1713 Y10.6113
G01 X6.1603 Y10.6067
G01 X6.1495 Y10.6016
G01 X6.1340 Y10.5931
G01 X6.1185 Y10.6016
G01 X6.1022 Y10.6091
G01 X6.0854 Y10.6153
G01 X6.0740 Y10.6188
G01 X6.0565 Y10.6229
G01 X6.0447 Y10.6250
G01 X6.0269 Y10.6269
G01 X6.0090 Y10.6276
G01 X5.4590 Y10.6276
G01 X5.4470 Y10.6273
G01 X5.4351 Y10.6264
G01 X5.4174 Y10.6240
G01 X5.4056 Y10.6217
G01 X5.3883 Y10.6171
G01 X5.3713 Y10.6113
G01 X5.3603 Y10.6067
G01 X5.3495 Y10.6016
G01 X5.3340 Y10.5931
G01 X5.3185 Y10.6016
G01 X5.3022 Y10.6091
G01 X5.2854 Y10.6153
G01 X5.2740 Y10.6188
G01 X5.2565 Y10.6229
G01 X5.2447 Y10.6250
G01 X5.2269 Y10.6269
G01 X5.2090 Y10.6276
G01 X4.6590 Y10.6276
G01 X4.6470 Y10.6273
G01 X4.6351 Y10.6264
G01 X4.6174 Y10.6240
G01 X4.6056 Y10.6217
G01 X4.5883 Y10.6171
G01 X4.5713 Y10.6113
G01 X4.5603 Y10.6067
G01 X4.5495 Y10.6016
G01 X4.5340 Y10.5931
G01 X4.5185 Y10.6016
G01 X4.5022 Y10.6091
G01 X4.4854 Y10.6153
G01 X4.4740 Y10.6188
G01 X4.4565 Y10.6229
G01 X4.4447 Y10.6250
G01 X4.4269 Y10.6269
G01 X4.4090 Y10.6276
G01 X3.8590 Y10.6276
G01 X3.8470 Y10.6273
G01 X3.8351 Y10.6264
G01 X3.8174 Y10.6240
G01 X3.8056 Y10.6217
G01 X3.7883 Y10.6171
G01 X3.7713 Y10.6113
G01 X3.7603 Y10.6067
G01 X3.7495 Y10.6016
G01 X3.7340 Y10.5931
G01 X3.7185 Y10.6016
G01 X3.7022 Y10.6091
G01 X3.6854 Y10.6153
G01 X3.6740 Y10.6188
G01 X3.6565 Y10.6229
G01 X3.6388 Y10.6258
G01 X3.6269 Y10.6269
G01 X3.6090 Y10.6276
G01 X3.0590 Y10.6276
G01 X3.0470 Y10.6273
G01 X3.0351 Y10.6264
G01 X3.0174 Y10.6240
G01 X3.0056 Y10.6217
G01 X2.9883 Y10.6171
G01 X2.9713 Y10.6113
G01 X2.9603 Y10.6067
G01 X2.9495 Y10.6016
G01 X2.9340 Y10.5931
G01 X2.9185 Y10.6016
G01 X2.9022 Y10.6091
G01 X2.8854 Y10.6153
G01 X2.8740 Y10.6188
G01 X2.8565 Y10.6229
G01 X2.8447 Y10.6250
G01 X2.8329 Y10.6264
G01 X2.8150 Y10.6275
G01 X2.2530 Y10.6275
G01 X2.2351 Y10.6264
G01 X2.2233 Y10.6250
G01 X2.2115 Y10.6229
G01 X2.1998 Y10.6203
G01 X2.1883 Y10.6171
G01 X2.1769 Y10.6134
G01 X2.1658 Y10.6091
G01 X2.1495 Y10.6016
G01 X2.1338 Y10.5929
G01 X2.1187 Y10.5832
G01 X2.1045 Y10.5723
G01 X2.0910 Y10.5604
G01 X2.0826 Y10.5520
G01 X2.0707 Y10.5385
G01 X2.0598 Y10.5243
G01 X2.0532 Y10.5143
G01 X2.0442 Y10.4988
G01 X2.0363 Y10.4827
G01 X2.0296 Y10.4661
G01 X2.0259 Y10.4547
G01 X2.0213 Y10.4374
G01 X2.0180 Y10.4197
G01 X2.0161 Y10.4019
G01 X2.0154 Y10.3840
G01 X2.0154 Y8.7840
G01 X2.0157 Y8.7720
G01 X2.0166 Y8.7601
G01 X2.0180 Y8.7483
G01 X2.0201 Y8.7365
G01 X2.0227 Y8.7248
G01 X2.0259 Y8.7133
G01 X2.0296 Y8.7019
G01 X2.0339 Y8.6908
G01 X2.0414 Y8.6745
G01 X2.0470 Y8.6639
G01 X2.0565 Y8.6487
G01 X2.0633 Y8.6389
G01 X2.0745 Y8.6249
G01 X2.0867 Y8.6117
G01 X2.0954 Y8.6035
G01 X2.1091 Y8.5920
G01 X2.1237 Y8.5815
G01 X2.1338 Y8.5751
G01 X2.1495 Y8.5664
G01 X2.1603 Y8.5613
G01 X2.1769 Y8.5546
G01 X2.1883 Y8.5509
G01 X2.2056 Y8.5463
G01 X2.2233 Y8.5430
G01 X2.2411 Y8.5411
G01 X2.2590 Y8.5404
G01 X2.8090 Y8.5404
G01 X2.8210 Y8.5407
G01 X2.8329 Y8.5416
G01 X2.8506 Y8.5440
G01 X2.8682 Y8.5477
G01 X2.8797 Y8.5509
G01 X2.8967 Y8.5567
G01 X2.9077 Y8.5613
G01 X2.9185 Y8.5664
G01 X2.9340 Y8.5749
G01 X2.9495 Y8.5664
G01 X2.9603 Y8.5613
G01 X2.9713 Y8.5567
G01 X2.9826 Y8.5527
G01 X2.9940 Y8.5492
G01 X3.0056 Y8.5463
G01 X3.0174 Y8.5440
G01 X3.0292 Y8.5422
G00 Z2.0000
G00 X3.0441 Y8.6631
G01 F50.00
G01 Z-0.1000
G01 F100.00
G01 X3.0590 Y8.6622
G01 X3.6090 Y8.6622
G01 X3.6239 Y8.6631
G01 X3.6328 Y8.6645
G01 X3.6415 Y8.6666
G01 X3.6500 Y8.6693
G01 X3.6584 Y8.6726
G01 X3.6716 Y8.6795
G01 X3.6791 Y8.6844
G01 X3.6863 Y8.6898
G01 X3.6972 Y8.7000
G01 X3.7032 Y8.7067
G01 X3.7086 Y8.7139
G01 X3.7135 Y8.7214
G01 X3.7178 Y8.7292
G01 X3.7215 Y8.7374
G01 X3.7247 Y8.7458
G01 X3.7271 Y8.7544
G01 X3.7295 Y8.7661
G01 X3.7305 Y8.7750
G01 X3.7308 Y8.7840
G01 X3.7307 Y10.3900
G01 X3.7299 Y10.3989
G01 X3.7285 Y10.4078
G01 X3.7264 Y10.4165
G01 X3.7237 Y10.4250
G01 X3.7204 Y10.4334
G01 X3.7164 Y10.4414
G01 X3.7119 Y10.4492
G01 X3.7068 Y10.4566
G01 X3.7012 Y10.4636
G01 X3.6930 Y10.4722
G01 X3.6863 Y10.4782
G01 X3.6791 Y10.4836
G01 X3.6716 Y10.4885
G01 X3.6638 Y10.4928
G01 X3.6556 Y10.4965
G01 X3.6472 Y10.4997
G01 X3.6386 Y10.5021
G01 X3.6298 Y10.5040
G01 X3.6180 Y10.5055
G01 X3.6090 Y10.5058
G01 X3.0590 Y10.5058
G01 X3.0471 Y10.5052
G01 X3.0323 Y10.5028
G01 X3.0236 Y10.5006
G01 X3.0152 Y10.4976
G01 X3.0069 Y10.4941
G01 X2.9990 Y10.4900
G01 X2.9913 Y10.4853
G01 X2.9841 Y10.4800
G01 X2.9772 Y10.4742
G01 X2.9708 Y10.4680
G01 X2.9648 Y10.4613
G01 X2.9594 Y10.4541
G01 X2.9545 Y10.4466
G01 X2.9502 Y10.4388
G01 X2.9465 Y10.4306
G01 X2.9433 Y10.4222
G01 X2.9409 Y10.4136
G01 X2.9390 Y10.4048
G01 X2.9375 Y10.3930
G01 X2.9372 Y10.3840
G01 X2.9373 Y8.7780
G01 X2.9381 Y8.7691
G01 X2.9402 Y8.7573
G01 X2.9433 Y8.7458
G01 X2.9465 Y8.7374
G01 X2.9516 Y8.7266
G01 X2.9561 Y8.7188
G01 X2.9612 Y8.7114
G01 X2.9688 Y8.7022
G01 X2.9750 Y8.6958
G01 X2.9841 Y8.6880
G01 X2.9938 Y8.6811
G01 X3.0042 Y8.6752
G01 X3.0152 Y8.6704
G01 X3.0236 Y8.6674
G01 X3.0352 Y8.6645
G01 X3.0441 Y8.6631
G00 Z2.0000
G00 X3.8441 Y8.6631
G01 F50.00
G01 Z-0.1000
G01 F100.00
G01 X3.8590 Y8.6622
G01 X4.4090 Y8.6622
G01 X4.4239 Y8.6631
G01 X4.4328 Y8.6645
G01 X4.4415 Y8.6666
G01 X4.4500 Y8.6693
G01 X4.4584 Y8.6726
G01 X4.4664 Y8.6766
G01 X4.4742 Y8.6811
G01 X4.4863 Y8.6898
G01 X4.4972 Y8.7000
G01 X4.5032 Y8.7067
G01 X4.5086 Y8.7139
G01 X4.5135 Y8.7214
G01 X4.5178 Y8.7292
G01 X4.5215 Y8.7374
G01 X4.5247 Y8.7458
G01 X4.5271 Y8.7544
G01 X4.5295 Y8.7661
G01 X4.5305 Y8.7750
G01 X4.5308 Y8.7840
G01 X4.5307 Y10.3900
G01 X4.5299 Y10.3989
G01 X4.5285 Y10.4078
G01 X4.5264 Y10.4165
G01 X4.5237 Y10.4250
G01 X4.5204 Y10.4334
G01 X4.5164 Y10.4414
G01 X4.5119 Y10.4492
G01 X4.5068 Y10.4566
G01 X4.5012 Y10.4636
G01 X4.4951 Y10.4701
G01 X4.4886 Y10.4762
G01 X4.4816 Y10.4818
G01 X4.4742 Y10.4869
G01 X4.4638 Y10.4928
G01 X4.4556 Y10.4965
G01 X4.4472 Y10.4997
G01 X4.4386 Y10.5021
G01 X4.4298 Y10.5040
G01 X4.4180 Y10.5055
G01 X4.4090 Y10.5058
G01 X3.8590 Y10.5058
G01 X3.8471 Y10.5052
G01 X3.8323 Y10.5028
G01 X3.8236 Y10.5006
G01 X3.8152 Y10.4976
G01 X3.8069 Y10.4941
G01 X3.7990 Y10.4900
G01 X3.7913 Y10.4853
G01 X3.7841 Y10.4800
G01 X3.7772 Y10.4742
G01 X3.7708 Y10.4680
G01 X3.7648 Y10.4613
G01 X3.7594 Y10.4541
G01 X3.7545 Y10.4466
G01 X3.7502 Y10.4388
G01 X3.7465 Y10.4306
G01 X3.7433 Y10.4222
G01 X3.7409 Y10.4136
G01 X3.7390 Y10.4048
G01 X3.7375 Y10.3930
G01 X3.7372 Y10.3840
G01 X3.7373 Y8.7780
G01 X3.7381 Y8.7691
G01 X3.7402 Y8.7573
G01 X3.7433 Y8.7458
G01 X3.7465 Y8.7374
G01 X3.7516 Y8.7266
G01 X3.7561 Y8.7188
G01 X3.7612 Y8.7114
G01 X3.7688 Y8.7022
G01 X3.7750 Y8.6958
G01 X3.7841 Y8.6880
G01 X3.7938 Y8.6811
G01 X3.8042 Y8.6752
G01 X3.8152 Y8.6704
G01 X3.8236 Y8.6674
G01 X3.8352 Y8.6645
G01 X3.8441 Y8.6631
G00 Z2.0000
G00 X4.6441 Y8.6631
G01 F50.00
G01 Z-0.1000
G01 F100.00
G01 X4.6590 Y8.6622
G01 X5.2090 Y8.6622
G01 X5.2239 Y8.6631
G01 X5.2328 Y8.6645
G01 X5.2415 Y8.6666
G01 X5.2500 Y8.6693
G01 X5.2584 Y8.6726
G01 X5.2664 Y8.6766
G01 X5.2742 Y8.6811
G01 X5.2863 Y8.6898
G01 X5.2972 Y8.7000
G01 X5.3032 Y8.7067
G01 X5.3086 Y8.7139
G01 X5.3135 Y8.7214
G01 X5.3178 Y8.7292
G01 X5.3215 Y8.7374
G01 X5.3247 Y8.7458
G01 X5.3271 Y8.7544
G01 X5.3295 Y8.7661
G01 X5.3305 Y8.7750
G01 X5.3308 Y8.7840
G01 X5.3307 Y10.3900
G01 X5.3299 Y10.3989
G01 X5.3285 Y10.4078
G01 X5.3264 Y10.4165
G01 X5.3237 Y10.4250
G01 X5.3204 Y10.4334
G01 X5.3164 Y10.4414
G01 X5.3119 Y10.4492
G01 X5.3068 Y10.4566
G01 X5.3012 Y10.4636
G01 X5.2951 Y10.4701
G01 X5.2886 Y10.4762
G01 X5.2816 Y10.4818
G01 X5.2742 Y10.4869
G01 X5.2638 Y10.4928
G01 X5.2556 Y10.4965
G01 X5.2472 Y10.4997
G01 X5.2386 Y10.5021
G01 X5.2298 Y10.5040
G01 X5.2180 Y10.5055
G01 X5.2090 Y10.5058
G01 X4.6590 Y10.5058
G01 X4.6471 Y10.5052
G01 X4.6323 Y10.5028
G01 X4.6236 Y10.5006
G01 X4.6152 Y10.4976
G01 X4.6069 Y10.4941
G01 X4.5990 Y10.4900
G01 X4.5913 Y10.4853
G01 X4.5841 Y10.4800
G01 X4.5772 Y10.4742
G01 X4.5708 Y10.4680
G01 X4.5648 Y10.4613
G01 X4.5594 Y10.4541
G01 X4.5545 Y10.4466
G01 X4.5502 Y10.4388
G01 X4.5465 Y10.4306
G01 X4.5433 Y10.4222
G01 X4.5409 Y10.4136
G01 X4.5390 Y10.4048
G01 X4.5375 Y10.3930
G01 X4.5372 Y10.3840
G01 X4.5373 Y8.7780
G01 X4.5385 Y8.7661
G01 X4.5402 Y8.7573
G01 X4.5433 Y8.7458
G01 X4.5465 Y8.7374
G01 X4.5516 Y8.7266
G01 X4.5561 Y8.7188
G01 X4.5612 Y8.7114
G01 X4.5688 Y8.7022
G01 X4.5750 Y8.6958
G01 X4.5841 Y8.6880
G01 X4.5938 Y8.6811
G01 X4.6016 Y8.6766
G01 X4.6124 Y8.6715
G01 X4.6208 Y8.6683
G01 X4.6323 Y8.6652
G01 X4.6441 Y8.6631
G00 Z2.0000
G00 X5.4441 Y8.6631
G01 F50.00
G01 Z-0.1000
G01 F100.00
G01 X5.4590 Y8.6622
G01 X6.0090 Y8.6622
G01 X6.0239 Y8.6631
G01 X6.0328 Y8.6645
G01 X6.0415 Y8.6666
G01 X6.0500 Y8.6693
G01 X6.0584 Y8.6726
G01 X6.0664 Y8.6766
G01 X6.0742 Y8.6811
G01 X6.0863 Y8.6898
G01 X6.0972 Y8.7000
G01 X6.1032 Y8.7067
G01 X6.1086 Y8.7139
G01 X6.1135 Y8.7214
G01 X6.1178 Y8.7292
G01 X6.1215 Y8.7374
G01 X6.1247 Y8.7458
G01 X6.1271 Y8.7544
G01 X6.1295 Y8.7661
G01 X6.1305 Y8.7750
G01 X6.1308 Y8.7840
G01 X6.1307 Y10.3900
G01 X6.1299 Y10.3989
G01 X6.1285 Y10.4078
G01 X6.1264 Y10.4165
G01 X6.1237 Y10.4250
G01 X6.1204 Y10.4334
G01 X6.1164 Y10.4414
G01 X6.1119 Y10.4492
G01 X6.1068 Y10.4566
G01 X6.1012 Y10.4636
G01 X6.0951 Y10.4701
G01 X6.0886 Y10.4762
G01 X6.0816 Y10.4818
G01 X6.0742 Y10.4869
G01 X6.0638 Y10.4928
G01 X6.0556 Y10.4965
G01 X6.0472 Y10.4997
G01 X6.0386 Y10.5021
G01 X6.0298 Y10.5040
G01 X6.0180 Y10.5055
G01 X6.0090 Y10.5058
G01 X5.4590 Y10.5058
G01 X5.4471 Y10.5052
G01 X5.4323 Y10.5028
G01 X5.4236 Y10.5006
G01 X5.4152 Y10.4976
G01 X5.4069 Y10.4941
G01 X5.3990 Y10.4900
G01 X5.3913 Y10.4853
G01 X5.3841 Y10.4800
G01 X5.3772 Y10.4742
G01 X5.3708 Y10.4680
G01 X5.3648 Y10.4613
G01 X5.3594 Y10.4541
G01 X5.3545 Y10.4466
G01 X5.3502 Y10.4388
G01 X5.3465 Y10.4306
G01 X5.3433 Y10.4222
G01 X5.3409 Y10.4136
G01 X5.3390 Y10.4048
G01 X5.3375 Y10.3930
G01 X5.3372 Y10.3840
G01 X5.3373 Y8.7780
G01 X5.3385 Y8.7661
G01 X5.3402 Y8.7573
G01 X5.3433 Y8.7458
G01 X5.3465 Y8.7374
G01 X5.3516 Y8.7266
G01 X5.3561 Y8.7188
G01 X5.3612 Y8.7114
G01 X5.3688 Y8.7022
G01 X5.3750 Y8.6958
G01 X5.3841 Y8.6880
G01 X5.3938 Y8.6811
G01 X5.4016 Y8.6766
G01 X5.4124 Y8.6715
G01 X5.4208 Y8.6683
G01 X5.4323 Y8.6652
G01 X5.4441 Y8.6631
G00 Z2.0000
G00 X6.2411 Y8.6635
G01 F50.00
G01 Z-0.1000
G01 F100.00
G01 X6.2500 Y8.6625
G01 X6.2590 Y8.6622
G01 X6.8090 Y8.6622
G01 X6.8239 Y8.6631
G01 X6.8328 Y8.6645
G01 X6.8415 Y8.6666
G01 X6.8500 Y8.6693
G01 X6.8584 Y8.6726
G01 X6.8664 Y8.6766
G01 X6.8742 Y8.6811
G01 X6.8863 Y8.6898
G01 X6.8972 Y8.7000
G01 X6.9032 Y8.7067
G01 X6.9086 Y8.7139
G01 X6.9135 Y8.7214
G01 X6.9178 Y8.7292
G01 X6.9215 Y8.7374
G01 X6.9247 Y8.7458
G01 X6.9271 Y8.7544
G01 X6.9295 Y8.7661
G01 X6.9305 Y8.7750
G01 X6.9308 Y8.7840
G01 X6.9307 Y10.3900
G01 X6.9299 Y10.3989
G01 X6.9285 Y10.4078
G01 X6.9264 Y10.4165
G01 X6.9237 Y10.4250
G01 X6.9204 Y10.4334
G01 X6.9164 Y10.4414
G01 X6.9119 Y10.4492
G01 X6.9068 Y10.4566
G01 X6.9012 Y10.4636
G01 X6.8951 Y10.4701
G01 X6.8886 Y10.4762
G01 X6.8816 Y10.4818
G01 X6.8742 Y10.4869
G01 X6.8638 Y10.4928
G01 X6.8556 Y10.4965
G01 X6.8472 Y10.4997
G01 X6.8386 Y10.5021
G01 X6.8298 Y10.5040
G01 X6.8180 Y10.5055
G01 X6.8090 Y10.5058
G01 X6.2590 Y10.5058
G01 X6.2471 Y10.5052
G01 X6.2323 Y10.5028
G01 X6.2236 Y10.5006
G01 X6.2152 Y10.4976
G01 X6.2069 Y10.4941
G01 X6.1990 Y10.4900
G01 X6.1913 Y10.4853
G01 X6.1841 Y10.4800
G01 X6.1772 Y10.4742
G01 X6.1708 Y10.4680
G01 X6.1648 Y10.4613
G01 X6.1594 Y10.4541
G01 X6.1545 Y10.4466
G01 X6.1502 Y10.4388
G01 X6.1465 Y10.4306
G01 X6.1433 Y10.4222
G01 X6.1409 Y10.4136
G01 X6.1390 Y10.4048
G01 X6.1375 Y10.3930
G01 X6.1372 Y10.3840
G01 X6.1373 Y8.7780
G01 X6.1385 Y8.7661
G01 X6.1402 Y8.7573
G01 X6.1433 Y8.7458
G01 X6.1465 Y8.7374
G01 X6.1516 Y8.7266
G01 X6.1561 Y8.7188
G01 X6.1612 Y8.7114
G01 X6.1688 Y8.7022
G01 X6.1750 Y8.6958
G01 X6.1841 Y8.6880
G01 X6.1938 Y8.6811
G01 X6.2016 Y8.6766
G01 X6.2124 Y8.6715
G01 X6.2208 Y8.6683
G01 X6.2294 Y8.6659
G01 X6.2411 Y8.6635
G00 Z2.0000
G00 X7.0411 Y8.6635
G01 F50.00
G01 Z-0.1000
G01 F100.00
G01 X7.0500 Y8.6625
G01 X7.0590 Y8.6622
G01 X7.6090 Y8.6622
G01 X7.6239 Y8.6631
G01 X7.6328 Y8.6645
G01 X7.6415 Y8.6666
G01 X7.6500 Y8.6693
G01 X7.6584 Y8.6726
G01 X7.6664 Y8.6766
G01 X7.6742 Y8.6811
G01 X7.6863 Y8.6898
G01 X7.6972 Y8.7000
G01 X7.7032 Y8.7067
G01 X7.7086 Y8.7139
G01 X7.7135 Y8.7214
G01 X7.7178 Y8.7292
G01 X7.7215 Y8.7374
G01 X7.7247 Y8.7458
G01 X7.7271 Y8.7544
G01 X7.7295 Y8.7661
G01 X7.7305 Y8.7750
G01 X7.7308 Y8.7840
G01 X7.7307 Y10.3900
G01 X7.7299 Y10.3989
G01 X7.7285 Y10.4078
G01 X7.7264 Y10.4165
G01 X7.7237 Y10.4250
G01 X7.7204 Y10.4334
G01 X7.7164 Y10.4414
G01 X7.7119 Y10.4492
G01 X7.7068 Y10.4566
G01 X7.7012 Y10.4636
G01 X7.6951 Y10.4701
G01 X7.6886 Y10.4762
G01 X7.6816 Y10.4818
G01 X7.6742 Y10.4869
G01 X7.6638 Y10.4928
G01 X7.6556 Y10.4965
G01 X7.6472 Y10.4997
G01 X7.6386 Y10.5021
G01 X7.6298 Y10.5040
G01 X7.6180 Y10.5055
G01 X7.6090 Y10.5058
G01 X7.0590 Y10.5058
G01 X7.0471 Y10.5052
G01 X7.0323 Y10.5028
G01 X7.0236 Y10.5006
G01 X7.0152 Y10.4976
G01 X7.0069 Y10.4941
G01 X6.9990 Y10.4900
G01 X6.9913 Y10.4853
G01 X6.9841 Y10.4800
G01 X6.9772 Y10.4742
G01 X6.9708 Y10.4680
G01 X6.9648 Y10.4613
G01 X6.9594 Y10.4541
G01 X6.9545 Y10.4466
G01 X6.9502 Y10.4388
G01 X6.9465 Y10.4306
G01 X6.9433 Y10.4222
G01 X6.9409 Y10.4136
G01 X6.9390 Y10.4048
G01 X6.9375 Y10.3930
G01 X6.9372 Y10.3840
G01 X6.9373 Y8.7780
G01 X6.9385 Y8.7661
G01 X6.9402 Y8.7573
G01 X6.9433 Y8.7458
G01 X6.9465 Y8.7374
G01 X6.9516 Y8.7266
G01 X6.9561 Y8.7188
G01 X6.9612 Y8.7114
G01 X6.9688 Y8.7022
G01 X6.9750 Y8.6958
G01 X6.9841 Y8.6880
G01 X6.9938 Y8.6811
G01 X7.0016 Y8.6766
G01 X7.0124 Y8.6715
G01 X7.0208 Y8.6683
G01 X7.0294 Y8.6659
G01 X7.0411 Y8.6635
G00 Z2.0000
G00 X7.8441 Y8.6631
G01 F50.00
G01 Z-0.1000
G01 F100.00
G01 X7.8590 Y8.6622
G01 X8.4090 Y8.6622
G01 X8.4239 Y8.6631
G01 X8.4328 Y8.6645
G01 X8.4415 Y8.6666
G01 X8.4500 Y8.6693
G01 X8.4584 Y8.6726
G01 X8.4716 Y8.6795
G01 X8.4791 Y8.6844
G01 X8.4863 Y8.6898
G01 X8.4930 Y8.6958
G01 X8.4992 Y8.7022
G01 X8.5050 Y8.7091
G01 X8.5103 Y8.7163
G01 X8.5150 Y8.7240
G01 X8.5191 Y8.7319
G01 X8.5247 Y8.7458
G01 X8.5271 Y8.7544
G01 X8.5290 Y8.7632
G01 X8.5302 Y8.7721
G01 X8.5308 Y8.7840
G01 X8.5307 Y10.3900
G01 X8.5299 Y10.3989
G01 X8.5285 Y10.4078
G01 X8.5264 Y10.4165
G01 X8.5237 Y10.4250
G01 X8.5204 Y10.4334
G01 X8.5164 Y10.4414
G01 X8.5119 Y10.4492
G01 X8.5068 Y10.4566
G01 X8.5012 Y10.4636
G01 X8.4951 Y10.4701
G01 X8.4863 Y10.4782
G01 X8.4791 Y10.4836
G01 X8.4716 Y10.4885
G01 X8.4638 Y10.4928
G01 X8.4556 Y10.4965
G01 X8.4472 Y10.4997
G01 X8.4386 Y10.5021
G01 X8.4298 Y10.5040
G01 X8.4180 Y10.5055
G01 X8.4090 Y10.5058
G01 X7.8590 Y10.5058
G01 X7.8471 Y10.5052
G01 X7.8323 Y10.5028
G01 X7.8236 Y10.5006
G01 X7.8152 Y10.4976
G01 X7.8069 Y10.4941
G01 X7.7990 Y10.4900
G01 X7.7913 Y10.4853
G01 X7.7841 Y10.4800
G01 X7.7772 Y10.4742
G01 X7.7708 Y10.4680
G01 X7.7648 Y10.4613
G01 X7.7594 Y10.4541
G01 X7.7545 Y10.4466
G01 X7.7502 Y10.4388
G01 X7.7465 Y10.4306
G01 X7.7433 Y10.4222
G01 X7.7409 Y10.4136
G01 X7.7390 Y10.4048
G01 X7.7375 Y10.3930
G01 X7.7372 Y10.3840
G01 X7.7373 Y8.7780
G01 X7.7381 Y8.7691
G01 X7.7402 Y8.7573
G01 X7.7424 Y8.7486
G01 X7.7465 Y8.7374
G01 X7.7502 Y8.7292
G01 X7.7561 Y8.7188
G01 X7.7612 Y8.7114
G01 X7.7688 Y8.7022
G01 X7.7772 Y8.6938
G01 X7.7864 Y8.6862
G01 X7.7964 Y8.6795
G01 X7.8042 Y8.6752
G01 X7.8152 Y8.6704
G01 X7.8236 Y8.6674
G01 X7.8352 Y8.6645
G01 X7.8441 Y8.6631
G00 Z2.0000
G00 X8.7691 Y7.7381
G01 F50.00
G01 Z-0.1000
G01 F100.00
G01 X8.7840 Y7.7372
G01 X10.3840 Y7.7372
G01 X10.3959 Y7.7378
G01 X10.4078 Y7.7395
G01 X10.4194 Y7.7424
G01 X10.4306 Y7.7465
G01 X10.4440 Y7.7530
G01 X10.4517 Y7.7577
G01 X10.4589 Y7.7630
G01 X10.4658 Y7.7688
G01 X10.4722 Y7.7750
G01 X10.4818 Y7.7864
G01 X10.4869 Y7.7938
G01 X10.4914 Y7.8016
G01 X10.4976 Y7.8152
G01 X10.5006 Y7.8236
G01 X10.5028 Y7.8323
G01 X10.5052 Y7.8471
G01 X10.5058 Y7.8590
G01 X10.5058 Y8.4120
G01 X10.5049 Y8.4239
G01 X10.5028 Y8.4357
G01 X10.4997 Y8.4472
G01 X10.4965 Y8.4556
G01 X10.4928 Y8.4638
G01 X10.4885 Y8.4716
G01 X10.4836 Y8.4791
G01 X10.4782 Y8.4863
G01 X10.4722 Y8.4930
G01 X10.4658 Y8.4992
G01 X10.4541 Y8.5086
G01 X10.4414 Y8.5164
G01 X10.4334 Y8.5204
G01 X10.4250 Y8.5237
G01 X10.4165 Y8.5264
G01 X10.4078 Y8.5285
G01 X10.3989 Y8.5299
G01 X10.3900 Y8.5307
G01 X8.7840 Y8.5308
G01 X8.7721 Y8.5302
G01 X8.7602 Y8.5285
G01 X8.7486 Y8.5256
G01 X8.7374 Y8.5215
G01 X8.7240 Y8.5150
G01 X8.7163 Y8.5103
G01 X8.7091 Y8.5050
G01 X8.7022 Y8.4992
G01 X8.6958 Y8.4930
G01 X8.6862 Y8.4816
G01 X8.6780 Y8.4690
G01 X8.6739 Y8.4611
G01 X8.6704 Y8.4528
G01 X8.6659 Y8.4386
G01 X8.6631 Y8.4239
G01 X8.6622 Y8.4090
G01 X8.6623 Y7.8530
G01 X8.6635 Y7.8411
G01 X8.6652 Y7.8323
G01 X8.6674 Y7.8236
G01 X8.6715 Y7.8124
G01 X8.6752 Y7.8042
G01 X8.6811 Y7.7938
G01 X8.6880 Y7.7841
G01 X8.6938 Y7.7772
G01 X8.7022 Y7.7688
G01 X8.7114 Y7.7612
G01 X8.7214 Y7.7545
G01 X8.7292 Y7.7502
G01 X8.7402 Y7.7454
G01 X8.7486 Y7.7424
G01 X8.7573 Y7.7402
G01 X8.7691 Y7.7381
G00 Z2.0000
G00 X8.7661 Y6.9385
G01 F50.00
G01 Z-0.1000
G01 F100.00
G01 X8.7750 Y6.9375
G01 X8.7840 Y6.9372
G01 X10.3840 Y6.9372
G01 X10.3959 Y6.9378
G01 X10.4078 Y6.9395
G01 X10.4194 Y6.9424
G01 X10.4306 Y6.9465
G01 X10.4388 Y6.9502
G01 X10.4466 Y6.9545
G01 X10.4589 Y6.9630
G01 X10.4658 Y6.9688
G01 X10.4722 Y6.9750
G01 X10.4818 Y6.9864
G01 X10.4900 Y6.9990
G01 X10.4941 Y7.0069
G01 X10.4976 Y7.0152
G01 X10.5006 Y7.0236
G01 X10.5028 Y7.0323
G01 X10.5052 Y7.0471
G01 X10.5058 Y7.0590
G01 X10.5058 Y7.6120
G01 X10.5049 Y7.6239
G01 X10.5035 Y7.6328
G01 X10.5006 Y7.6444
G01 X10.4965 Y7.6556
G01 X10.4928 Y7.6638
G01 X10.4885 Y7.6716
G01 X10.4800 Y7.6839
G01 X10.4742 Y7.6908
G01 X10.4680 Y7.6972
G01 X10.4613 Y7.7032
G01 X10.4541 Y7.7086
G01 X10.4466 Y7.7135
G01 X10.4388 Y7.7178
G01 X10.4250 Y7.7237
G01 X10.4165 Y7.7264
G01 X10.4078 Y7.7285
G01 X10.3989 Y7.7299
G01 X10.3900 Y7.7307
G01 X8.7840 Y7.7308
G01 X8.7721 Y7.7302
G01 X8.7602 Y7.7285
G01 X8.7486 Y7.7256
G01 X8.7374 Y7.7215
G01 X8.7240 Y7.7150
G01 X8.7114 Y7.7068
G01 X8.7044 Y7.7012
G01 X8.6979 Y7.6951
G01 X8.6880 Y7.6839
G01 X8.6795 Y7.6716
G01 X8.6752 Y7.6638
G01 X8.6715 Y7.6556
G01 X8.6666 Y7.6415
G01 X8.6645 Y7.6328
G01 X8.6631 Y7.6239
G01 X8.6622 Y7.6090
G01 X8.6622 Y7.0560
G01 X8.6628 Y7.0471
G01 X8.6645 Y7.0352
G01 X8.6674 Y7.0236
G01 X8.6704 Y7.0152
G01 X8.6739 Y7.0069
G01 X8.6795 Y6.9964
G01 X8.6862 Y6.9864
G01 X8.6938 Y6.9772
G01 X8.7022 Y6.9688
G01 X8.7091 Y6.9630
G01 X8.7163 Y6.9577
G01 X8.7266 Y6.9516
G01 X8.7374 Y6.9465
G01 X8.7458 Y6.9433
G01 X8.7544 Y6.9409
G01 X8.7661 Y6.9385
G00 Z2.0000
G00 X8.7661 Y6.1385
G01 F50.00
G01 Z-0.1000
G01 F100.00
G01 X8.7750 Y6.1375
G01 X8.7840 Y6.1372
G01 X10.3840 Y6.1372
G01 X10.3959 Y6.1378
G01 X10.4078 Y6.1395
G01 X10.4194 Y6.1424
G01 X10.4306 Y6.1465
G01 X10.4388 Y6.1502
G01 X10.4466 Y6.1545
G01 X10.4589 Y6.1630
G01 X10.4658 Y6.1688
G01 X10.4722 Y6.1750
G01 X10.4818 Y6.1864
G01 X10.4900 Y6.1990
G01 X10.4941 Y6.2069
G01 X10.4976 Y6.2152
G01 X10.5006 Y6.2236
G01 X10.5028 Y6.2323
G01 X10.5052 Y6.2471
G01 X10.5058 Y6.2590
G01 X10.5058 Y6.8120
G01 X10.5049 Y6.8239
G01 X10.5035 Y6.8328
G01 X10.5006 Y6.8444
G01 X10.4965 Y6.8556
G01 X10.4928 Y6.8638
G01 X10.4885 Y6.8716
G01 X10.4800 Y6.8839
G01 X10.4742 Y6.8908
G01 X10.4680 Y6.8972
G01 X10.4613 Y6.9032
G01 X10.4541 Y6.9086
G01 X10.4466 Y6.9135
G01 X10.4388 Y6.9178
G01 X10.4250 Y6.9237
G01 X10.4165 Y6.9264
G01 X10.4078 Y6.9285
G01 X10.3989 Y6.9299
G01 X10.3900 Y6.9307
G01 X8.7840 Y6.9308
G01 X8.7721 Y6.9302
G01 X8.7602 Y6.9285
G01 X8.7486 Y6.9256
G01 X8.7374 Y6.9215
G01 X8.7240 Y6.9150
G01 X8.7114 Y6.9068
G01 X8.7000 Y6.8972
G01 X8.6938 Y6.8908
G01 X8.6880 Y6.8839
G01 X8.6795 Y6.8716
G01 X8.6752 Y6.8638
G01 X8.6715 Y6.8556
G01 X8.6666 Y6.8415
G01 X8.6645 Y6.8328
G01 X8.6631 Y6.8239
G01 X8.6622 Y6.8090
G01 X8.6622 Y6.2560
G01 X8.6628 Y6.2471
G01 X8.6645 Y6.2352
G01 X8.6674 Y6.2236
G01 X8.6704 Y6.2152
G01 X8.6739 Y6.2069
G01 X8.6795 Y6.1964
G01 X8.6862 Y6.1864
G01 X8.6938 Y6.1772
G01 X8.7022 Y6.1688
G01 X8.7091 Y6.1630
G01 X8.7163 Y6.1577
G01 X8.7266 Y6.1516
G01 X8.7374 Y6.1465
G01 X8.7458 Y6.1433
G01 X8.7544 Y6.1409
G01 X8.7661 Y6.1385
G00 Z2.0000
G00 X8.7661 Y5.3385
G01 F50.00
G01 Z-0.1000
G01 F100.00
G01 X8.7750 Y5.3375
G01 X8.7840 Y5.3372
G01 X10.3840 Y5.3372
G01 X10.3959 Y5.3378
G01 X10.4078 Y5.3395
G01 X10.4194 Y5.3424
G01 X10.4306 Y5.3465
G01 X10.4388 Y5.3502
G01 X10.4466 Y5.3545
G01 X10.4589 Y5.3630
G01 X10.4658 Y5.3688
G01 X10.4722 Y5.3750
G01 X10.4818 Y5.3864
G01 X10.4900 Y5.3990
G01 X10.4941 Y5.4069
G01 X10.4976 Y5.4152
G01 X10.5006 Y5.4236
G01 X10.5028 Y5.4323
G01 X10.5052 Y5.4471
G01 X10.5058 Y5.4590
G01 X10.5058 Y6.0120
G01 X10.5049 Y6.0239
G01 X10.5035 Y6.0328
G01 X10.5006 Y6.0444
G01 X10.4965 Y6.0556
G01 X10.4928 Y6.0638
G01 X10.4885 Y6.0716
G01 X10.4800 Y6.0839
G01 X10.4742 Y6.0908
G01 X10.4680 Y6.0972
G01 X10.4613 Y6.1032
G01 X10.4541 Y6.1086
G01 X10.4466 Y6.1135
G01 X10.4388 Y6.1178
G01 X10.4250 Y6.1237
G01 X10.4165 Y6.1264
G01 X10.4078 Y6.1285
G01 X10.3989 Y6.1299
G01 X10.3900 Y6.1307
G01 X8.7840 Y6.1308
G01 X8.7721 Y6.1302
G01 X8.7602 Y6.1285
G01 X8.7486 Y6.1256
G01 X8.7374 Y6.1215
G01 X8.7240 Y6.1150
G01 X8.7114 Y6.1068
G01 X8.7044 Y6.1012
G01 X8.6979 Y6.0951
G01 X8.6880 Y6.0839
G01 X8.6795 Y6.0716
G01 X8.6752 Y6.0638
G01 X8.6715 Y6.0556
G01 X8.6666 Y6.0415
G01 X8.6645 Y6.0328
G01 X8.6631 Y6.0239
G01 X8.6622 Y6.0090
G01 X8.6622 Y5.4560
G01 X8.6628 Y5.4471
G01 X8.6645 Y5.4352
G01 X8.6674 Y5.4236
G01 X8.6704 Y5.4152
G01 X8.6739 Y5.4069
G01 X8.6795 Y5.3964
G01 X8.6862 Y5.3864
G01 X8.6938 Y5.3772
G01 X8.7022 Y5.3688
G01 X8.7091 Y5.3630
G01 X8.7163 Y5.3577
G01 X8.7266 Y5.3516
G01 X8.7374 Y5.3465
G01 X8.7458 Y5.3433
G01 X8.7544 Y5.3409
G01 X8.7661 Y5.3385
G00 Z2.0000
G00 X8.7661 Y4.5385
G01 F50.00
G01 Z-0.1000
G01 F100.00
G01 X8.7750 Y4.5375
G01 X8.7840 Y4.5372
G01 X10.3840 Y4.5372
G01 X10.3959 Y4.5378
G01 X10.4078 Y4.5395
G01 X10.4194 Y4.5424
G01 X10.4306 Y4.5465
G01 X10.4388 Y4.5502
G01 X10.4466 Y4.5545
G01 X10.4589 Y4.5630
G01 X10.4658 Y4.5688
G01 X10.4722 Y4.5750
G01 X10.4818 Y4.5864
G01 X10.4900 Y4.5990
G01 X10.4941 Y4.6069
G01 X10.4976 Y4.6152
G01 X10.5006 Y4.6236
G01 X10.5028 Y4.6323
G01 X10.5052 Y4.6471
G01 X10.5058 Y4.6590
G01 X10.5058 Y5.2120
G01 X10.5049 Y5.2239
G01 X10.5035 Y5.2328
G01 X10.5006 Y5.2444
G01 X10.4965 Y5.2556
G01 X10.4928 Y5.2638
G01 X10.4885 Y5.2716
G01 X10.4800 Y5.2839
G01 X10.4742 Y5.2908
G01 X10.4680 Y5.2972
G01 X10.4613 Y5.3032
G01 X10.4541 Y5.3086
G01 X10.4466 Y5.3135
G01 X10.4388 Y5.3178
G01 X10.4250 Y5.3237
G01 X10.4165 Y5.3264
G01 X10.4078 Y5.3285
G01 X10.3989 Y5.3299
G01 X10.3900 Y5.3307
G01 X8.7840 Y5.3308
G01 X8.7721 Y5.3302
G01 X8.7602 Y5.3285
G01 X8.7486 Y5.3256
G01 X8.7374 Y5.3215
G01 X8.7240 Y5.3150
G01 X8.7114 Y5.3068
G01 X8.7000 Y5.2972
G01 X8.6938 Y5.2908
G01 X8.6880 Y5.2839
G01 X8.6795 Y5.2716
G01 X8.6752 Y5.2638
G01 X8.6715 Y5.2556
G01 X8.6666 Y5.2415
G01 X8.6645 Y5.2328
G01 X8.6631 Y5.2239
G01 X8.6622 Y5.2090
G01 X8.6622 Y4.6560
G01 X8.6628 Y4.6471
G01 X8.6645 Y4.6352
G01 X8.6674 Y4.6236
G01 X8.6704 Y4.6152
G01 X8.6739 Y4.6069
G01 X8.6795 Y4.5964
G01 X8.6862 Y4.5864
G01 X8.6938 Y4.5772
G01 X8.7022 Y4.5688
G01 X8.7091 Y4.5630
G01 X8.7163 Y4.5577
G01 X8.7266 Y4.5516
G01 X8.7374 Y4.5465
G01 X8.7458 Y4.5433
G01 X8.7544 Y4.5409
G01 X8.7661 Y4.5385
G00 Z2.0000
G00 X8.7661 Y3.7385
G01 F50.00
G01 Z-0.1000
G01 F100.00
G01 X8.7750 Y3.7375
G01 X8.7840 Y3.7372
G01 X10.3840 Y3.7372
G01 X10.3959 Y3.7378
G01 X10.4078 Y3.7395
G01 X10.4194 Y3.7424
G01 X10.4306 Y3.7465
G01 X10.4388 Y3.7502
G01 X10.4466 Y3.7545
G01 X10.4589 Y3.7630
G01 X10.4658 Y3.7688
G01 X10.4722 Y3.7750
G01 X10.4818 Y3.7864
G01 X10.4900 Y3.7990
G01 X10.4941 Y3.8069
G01 X10.4976 Y3.8152
G01 X10.5006 Y3.8236
G01 X10.5028 Y3.8323
G01 X10.5052 Y3.8471
G01 X10.5058 Y3.8590
G01 X10.5058 Y4.4120
G01 X10.5049 Y4.4239
G01 X10.5035 Y4.4328
G01 X10.5006 Y4.4444
G01 X10.4965 Y4.4556
G01 X10.4928 Y4.4638
G01 X10.4885 Y4.4716
G01 X10.4800 Y4.4839
G01 X10.4742 Y4.4908
G01 X10.4680 Y4.4972
G01 X10.4613 Y4.5032
G01 X10.4541 Y4.5086
G01 X10.4466 Y4.5135
G01 X10.4388 Y4.5178
G01 X10.4250 Y4.5237
G01 X10.4165 Y4.5264
G01 X10.4078 Y4.5285
G01 X10.3989 Y4.5299
G01 X10.3900 Y4.5307
G01 X8.7840 Y4.5308
G01 X8.7721 Y4.5302
G01 X8.7602 Y4.5285
G01 X8.7486 Y4.5256
G01 X8.7374 Y4.5215
G01 X8.7240 Y4.5150
G01 X8.7114 Y4.5068
G01 X8.7000 Y4.4972
G01 X8.6938 Y4.4908
G01 X8.6880 Y4.4839
G01 X8.6795 Y4.4716
G01 X8.6752 Y4.4638
G01 X8.6715 Y4.4556
G01 X8.6666 Y4.4415
G01 X8.6645 Y4.4328
G01 X8.6631 Y4.4239
G01 X8.6622 Y4.4090
G01 X8.6622 Y3.8560
G01 X8.6628 Y3.8471
G01 X8.6645 Y3.8352
G01 X8.6674 Y3.8236
G01 X8.6715 Y3.8124
G01 X8.6752 Y3.8042
G01 X8.6811 Y3.7938
G01 X8.6880 Y3.7841
G01 X8.6938 Y3.7772
G01 X8.7022 Y3.7688
G01 X8.7091 Y3.7630
G01 X8.7163 Y3.7577
G01 X8.7266 Y3.7516
G01 X8.7374 Y3.7465
G01 X8.7458 Y3.7433
G01 X8.7573 Y3.7402
G01 X8.7661 Y3.7385
G00 Z2.0000
G00 X8.7661 Y2.9385
G01 F50.00
G01 Z-0.1000
G01 F100.00
G01 X8.7750 Y2.9375
G01 X8.7840 Y2.9372
G01 X10.3840 Y2.9372
G01 X10.3959 Y2.9378
G01 X10.4078 Y2.9395
G01 X10.4194 Y2.9424
G01 X10.4306 Y2.9465
G01 X10.4388 Y2.9502
G01 X10.4466 Y2.9545
G01 X10.4589 Y2.9630
G01 X10.4658 Y2.9688
G01 X10.4722 Y2.9750
G01 X10.4818 Y2.9864
G01 X10.4900 Y2.9990
G01 X10.4941 Y3.0069
G01 X10.4976 Y3.0152
G01 X10.5006 Y3.0236
G01 X10.5028 Y3.0323
G01 X10.5052 Y3.0471
G01 X10.5058 Y3.0590
G01 X10.5058 Y3.6120
G01 X10.5049 Y3.6239
G01 X10.5035 Y3.6328
G01 X10.5006 Y3.6444
G01 X10.4965 Y3.6556
G01 X10.4928 Y3.6638
G01 X10.4885 Y3.6716
G01 X10.4800 Y3.6839
G01 X10.4742 Y3.6908
G01 X10.4680 Y3.6972
G01 X10.4613 Y3.7032
G01 X10.4541 Y3.7086
G01 X10.4466 Y3.7135
G01 X10.4388 Y3.7178
G01 X10.4250 Y3.7237
G01 X10.4165 Y3.7264
G01 X10.4078 Y3.7285
G01 X10.3989 Y3.7299
G01 X10.3900 Y3.7307
G01 X8.7840 Y3.7308
G01 X8.7721 Y3.7302
G01 X8.7602 Y3.7285
G01 X8.7486 Y3.7256
G01 X8.7374 Y3.7215
G01 X8.7240 Y3.7150
G01 X8.7163 Y3.7103
G01 X8.7091 Y3.7050
G01 X8.6979 Y3.6951
G01 X8.6918 Y3.6886
G01 X8.6862 Y3.6816
G01 X8.6780 Y3.6690
G01 X8.6739 Y3.6611
G01 X8.6704 Y3.6528
G01 X8.6659 Y3.6386
G01 X8.6631 Y3.6239
G01 X8.6622 Y3.6090
G01 X8.6622 Y3.0560
G01 X8.6628 Y3.0471
G01 X8.6645 Y3.0352
G01 X8.6674 Y3.0236
G01 X8.6715 Y3.0124
G01 X8.6752 Y3.0042
G01 X8.6811 Y2.9938
G01 X8.6880 Y2.9841
G01 X8.6938 Y2.9772
G01 X8.7022 Y2.9688
G01 X8.7091 Y2.9630
G01 X8.7163 Y2.9577
G01 X8.7266 Y2.9516
G01 X8.7374 Y2.9465
G01 X8.7458 Y2.9433
G01 X8.7573 Y2.9402
G01 X8.7661 Y2.9385
G00 Z2.0000
G00 X8.7661 Y2.1385
G01 F50.00
G01 Z-0.1000
G01 F100.00
G01 X8.7750 Y2.1375
G01 X8.7840 Y2.1372
G01 X10.3840 Y2.1372
G01 X10.3959 Y2.1378
G01 X10.4078 Y2.1395
G01 X10.4194 Y2.1424
G01 X10.4306 Y2.1465
G01 X10.4388 Y2.1502
G01 X10.4466 Y2.1545
G01 X10.4589 Y2.1630
G01 X10.4658 Y2.1688
G01 X10.4722 Y2.1750
G01 X10.4818 Y2.1864
G01 X10.4900 Y2.1990
G01 X10.4941 Y2.2069
G01 X10.4976 Y2.2152
G01 X10.5006 Y2.2236
G01 X10.5028 Y2.2323
G01 X10.5052 Y2.2471
G01 X10.5058 Y2.2590
G01 X10.5058 Y2.8120
G01 X10.5049 Y2.8239
G01 X10.5035 Y2.8328
G01 X10.5006 Y2.8444
G01 X10.4965 Y2.8556
G01 X10.4928 Y2.8638
G01 X10.4885 Y2.8716
G01 X10.4800 Y2.8839
G01 X10.4742 Y2.8908
G01 X10.4680 Y2.8972
G01 X10.4613 Y2.9032
G01 X10.4541 Y2.9086
G01 X10.4466 Y2.9135
G01 X10.4388 Y2.9178
G01 X10.4250 Y2.9237
G01 X10.4165 Y2.9264
G01 X10.4078 Y2.9285
G01 X10.3989 Y2.9299
G01 X10.3900 Y2.9307
G01 X8.7840 Y2.9308
G01 X8.7721 Y2.9302
G01 X8.7602 Y2.9285
G01 X8.7486 Y2.9256
G01 X8.7374 Y2.9215
G01 X8.7240 Y2.9150
G01 X8.7163 Y2.9103
G01 X8.7091 Y2.9050
G01 X8.6979 Y2.8951
G01 X8.6918 Y2.8886
G01 X8.6862 Y2.8816
G01 X8.6780 Y2.8690
G01 X8.6739 Y2.8611
G01 X8.6704 Y2.8528
G01 X8.6659 Y2.8386
G01 X8.6631 Y2.8239
G01 X8.6622 Y2.8090
G01 X8.6622 Y2.2560
G01 X8.6628 Y2.2471
G01 X8.6645 Y2.2352
G01 X8.6674 Y2.2236
G01 X8.6715 Y2.2124
G01 X8.6752 Y2.2042
G01 X8.6811 Y2.1938
G01 X8.6880 Y2.1841
G01 X8.6938 Y2.1772
G01 X8.7022 Y2.1688
G01 X8.7091 Y2.1630
G01 X8.7163 Y2.1577
G01 X8.7266 Y2.1516
G01 X8.7374 Y2.1465
G01 X8.7458 Y2.1433
G01 X8.7573 Y2.1402
G01 X8.7661 Y2.1385
G00 Z2.0000
G00 X8.7483 Y2.0180
G01 F50.00
G01 Z-0.1000
G01 F100.00
G01 X8.7661 Y2.0161
G01 X8.7840 Y2.0154
G01 X10.3840 Y2.0154
G01 X10.3960 Y2.0157
G01 X10.4079 Y2.0166
G01 X10.4256 Y2.0190
G01 X10.4432 Y2.0227
G01 X10.4604 Y2.0277
G01 X10.4772 Y2.0339
G01 X10.4935 Y2.0414
G01 X10.5092 Y2.0501
G01 X10.5193 Y2.0565
G01 X10.5291 Y2.0633
G01 X10.5431 Y2.0745
G01 X10.5563 Y2.0867
G01 X10.5685 Y2.0999
G01 X10.5797 Y2.1139
G01 X10.5898 Y2.1287
G01 X10.5988 Y2.1442
G01 X10.6067 Y2.1603
G01 X10.6113 Y2.1713
G01 X10.6153 Y2.1826
G01 X10.6203 Y2.1998
G01 X10.6229 Y2.2115
G01 X10.6258 Y2.2292
G01 X10.6269 Y2.2411
G01 X10.6276 Y2.2590
G01 X10.6276 Y2.8090
G01 X10.6273 Y2.8210
G01 X10.6264 Y2.8329
G01 X10.6240 Y2.8506
G01 X10.6203 Y2.8682
G01 X10.6171 Y2.8797
G01 X10.6113 Y2.8967
G01 X10.6067 Y2.9077
G01 X10.6016 Y2.9185
G01 X10.5931 Y2.9340
G01 X10.6016 Y2.9495
G01 X10.6067 Y2.9603
G01 X10.6113 Y2.9713
G01 X10.6171 Y2.9883
G01 X10.6217 Y3.0056
G01 X10.6240 Y3.0174
G01 X10.6264 Y3.0351
G01 X10.6273 Y3.0470
G01 X10.6276 Y3.0590
G01 X10.6275 Y3.6150
G01 X10.6269 Y3.6269
G01 X10.6250 Y3.6447
G01 X10.6229 Y3.6565
G01 X10.6188 Y3.6740
G01 X10.6153 Y3.6854
G01 X10.6091 Y3.7022
G01 X10.6016 Y3.7185
G01 X10.5931 Y3.7340
G01 X10.6016 Y3.7495
G01 X10.6067 Y3.7603
G01 X10.6113 Y3.7713
G01 X10.6171 Y3.7883
G01 X10.6217 Y3.8056
G01 X10.6240 Y3.8174
G01 X10.6264 Y3.8351
G01 X10.6273 Y3.8470
G01 X10.6276 Y3.8590
G01 X10.6276 Y4.4090
G01 X10.6269 Y4.4269
G01 X10.6250 Y4.4447
G01 X10.6229 Y4.4565
G01 X10.6188 Y4.4740
G01 X10.6153 Y4.4854
G01 X10.6091 Y4.5022
G01 X10.6016 Y4.5185
G01 X10.5931 Y4.5340
G01 X10.6016 Y4.5495
G01 X10.6067 Y4.5603
G01 X10.6113 Y4.5713
G01 X10.6171 Y4.5883
G01 X10.6217 Y4.6056
G01 X10.6240 Y4.6174
G01 X10.6264 Y4.6351
G01 X10.6273 Y4.6470
G01 X10.6276 Y4.6590
G01 X10.6276 Y5.2090
G01 X10.6269 Y5.2269
G01 X10.6250 Y5.2447
G01 X10.6229 Y5.2565
G01 X10.6188 Y5.2740
G01 X10.6153 Y5.2854
G01 X10.6091 Y5.3022
G01 X10.6016 Y5.3185
G01 X10.5931 Y5.3340
G01 X10.6016 Y5.3495
G01 X10.6067 Y5.3603
G01 X10.6113 Y5.3713
G01 X10.6171 Y5.3883
G01 X10.6217 Y5.4056
G01 X10.6240 Y5.4174
G01 X10.6264 Y5.4351
G01 X10.6273 Y5.4470
G01 X10.6276 Y5.4590
G01 X10.6276 Y6.0090
G01 X10.6269 Y6.0269
G01 X10.6250 Y6.0447
G01 X10.6229 Y6.0565
G01 X10.6188 Y6.0740
G01 X10.6153 Y6.0854
G01 X10.6091 Y6.1022
G01 X10.6016 Y6.1185
G01 X10.5931 Y6.1340
G01 X10.6016 Y6.1495
G01 X10.6067 Y6.1603
G01 X10.6113 Y6.1713
G01 X10.6171 Y6.1883
G01 X10.6217 Y6.2056
G01 X10.6240 Y6.2174
G01 X10.6264 Y6.2351
G01 X10.6273 Y6.2470
G01 X10.6276 Y6.2590
G01 X10.6276 Y6.8090
G01 X10.6269 Y6.8269
G01 X10.6250 Y6.8447
G01 X10.6229 Y6.8565
G01 X10.6188 Y6.8740
G01 X10.6153 Y6.8854
G01 X10.6091 Y6.9022
G01 X10.6016 Y6.9185
G01 X10.5931 Y6.9340
G01 X10.6016 Y6.9495
G01 X10.6067 Y6.9603
G01 X10.6113 Y6.9713
G01 X10.6171 Y6.9883
G01 X10.6217 Y7.0056
G01 X10.6240 Y7.0174
G01 X10.6264 Y7.0351
G01 X10.6273 Y7.0470
G01 X10.6276 Y7.0590
G01 X10.6276 Y7.6090
G01 X10.6269 Y7.6269
G01 X10.6250 Y7.6447
G01 X10.6229 Y7.6565
G01 X10.6188 Y7.6740
G01 X10.6153 Y7.6854
G01 X10.6091 Y7.7022
G01 X10.6016 Y7.7185
G01 X10.5931 Y7.7340
G01 X10.6016 Y7.7495
G01 X10.6067 Y7.7603
G01 X10.6113 Y7.7713
G01 X10.6171 Y7.7883
G01 X10.6203 Y7.7998
G01 X10.6240 Y7.8174
G01 X10.6264 Y7.8351
G01 X10.6273 Y7.8470
G01 X10.6276 Y7.8590
G01 X10.6275 Y8.4150
G01 X10.6264 Y8.4329
G01 X10.6240 Y8.4506
G01 X10.6203 Y8.4682
G01 X10.6171 Y8.4797
G01 X10.6134 Y8.4911
G01 X10.6091 Y8.5022
G01 X10.6042 Y8.5132
G01 X10.5960 Y8.5291
G01 X10.5865 Y8.5443
G01 X10.5760 Y8.5589
G01 X10.5645 Y8.5726
G01 X10.5563 Y8.5813
G01 X10.5476 Y8.5895
G01 X10.5339 Y8.6010
G01 X10.5193 Y8.6115
G01 X10.5092 Y8.6179
G01 X10.4988 Y8.6238
G01 X10.4827 Y8.6317
G01 X10.4717 Y8.6363
G01 X10.4604 Y8.6403
G01 X10.4432 Y8.6453
G01 X10.4256 Y8.6490
G01 X10.4138 Y8.6508
G01 X10.3960 Y8.6523
G01 X10.3840 Y8.6526
G01 X8.7840 Y8.6526
G01 X8.7720 Y8.6523
G01 X8.7601 Y8.6514
G01 X8.7424 Y8.6490
G01 X8.7248 Y8.6453
G01 X8.7076 Y8.6403
G01 X8.6963 Y8.6363
G01 X8.6853 Y8.6317
G01 X8.6692 Y8.6238
G01 X8.6537 Y8.6148
G01 X8.6389 Y8.6047
G01 X8.6249 Y8.5935
G01 X8.6117 Y8.5813
G01 X8.5995 Y8.5681
G01 X8.5883 Y8.5541
G01 X8.5782 Y8.5393
G01 X8.5692 Y8.5238
G01 X8.5613 Y8.5077
G01 X8.5546 Y8.4911
G01 X8.5509 Y8.4797
G01 X8.5477 Y8.4682
G01 X8.5440 Y8.4506
G01 X8.5422 Y8.4388
G01 X8.5411 Y8.4269
G01 X8.5404 Y8.4090
G01 X8.5404 Y7.8590
G01 X8.5407 Y7.8470
G01 X8.5416 Y7.8351
G01 X8.5440 Y7.8174
G01 X8.5463 Y7.8056
G01 X8.5509 Y7.7883
G01 X8.5567 Y7.7713
G01 X8.5613 Y7.7603
G01 X8.5664 Y7.7495
G01 X8.5749 Y7.7340
G01 X8.5664 Y7.7185
G01 X8.5613 Y7.7077
G01 X8.5567 Y7.6967
G01 X8.5509 Y7.6797
G01 X8.5477 Y7.6682
G01 X8.5440 Y7.6506
G01 X8.5422 Y7.6388
G01 X8.5407 Y7.6210
G01 X8.5404 Y7.6090
G01 X8.5405 Y7.0530
G01 X8.5411 Y7.0411
G01 X8.5430 Y7.0233
G01 X8.5463 Y7.0056
G01 X8.5492 Y6.9940
G01 X8.5527 Y6.9826
G01 X8.5589 Y6.9658
G01 X8.5664 Y6.9495
G01 X8.5749 Y6.9340
G01 X8.5664 Y6.9185
G01 X8.5613 Y6.9077
G01 X8.5567 Y6.8967
G01 X8.5509 Y6.8797
G01 X8.5477 Y6.8682
G01 X8.5440 Y6.8506
G01 X8.5422 Y6.8388
G01 X8.5407 Y6.8210
G01 X8.5404 Y6.8090
G01 X8.5404 Y6.2590
G01 X8.5411 Y6.2411
G01 X8.5430 Y6.2233
G01 X8.5463 Y6.2056
G01 X8.5492 Y6.1940
G01 X8.5527 Y6.1826
G01 X8.5589 Y6.1658
G01 X8.5664 Y6.1495
G01 X8.5749 Y6.1340
G01 X8.5664 Y6.1185
G01 X8.5613 Y6.1077
G01 X8.5567 Y6.0967
G01 X8.5509 Y6.0797
G01 X8.5477 Y6.0682
G01 X8.5440 Y6.0506
G01 X8.5422 Y6.0388
G01 X8.5407 Y6.0210
G01 X8.5404 Y6.0090
G01 X8.5404 Y5.4590
G01 X8.5411 Y5.4411
G01 X8.5430 Y5.4233
G01 X8.5463 Y5.4056
G01 X8.5492 Y5.3940
G01 X8.5527 Y5.3826
G01 X8.5589 Y5.3658
G01 X8.5664 Y5.3495
G01 X8.5749 Y5.3340
G01 X8.5664 Y5.3185
G01 X8.5613 Y5.3077
G01 X8.5567 Y5.2967
G01 X8.5509 Y5.2797
G01 X8.5477 Y5.2682
G01 X8.5440 Y5.2506
G01 X8.5422 Y5.2388
G01 X8.5407 Y5.2210
G01 X8.5404 Y5.2090
G01 X8.5404 Y4.6590
G01 X8.5411 Y4.6411
G01 X8.5430 Y4.6233
G01 X8.5463 Y4.6056
G01 X8.5492 Y4.5940
G01 X8.5527 Y4.5826
G01 X8.5589 Y4.5658
G01 X8.5664 Y4.5495
G01 X8.5749 Y4.5340
G01 X8.5664 Y4.5185
G01 X8.5613 Y4.5077
G01 X8.5567 Y4.4967
G01 X8.5509 Y4.4797
G01 X8.5477 Y4.4682
G01 X8.5440 Y4.4506
G01 X8.5422 Y4.4388
G01 X8.5407 Y4.4210
G01 X8.5404 Y4.4090
G01 X8.5404 Y3.8590
G01 X8.5411 Y3.8411
G01 X8.5430 Y3.8233
G01 X8.5463 Y3.8056
G01 X8.5492 Y3.7940
G01 X8.5527 Y3.7826
G01 X8.5589 Y3.7658
G01 X8.5664 Y3.7495
G01 X8.5749 Y3.7340
G01 X8.5664 Y3.7185
G01 X8.5613 Y3.7077
G01 X8.5567 Y3.6967
G01 X8.5509 Y3.6797
G01 X8.5477 Y3.6682
G01 X8.5440 Y3.6506
G01 X8.5422 Y3.6388
G01 X8.5407 Y3.6210
G01 X8.5404 Y3.6090
G01 X8.5404 Y3.0590
G01 X8.5411 Y3.0411
G01 X8.5430 Y3.0233
G01 X8.5463 Y3.0056
G01 X8.5492 Y2.9940
G01 X8.5527 Y2.9826
G01 X8.5589 Y2.9658
G01 X8.5664 Y2.9495
G01 X8.5749 Y2.9340
G01 X8.5664 Y2.9185
G01 X8.5613 Y2.9077
G01 X8.5567 Y2.8967
G01 X8.5509 Y2.8797
G01 X8.5477 Y2.8682
G01 X8.5440 Y2.8506
G01 X8.5422 Y2.8388
G01 X8.5407 Y2.8210
G01 X8.5404 Y2.8090
G01 X8.5405 Y2.2530
G01 X8.5416 Y2.2351
G01 X8.5430 Y2.2233
G01 X8.5451 Y2.2115
G01 X8.5477 Y2.1998
G01 X8.5509 Y2.1883
G01 X8.5567 Y2.1713
G01 X8.5613 Y2.1603
G01 X8.5664 Y2.1495
G01 X8.5751 Y2.1338
G01 X8.5848 Y2.1187
G01 X8.5920 Y2.1091
G01 X8.5995 Y2.0999
G01 X8.6117 Y2.0867
G01 X8.6204 Y2.0785
G01 X8.6295 Y2.0707
G01 X8.6389 Y2.0633
G01 X8.6487 Y2.0565
G01 X8.6588 Y2.0501
G01 X8.6692 Y2.0442
G01 X8.6798 Y2.0388
G01 X8.6908 Y2.0339
G01 X8.7076 Y2.0277
G01 X8.7248 Y2.0227
G01 X8.7365 Y2.0201
G01 X8.7483 Y2.0180
G00 Z2.0000
G00 X7.8411 Y0.1635
G01 F50.00
G01 Z-0.1000
G01 F100.00
G01 X7.8500 Y0.1625
G01 X7.8590 Y0.1622
G01 X8.4090 Y0.1622
G01 X8.4239 Y0.1631
G01 X8.4328 Y0.1645
G01 X8.4415 Y0.1666
G01 X8.4500 Y0.1693
G01 X8.4584 Y0.1726
G01 X8.4664 Y0.1766
G01 X8.4742 Y0.1811
G01 X8.4863 Y0.1898
G01 X8.4972 Y0.2000
G01 X8.5032 Y0.2067
G01 X8.5086 Y0.2139
G01 X8.5135 Y0.2214
G01 X8.5178 Y0.2292
G01 X8.5215 Y0.2374
G01 X8.5247 Y0.2458
G01 X8.5271 Y0.2544
G01 X8.5290 Y0.2632
G01 X8.5305 Y0.2750
G01 X8.5308 Y0.2840
G01 X8.5307 Y1.8900
G01 X8.5299 Y1.8989
G01 X8.5285 Y1.9078
G01 X8.5264 Y1.9165
G01 X8.5237 Y1.9250
G01 X8.5204 Y1.9334
G01 X8.5164 Y1.9414
G01 X8.5119 Y1.9492
G01 X8.5068 Y1.9566
G01 X8.5012 Y1.9636
G01 X8.4951 Y1.9701
G01 X8.4886 Y1.9762
G01 X8.4816 Y1.9818
G01 X8.4742 Y1.9869
G01 X8.4664 Y1.9914
G01 X8.4584 Y1.9954
G01 X8.4472 Y1.9997
G01 X8.4357 Y2.0028
G01 X8.4269 Y2.0045
G01 X8.4180 Y2.0055
G01 X8.4090 Y2.0058
G01 X7.8590 Y2.0058
G01 X7.8471 Y2.0052
G01 X7.8382 Y2.0040
G01 X7.8294 Y2.0021
G01 X7.8208 Y1.9997
G01 X7.8124 Y1.9965
G01 X7.8042 Y1.9928
G01 X7.7964 Y1.9885
G01 X7.7889 Y1.9836
G01 X7.7817 Y1.9782
G01 X7.7750 Y1.9722
G01 X7.7688 Y1.9658
G01 X7.7594 Y1.9541
G01 X7.7545 Y1.9466
G01 X7.7502 Y1.9388
G01 X7.7465 Y1.9306
G01 X7.7433 Y1.9222
G01 X7.7409 Y1.9136
G01 X7.7390 Y1.9048
G01 X7.7375 Y1.8930
G01 X7.7372 Y1.8840
G01 X7.7373 Y0.2780
G01 X7.7385 Y0.2661
G01 X7.7402 Y0.2573
G01 X7.7433 Y0.2458
G01 X7.7465 Y0.2374
G01 X7.7516 Y0.2266
G01 X7.7561 Y0.2188
G01 X7.7612 Y0.2114
G01 X7.7688 Y0.2022
G01 X7.7772 Y0.1938
G01 X7.7841 Y0.1880
G01 X7.7913 Y0.1827
G01 X7.8016 Y0.1766
G01 X7.8096 Y0.1726
G01 X7.8208 Y0.1683
G01 X7.8323 Y0.1652
G01 X7.8411 Y0.1635
G00 Z2.0000
G00 X7.0441 Y0.1631
G01 F50.00
G01 Z-0.1000
G01 F100.00
G01 X7.0590 Y0.1622
G01 X7.6090 Y0.1622
G01 X7.6239 Y0.1631
G01 X7.6386 Y0.1659
G01 X7.6472 Y0.1683
G01 X7.6556 Y0.1715
G01 X7.6638 Y0.1752
G01 X7.6716 Y0.1795
G01 X7.6791 Y0.1844
G01 X7.6863 Y0.1898
G01 X7.6930 Y0.1958
G01 X7.6992 Y0.2022
G01 X7.7086 Y0.2139
G01 X7.7135 Y0.2214
G01 X7.7178 Y0.2292
G01 X7.7215 Y0.2374
G01 X7.7247 Y0.2458
G01 X7.7271 Y0.2544
G01 X7.7290 Y0.2632
G01 X7.7305 Y0.2750
G01 X7.7308 Y0.2840
G01 X7.7307 Y1.8900
G01 X7.7299 Y1.8989
G01 X7.7285 Y1.9078
G01 X7.7264 Y1.9165
G01 X7.7237 Y1.9250
G01 X7.7204 Y1.9334
G01 X7.7164 Y1.9414
G01 X7.7119 Y1.9492
G01 X7.7050 Y1.9589
G01 X7.6992 Y1.9658
G01 X7.6930 Y1.9722
G01 X7.6863 Y1.9782
G01 X7.6791 Y1.9836
G01 X7.6716 Y1.9885
G01 X7.6638 Y1.9928
G01 X7.6556 Y1.9965
G01 X7.6472 Y1.9997
G01 X7.6357 Y2.0028
G01 X7.6269 Y2.0045
G01 X7.6180 Y2.0055
G01 X7.6090 Y2.0058
G01 X7.0590 Y2.0058
G01 X7.0471 Y2.0052
G01 X7.0382 Y2.0040
G01 X7.0294 Y2.0021
G01 X7.0208 Y1.9997
G01 X7.0124 Y1.9965
G01 X7.0042 Y1.9928
G01 X6.9964 Y1.9885
G01 X6.9889 Y1.9836
G01 X6.9817 Y1.9782
G01 X6.9750 Y1.9722
G01 X6.9688 Y1.9658
G01 X6.9594 Y1.9541
G01 X6.9545 Y1.9466
G01 X6.9502 Y1.9388
G01 X6.9465 Y1.9306
G01 X6.9433 Y1.9222
G01 X6.9409 Y1.9136
G01 X6.9390 Y1.9048
G01 X6.9375 Y1.8930
G01 X6.9372 Y1.8840
G01 X6.9373 Y0.2780
G01 X6.9385 Y0.2661
G01 X6.9402 Y0.2573
G01 X6.9433 Y0.2458
G01 X6.9465 Y0.2374
G01 X6.9516 Y0.2266
G01 X6.9561 Y0.2188
G01 X6.9612 Y0.2114
G01 X6.9688 Y0.2022
G01 X6.9772 Y0.1938
G01 X6.9841 Y0.1880
G01 X6.9938 Y0.1811
G01 X7.0016 Y0.1766
G01 X7.0124 Y0.1715
G01 X7.0208 Y0.1683
G01 X7.0323 Y0.1652
G01 X7.0441 Y0.1631
G00 Z2.0000
G00 X6.2441 Y0.1631
G01 F50.00
G01 Z-0.1000
G01 F100.00
G01 X6.2590 Y0.1622
G01 X6.8090 Y0.1622
G01 X6.8239 Y0.1631
G01 X6.8386 Y0.1659
G01 X6.8472 Y0.1683
G01 X6.8556 Y0.1715
G01 X6.8638 Y0.1752
G01 X6.8716 Y0.1795
G01 X6.8791 Y0.1844
G01 X6.8863 Y0.1898
G01 X6.8930 Y0.1958
G01 X6.8992 Y0.2022
G01 X6.9086 Y0.2139
G01 X6.9135 Y0.2214
G01 X6.9178 Y0.2292
G01 X6.9215 Y0.2374
G01 X6.9247 Y0.2458
G01 X6.9271 Y0.2544
G01 X6.9290 Y0.2632
G01 X6.9305 Y0.2750
G01 X6.9308 Y0.2840
G01 X6.9307 Y1.8900
G01 X6.9299 Y1.8989
G01 X6.9285 Y1.9078
G01 X6.9264 Y1.9165
G01 X6.9237 Y1.9250
G01 X6.9204 Y1.9334
G01 X6.9164 Y1.9414
G01 X6.9119 Y1.9492
G01 X6.9050 Y1.9589
G01 X6.8992 Y1.9658
G01 X6.8930 Y1.9722
G01 X6.8863 Y1.9782
G01 X6.8791 Y1.9836
G01 X6.8716 Y1.9885
G01 X6.8638 Y1.9928
G01 X6.8556 Y1.9965
G01 X6.8472 Y1.9997
G01 X6.8357 Y2.0028
G01 X6.8269 Y2.0045
G01 X6.8180 Y2.0055
G01 X6.8090 Y2.0058
G01 X6.2590 Y2.0058
G01 X6.2471 Y2.0052
G01 X6.2382 Y2.0040
G01 X6.2294 Y2.0021
G01 X6.2208 Y1.9997
G01 X6.2124 Y1.9965
G01 X6.2042 Y1.9928
G01 X6.1964 Y1.9885
G01 X6.1889 Y1.9836
G01 X6.1817 Y1.9782
G01 X6.1750 Y1.9722
G01 X6.1688 Y1.9658
G01 X6.1594 Y1.9541
G01 X6.1545 Y1.9466
G01 X6.1502 Y1.9388
G01 X6.1465 Y1.9306
G01 X6.1433 Y1.9222
G01 X6.1409 Y1.9136
G01 X6.1390 Y1.9048
G01 X6.1375 Y1.8930
G01 X6.1372 Y1.8840
G01 X6.1373 Y0.2780
G01 X6.1385 Y0.2661
G01 X6.1402 Y0.2573
G01 X6.1433 Y0.2458
G01 X6.1465 Y0.2374
G01 X6.1516 Y0.2266
G01 X6.1561 Y0.2188
G01 X6.1612 Y0.2114
G01 X6.1688 Y0.2022
G01 X6.1772 Y0.1938
G01 X6.1841 Y0.1880
G01 X6.1938 Y0.1811
G01 X6.2016 Y0.1766
G01 X6.2124 Y0.1715
G01 X6.2208 Y0.1683
G01 X6.2323 Y0.1652
G01 X6.2441 Y0.1631
G00 Z2.0000
G00 X5.4441 Y0.1631
G01 F50.00
G01 Z-0.1000
G01 F100.00
G01 X5.4590 Y0.1622
G01 X6.0090 Y0.1622
G01 X6.0239 Y0.1631
G01 X6.0386 Y0.1659
G01 X6.0472 Y0.1683
G01 X6.0556 Y0.1715
G01 X6.0638 Y0.1752
G01 X6.0716 Y0.1795
G01 X6.0791 Y0.1844
G01 X6.0863 Y0.1898
G01 X6.0930 Y0.1958
G01 X6.0992 Y0.2022
G01 X6.1086 Y0.2139
G01 X6.1135 Y0.2214
G01 X6.1178 Y0.2292
G01 X6.1215 Y0.2374
G01 X6.1247 Y0.2458
G01 X6.1271 Y0.2544
G01 X6.1290 Y0.2632
G01 X6.1305 Y0.2750
G01 X6.1308 Y0.2840
G01 X6.1307 Y1.8900
G01 X6.1299 Y1.8989
G01 X6.1285 Y1.9078
G01 X6.1264 Y1.9165
G01 X6.1237 Y1.9250
G01 X6.1204 Y1.9334
G01 X6.1164 Y1.9414
G01 X6.1119 Y1.9492
G01 X6.1050 Y1.9589
G01 X6.0992 Y1.9658
G01 X6.0930 Y1.9722
G01 X6.0863 Y1.9782
G01 X6.0791 Y1.9836
G01 X6.0716 Y1.9885
G01 X6.0638 Y1.9928
G01 X6.0556 Y1.9965
G01 X6.0472 Y1.9997
G01 X6.0357 Y2.0028
G01 X6.0269 Y2.0045
G01 X6.0180 Y2.0055
G01 X6.0090 Y2.0058
G01 X5.4590 Y2.0058
G01 X5.4471 Y2.0052
G01 X5.4382 Y2.0040
G01 X5.4294 Y2.0021
G01 X5.4208 Y1.9997
G01 X5.4124 Y1.9965
G01 X5.4042 Y1.9928
G01 X5.3964 Y1.9885
G01 X5.3889 Y1.9836
G01 X5.3817 Y1.9782
G01 X5.3750 Y1.9722
G01 X5.3688 Y1.9658
G01 X5.3594 Y1.9541
G01 X5.3545 Y1.9466
G01 X5.3502 Y1.9388
G01 X5.3465 Y1.9306
G01 X5.3433 Y1.9222
G01 X5.3409 Y1.9136
G01 X5.3390 Y1.9048
G01 X5.3375 Y1.8930
G01 X5.3372 Y1.8840
G01 X5.3373 Y0.2780
G01 X5.3385 Y0.2661
G01 X5.3402 Y0.2573
G01 X5.3433 Y0.2458
G01 X5.3465 Y0.2374
G01 X5.3516 Y0.2266
G01 X5.3561 Y0.2188
G01 X5.3612 Y0.2114
G01 X5.3688 Y0.2022
G01 X5.3772 Y0.1938
G01 X5.3841 Y0.1880
G01 X5.3938 Y0.1811
G01 X5.4016 Y0.1766
G01 X5.4124 Y0.1715
G01 X5.4208 Y0.1683
G01 X5.4323 Y0.1652
G01 X5.4441 Y0.1631
G00 Z2.0000
G00 X4.6441 Y0.1631
G01 F50.00
G01 Z-0.1000
G01 F100.00
G01 X4.6590 Y0.1622
G01 X5.2090 Y0.1622
G01 X5.2239 Y0.1631
G01 X5.2386 Y0.1659
G01 X5.2472 Y0.1683
G01 X5.2556 Y0.1715
G01 X5.2638 Y0.1752
G01 X5.2716 Y0.1795
G01 X5.2791 Y0.1844
G01 X5.2863 Y0.1898
G01 X5.2930 Y0.1958
G01 X5.2992 Y0.2022
G01 X5.3086 Y0.2139
G01 X5.3135 Y0.2214
G01 X5.3178 Y0.2292
G01 X5.3215 Y0.2374
G01 X5.3247 Y0.2458
G01 X5.3271 Y0.2544
G01 X5.3290 Y0.2632
G01 X5.3305 Y0.2750
G01 X5.3308 Y0.2840
G01 X5.3307 Y1.8900
G01 X5.3299 Y1.8989
G01 X5.3285 Y1.9078
G01 X5.3264 Y1.9165
G01 X5.3237 Y1.9250
G01 X5.3204 Y1.9334
G01 X5.3164 Y1.9414
G01 X5.3119 Y1.9492
G01 X5.3050 Y1.9589
G01 X5.2992 Y1.9658
G01 X5.2930 Y1.9722
G01 X5.2863 Y1.9782
G01 X5.2791 Y1.9836
G01 X5.2716 Y1.9885
G01 X5.2638 Y1.9928
G01 X5.2556 Y1.9965
G01 X5.2472 Y1.9997
G01 X5.2357 Y2.0028
G01 X5.2269 Y2.0045
G01 X5.2180 Y2.0055
G01 X5.2090 Y2.0058
G01 X4.6590 Y2.0058
G01 X4.6471 Y2.0052
G01 X4.6382 Y2.0040
G01 X4.6294 Y2.0021
G01 X4.6208 Y1.9997
G01 X4.6124 Y1.9965
G01 X4.6042 Y1.9928
G01 X4.5964 Y1.9885
G01 X4.5889 Y1.9836
G01 X4.5817 Y1.9782
G01 X4.5750 Y1.9722
G01 X4.5688 Y1.9658
G01 X4.5594 Y1.9541
G01 X4.5545 Y1.9466
G01 X4.5502 Y1.9388
G01 X4.5465 Y1.9306
G01 X4.5433 Y1.9222
G01 X4.5409 Y1.9136
G01 X4.5390 Y1.9048
G01 X4.5375 Y1.8930
G01 X4.5372 Y1.8840
G01 X4.5373 Y0.2780
G01 X4.5385 Y0.2661
G01 X4.5402 Y0.2573
G01 X4.5433 Y0.2458
G01 X4.5465 Y0.2374
G01 X4.5516 Y0.2266
G01 X4.5561 Y0.2188
G01 X4.5612 Y0.2114
G01 X4.5688 Y0.2022
G01 X4.5772 Y0.1938
G01 X4.5841 Y0.1880
G01 X4.5938 Y0.1811
G01 X4.6016 Y0.1766
G01 X4.6124 Y0.1715
G01 X4.6208 Y0.1683
G01 X4.6323 Y0.1652
G01 X4.6441 Y0.1631
G00 Z2.0000
G00 X3.8441 Y0.1631
G01 F50.00
G01 Z-0.1000
G01 F100.00
G01 X3.8590 Y0.1622
G01 X4.4090 Y0.1622
G01 X4.4239 Y0.1631
G01 X4.4386 Y0.1659
G01 X4.4472 Y0.1683
G01 X4.4556 Y0.1715
G01 X4.4638 Y0.1752
G01 X4.4716 Y0.1795
G01 X4.4791 Y0.1844
G01 X4.4863 Y0.1898
G01 X4.4930 Y0.1958
G01 X4.4992 Y0.2022
G01 X4.5086 Y0.2139
G01 X4.5135 Y0.2214
G01 X4.5178 Y0.2292
G01 X4.5215 Y0.2374
G01 X4.5247 Y0.2458
G01 X4.5271 Y0.2544
G01 X4.5290 Y0.2632
G01 X4.5305 Y0.2750
G01 X4.5308 Y0.2840
G01 X4.5307 Y1.8900
G01 X4.5299 Y1.8989
G01 X4.5285 Y1.9078
G01 X4.5264 Y1.9165
G01 X4.5237 Y1.9250
G01 X4.5204 Y1.9334
G01 X4.5164 Y1.9414
G01 X4.5119 Y1.9492
G01 X4.5050 Y1.9589
G01 X4.4992 Y1.9658
G01 X4.4930 Y1.9722
G01 X4.4863 Y1.9782
G01 X4.4791 Y1.9836
G01 X4.4716 Y1.9885
G01 X4.4638 Y1.9928
G01 X4.4556 Y1.9965
G01 X4.4472 Y1.9997
G01 X4.4357 Y2.0028
G01 X4.4269 Y2.0045
G01 X4.4180 Y2.0055
G01 X4.4090 Y2.0058
G01 X3.8590 Y2.0058
G01 X3.8471 Y2.0052
G01 X3.8382 Y2.0040
G01 X3.8294 Y2.0021
G01 X3.8208 Y1.9997
G01 X3.8124 Y1.9965
G01 X3.8042 Y1.9928
G01 X3.7964 Y1.9885
G01 X3.7889 Y1.9836
G01 X3.7817 Y1.9782
G01 X3.7750 Y1.9722
G01 X3.7688 Y1.9658
G01 X3.7594 Y1.9541
G01 X3.7545 Y1.9466
G01 X3.7502 Y1.9388
G01 X3.7465 Y1.9306
G01 X3.7433 Y1.9222
G01 X3.7409 Y1.9136
G01 X3.7390 Y1.9048
G01 X3.7375 Y1.8930
G01 X3.7372 Y1.8840
G01 X3.7373 Y0.2780
G01 X3.7381 Y0.2691
G01 X3.7402 Y0.2573
G01 X3.7424 Y0.2486
G01 X3.7465 Y0.2374
G01 X3.7516 Y0.2266
G01 X3.7561 Y0.2188
G01 X3.7630 Y0.2091
G01 X3.7688 Y0.2022
G01 X3.7750 Y0.1958
G01 X3.7841 Y0.1880
G01 X3.7938 Y0.1811
G01 X3.8042 Y0.1752
G01 X3.8124 Y0.1715
G01 X3.8236 Y0.1674
G01 X3.8323 Y0.1652
G01 X3.8441 Y0.1631
G00 Z2.0000
G00 X3.8292 Y0.0422
G01 F50.00
G01 Z-0.1000
G01 F100.00
G01 X3.8470 Y0.0407
G01 X3.8590 Y0.0404
G01 X4.4090 Y0.0404
G01 X4.4210 Y0.0407
G01 X4.4388 Y0.0422
G01 X4.4506 Y0.0440
G01 X4.4624 Y0.0463
G01 X4.4797 Y0.0509
G01 X4.4911 Y0.0546
G01 X4.5077 Y0.0613
G01 X4.5185 Y0.0664
G01 X4.5340 Y0.0749
G01 X4.5495 Y0.0664
G01 X4.5658 Y0.0589
G01 X4.5826 Y0.0527
G01 X4.5940 Y0.0492
G01 X4.6056 Y0.0463
G01 X4.6233 Y0.0430
G01 X4.6411 Y0.0411
G01 X4.6590 Y0.0404
G01 X5.2090 Y0.0404
G01 X5.2210 Y0.0407
G01 X5.2388 Y0.0422
G01 X5.2506 Y0.0440
G01 X5.2624 Y0.0463
G01 X5.2797 Y0.0509
G01 X5.2911 Y0.0546
G01 X5.3077 Y0.0613
G01 X5.3185 Y0.0664
G01 X5.3340 Y0.0749
G01 X5.3495 Y0.0664
G01 X5.3658 Y0.0589
G01 X5.3826 Y0.0527
G01 X5.3940 Y0.0492
G01 X5.4056 Y0.0463
G01 X5.4233 Y0.0430
G01 X5.4411 Y0.0411
G01 X5.4590 Y0.0404
G01 X6.0090 Y0.0404
G01 X6.0210 Y0.0407
G01 X6.0388 Y0.0422
G01 X6.0506 Y0.0440
G01 X6.0624 Y0.0463
G01 X6.0797 Y0.0509
G01 X6.0911 Y0.0546
G01 X6.1077 Y0.0613
G01 X6.1185 Y0.0664
G01 X6.1340 Y0.0749
G01 X6.1495 Y0.0664
G01 X6.1658 Y0.0589
G01 X6.1826 Y0.0527
G01 X6.1940 Y0.0492
G01 X6.2056 Y0.0463
G01 X6.2233 Y0.0430
G01 X6.2411 Y0.0411
G01 X6.2590 Y0.0404
G01 X6.8090 Y0.0404
G01 X6.8210 Y0.0407
G01 X6.8388 Y0.0422
G01 X6.8506 Y0.0440
G01 X6.8624 Y0.0463
G01 X6.8797 Y0.0509
G01 X6.8911 Y0.0546
G01 X6.9077 Y0.0613
G01 X6.9185 Y0.0664
G01 X6.9340 Y0.0749
G01 X6.9495 Y0.0664
G01 X6.9658 Y0.0589
G01 X6.9826 Y0.0527
G01 X6.9940 Y0.0492
G01 X7.0056 Y0.0463
G01 X7.0233 Y0.0430
G01 X7.0411 Y0.0411
G01 X7.0590 Y0.0404
G01 X7.6090 Y0.0404
G01 X7.6210 Y0.0407
G01 X7.6388 Y0.0422
G01 X7.6506 Y0.0440
G01 X7.6624 Y0.0463
G01 X7.6797 Y0.0509
G01 X7.6911 Y0.0546
G01 X7.7077 Y0.0613
G01 X7.7185 Y0.0664
G01 X7.7340 Y0.0749
G01 X7.7495 Y0.0664
G01 X7.7658 Y0.0589
G01 X7.7769 Y0.0546
G01 X7.7940 Y0.0492
G01 X7.8115 Y0.0451
G01 X7.8233 Y0.0430
G01 X7.8351 Y0.0416
G01 X7.8530 Y0.0405
G01 X8.4150 Y0.0405
G01 X8.4269 Y0.0411
G01 X8.4388 Y0.0422
G01 X8.4506 Y0.0440
G01 X8.4624 Y0.0463
G01 X8.4797 Y0.0509
G01 X8.4911 Y0.0546
G01 X8.5022 Y0.0589
G01 X8.5185 Y0.0664
G01 X8.5342 Y0.0751
G01 X8.5493 Y0.0848
G01 X8.5635 Y0.0957
G01 X8.5726 Y0.1035
G01 X8.5854 Y0.1160
G01 X8.5973 Y0.1295
G01 X8.6082 Y0.1437
G01 X8.6179 Y0.1588
G01 X8.6266 Y0.1745
G01 X8.6341 Y0.1908
G01 X8.6384 Y0.2019
G01 X8.6438 Y0.2190
G01 X8.6467 Y0.2306
G01 X8.6500 Y0.2483
G01 X8.6519 Y0.2661
G01 X8.6526 Y0.2840
G01 X8.6526 Y1.8840
G01 X8.6523 Y1.8960
G01 X8.6514 Y1.9079
G01 X8.6500 Y1.9197
G01 X8.6479 Y1.9315
G01 X8.6453 Y1.9432
G01 X8.6421 Y1.9547
G01 X8.6384 Y1.9661
G01 X8.6341 Y1.9772
G01 X8.6266 Y1.9935
G01 X8.6179 Y2.0092
G01 X8.6082 Y2.0243
G01 X8.5973 Y2.0385
G01 X8.5854 Y2.0520
G01 X8.5726 Y2.0645
G01 X8.5589 Y2.0760
G01 X8.5443 Y2.0865
G01 X8.5291 Y2.0960
G01 X8.5132 Y2.1042
G01 X8.4967 Y2.1113
G01 X8.4797 Y2.1171
G01 X8.4624 Y2.1217
G01 X8.4447 Y2.1250
G01 X8.4269 Y2.1269
G01 X8.4150 Y2.1275
G01 X7.8590 Y2.1276
G01 X7.8470 Y2.1273
G01 X7.8351 Y2.1264
G01 X7.8174 Y2.1240
G01 X7.7998 Y2.1203
G01 X7.7883 Y2.1171
G01 X7.7769 Y2.1134
G01 X7.7603 Y2.1067
G01 X7.7495 Y2.1016
G01 X7.7340 Y2.0931
G01 X7.7185 Y2.1016
G01 X7.7022 Y2.1091
G01 X7.6854 Y2.1153
G01 X7.6740 Y2.1188
G01 X7.6624 Y2.1217
G01 X7.6447 Y2.1250
G01 X7.6269 Y2.1269
G01 X7.6150 Y2.1275
G01 X7.0590 Y2.1276
G01 X7.0470 Y2.1273
G01 X7.0351 Y2.1264
G01 X7.0174 Y2.1240
G01 X6.9998 Y2.1203
G01 X6.9883 Y2.1171
G01 X6.9769 Y2.1134
G01 X6.9603 Y2.1067
G01 X6.9495 Y2.1016
G01 X6.9340 Y2.0931
G01 X6.9185 Y2.1016
G01 X6.9077 Y2.1067
G01 X6.8967 Y2.1113
G01 X6.8797 Y2.1171
G01 X6.8624 Y2.1217
G01 X6.8506 Y2.1240
G01 X6.8388 Y2.1258
G01 X6.8210 Y2.1273
G01 X6.8090 Y2.1276
G01 X6.2530 Y2.1275
G01 X6.2411 Y2.1269
G01 X6.2233 Y2.1250
G01 X6.2115 Y2.1229
G01 X6.1940 Y2.1188
G01 X6.1826 Y2.1153
G01 X6.1658 Y2.1091
G01 X6.1495 Y2.1016
G01 X6.1340 Y2.0931
G01 X6.1185 Y2.1016
G01 X6.1077 Y2.1067
G01 X6.0967 Y2.1113
G01 X6.0797 Y2.1171
G01 X6.0624 Y2.1217
G01 X6.0506 Y2.1240
G01 X6.0388 Y2.1258
G01 X6.0210 Y2.1273
G01 X6.0090 Y2.1276
G01 X5.4590 Y2.1276
G01 X5.4411 Y2.1269
G01 X5.4233 Y2.1250
G01 X5.4115 Y2.1229
G01 X5.3940 Y2.1188
G01 X5.3826 Y2.1153
G01 X5.3658 Y2.1091
G01 X5.3495 Y2.1016
G01 X5.3340 Y2.0931
G01 X5.3185 Y2.1016
G01 X5.3077 Y2.1067
G01 X5.2967 Y2.1113
G01 X5.2797 Y2.1171
G01 X5.2624 Y2.1217
G01 X5.2506 Y2.1240
G01 X5.2388 Y2.1258
G01 X5.2210 Y2.1273
G01 X5.2090 Y2.1276
G01 X4.6590 Y2.1276
G01 X4.6411 Y2.1269
G01 X4.6233 Y2.1250
G01 X4.6115 Y2.1229
G01 X4.5940 Y2.1188
G01 X4.5826 Y2.1153
G01 X4.5658 Y2.1091
G01 X4.5495 Y2.1016
G01 X4.5340 Y2.0931
G01 X4.5185 Y2.1016
G01 X4.5077 Y2.1067
G01 X4.4967 Y2.1113
G01 X4.4797 Y2.1171
G01 X4.4624 Y2.1217
G01 X4.4506 Y2.1240
G01 X4.4388 Y2.1258
G01 X4.4210 Y2.1273
G01 X4.4090 Y2.1276
G01 X3.8590 Y2.1276
G01 X3.8411 Y2.1269
G01 X3.8233 Y2.1250
G01 X3.8115 Y2.1229
G01 X3.7940 Y2.1188
G01 X3.7826 Y2.1153
G01 X3.7658 Y2.1091
G01 X3.7495 Y2.1016
G01 X3.7340 Y2.0931
G01 X3.7185 Y2.1016
G01 X3.7077 Y2.1067
G01 X3.6911 Y2.1134
G01 X3.6797 Y2.1171
G01 X3.6624 Y2.1217
G01 X3.6506 Y2.1240
G01 X3.6329 Y2.1264
G01 X3.6210 Y2.1273
G01 X3.6090 Y2.1276
G01 X3.0590 Y2.1276
G01 X3.0411 Y2.1269
G01 X3.0233 Y2.1250
G01 X3.0115 Y2.1229
G01 X2.9940 Y2.1188
G01 X2.9826 Y2.1153
G01 X2.9658 Y2.1091
G01 X2.9495 Y2.1016
G01 X2.9340 Y2.0931
G01 X2.9185 Y2.1016
G01 X2.9077 Y2.1067
G01 X2.8911 Y2.1134
G01 X2.8797 Y2.1171
G01 X2.8624 Y2.1217
G01 X2.8506 Y2.1240
G01 X2.8329 Y2.1264
G01 X2.8210 Y2.1273
G01 X2.8090 Y2.1276
G01 X2.2590 Y2.1276
G01 X2.2470 Y2.1273
G01 X2.2351 Y2.1264
G01 X2.2233 Y2.1250
G01 X2.2115 Y2.1229
G01 X2.1940 Y2.1188
G01 X2.1826 Y2.1153
G01 X2.1713 Y2.1113
G01 X2.1548 Y2.1042
G01 X2.1442 Y2.0988
G01 X2.1338 Y2.0929
G01 X2.1187 Y2.0832
G01 X2.1091 Y2.0760
G01 X2.0999 Y2.0685
G01 X2.0910 Y2.0604
G01 X2.0785 Y2.0476
G01 X2.0707 Y2.0385
G01 X2.0633 Y2.0291
G01 X2.0565 Y2.0193
G01 X2.0501 Y2.0092
G01 X2.0442 Y1.9988
G01 X2.0388 Y1.9882
G01 X2.0339 Y1.9772
G01 X2.0296 Y1.9661
G01 X2.0242 Y1.9490
G01 X2.0213 Y1.9374
G01 X2.0190 Y1.9256
G01 X2.0172 Y1.9138
G01 X2.0161 Y1.9019
G01 X2.0155 Y1.8900
G01 X2.0155 Y0.2780
G01 X2.0166 Y0.2601
G01 X2.0180 Y0.2483
G01 X2.0201 Y0.2365
G01 X2.0227 Y0.2248
G01 X2.0259 Y0.2133
G01 X2.0317 Y0.1963
G01 X2.0388 Y0.1798
G01 X2.0442 Y0.1692
G01 X2.0501 Y0.1588
G01 X2.0598 Y0.1437
G01 X2.0670 Y0.1341
G01 X2.0745 Y0.1249
G01 X2.0826 Y0.1160
G01 X2.0910 Y0.1076
G01 X2.0999 Y0.0995
G01 X2.1091 Y0.0920
G01 X2.1187 Y0.0848
G01 X2.1287 Y0.0782
G01 X2.1389 Y0.0720
G01 X2.1495 Y0.0664
G01 X2.1603 Y0.0613
G01 X2.1713 Y0.0567
G01 X2.1826 Y0.0527
G01 X2.1940 Y0.0492
G01 X2.2056 Y0.0463
G01 X2.2174 Y0.0440
G01 X2.2292 Y0.0422
G01 X2.2470 Y0.0407
G01 X2.2590 Y0.0404
G01 X2.8090 Y0.0404
G01 X2.8210 Y0.0407
G01 X2.8329 Y0.0416
G01 X2.8506 Y0.0440
G01 X2.8682 Y0.0477
G01 X2.8797 Y0.0509
G01 X2.8967 Y0.0567
G01 X2.9077 Y0.0613
G01 X2.9185 Y0.0664
G01 X2.9340 Y0.0749
G01 X2.9495 Y0.0664
G01 X2.9658 Y0.0589
G01 X2.9769 Y0.0546
G01 X2.9940 Y0.0492
G01 X3.0115 Y0.0451
G01 X3.0233 Y0.0430
G01 X3.0351 Y0.0416
G01 X3.0530 Y0.0405
G01 X3.6090 Y0.0404
G01 X3.6210 Y0.0407
G01 X3.6329 Y0.0416
G01 X3.6506 Y0.0440
G01 X3.6682 Y0.0477
G01 X3.6797 Y0.0509
G01 X3.6967 Y0.0567
G01 X3.7077 Y0.0613
G01 X3.7185 Y0.0664
G01 X3.7340 Y0.0749
G01 X3.7495 Y0.0664
G01 X3.7603 Y0.0613
G01 X3.7713 Y0.0567
G01 X3.7826 Y0.0527
G01 X3.7940 Y0.0492
G01 X3.8056 Y0.0463
G01 X3.8174 Y0.0440
G01 X3.8292 Y0.0422
G00 Z2.0000
G00 X3.0441 Y0.1631
G01 F50.00
G01 Z-0.1000
G01 F100.00
G01 X3.0590 Y0.1622
G01 X3.6090 Y0.1622
G01 X3.6239 Y0.1631
G01 X3.6328 Y0.1645
G01 X3.6415 Y0.1666
G01 X3.6500 Y0.1693
G01 X3.6584 Y0.1726
G01 X3.6716 Y0.1795
G01 X3.6791 Y0.1844
G01 X3.6863 Y0.1898
G01 X3.6930 Y0.1958
G01 X3.6992 Y0.2022
G01 X3.7086 Y0.2139
G01 X3.7135 Y0.2214
G01 X3.7178 Y0.2292
G01 X3.7215 Y0.2374
G01 X3.7247 Y0.2458
G01 X3.7271 Y0.2544
G01 X3.7295 Y0.2661
G01 X3.7305 Y0.2750
G01 X3.7308 Y0.2840
G01 X3.7307 Y1.8900
G01 X3.7299 Y1.8989
G01 X3.7285 Y1.9078
G01 X3.7264 Y1.9165
G01 X3.7237 Y1.9250
G01 X3.7204 Y1.9334
G01 X3.7164 Y1.9414
G01 X3.7119 Y1.9492
G01 X3.7068 Y1.9566
G01 X3.6992 Y1.9658
G01 X3.6930 Y1.9722
G01 X3.6863 Y1.9782
G01 X3.6791 Y1.9836
G01 X3.6716 Y1.9885
G01 X3.6638 Y1.9928
G01 X3.6556 Y1.9965
G01 X3.6472 Y1.9997
G01 X3.6357 Y2.0028
G01 X3.6269 Y2.0045
G01 X3.6180 Y2.0055
G01 X3.6090 Y2.0058
G01 X3.0590 Y2.0058
G01 X3.0471 Y2.0052
G01 X3.0382 Y2.0040
G01 X3.0294 Y2.0021
G01 X3.0208 Y1.9997
G01 X3.0124 Y1.9965
G01 X3.0042 Y1.9928
G01 X2.9964 Y1.9885
G01 X2.9889 Y1.9836
G01 X2.9817 Y1.9782
G01 X2.9750 Y1.9722
G01 X2.9688 Y1.9658
G01 X2.9594 Y1.9541
G01 X2.9545 Y1.9466
G01 X2.9502 Y1.9388
G01 X2.9465 Y1.9306
G01 X2.9433 Y1.9222
G01 X2.9409 Y1.9136
G01 X2.9390 Y1.9048
G01 X2.9375 Y1.8930
G01 X2.9372 Y1.8840
G01 X2.9373 Y0.2780
G01 X2.9381 Y0.2691
G01 X2.9402 Y0.2573
G01 X2.9424 Y0.2486
G01 X2.9465 Y0.2374
G01 X2.9516 Y0.2266
G01 X2.9561 Y0.2188
G01 X2.9630 Y0.2091
G01 X2.9688 Y0.2022
G01 X2.9750 Y0.1958
G01 X2.9841 Y0.1880
G01 X2.9938 Y0.1811
G01 X3.0042 Y0.1752
G01 X3.0124 Y0.1715
G01 X3.0236 Y0.1674
G01 X3.0323 Y0.1652
G01 X3.0441 Y0.1631
G00 Z2.0000
G00 X2.2441 Y0.1631
G01 F50.00
G01 Z-0.1000
G01 F100.00
G01 X2.2590 Y0.1622
G01 X2.8090 Y0.1622
G01 X2.8239 Y0.1631
G01 X2.8328 Y0.1645
G01 X2.8415 Y0.1666
G01 X2.8500 Y0.1693
G01 X2.8584 Y0.1726
G01 X2.8716 Y0.1795
G01 X2.8791 Y0.1844
G01 X2.8863 Y0.1898
G01 X2.8930 Y0.1958
G01 X2.8992 Y0.2022
G01 X2.9086 Y0.2139
G01 X2.9135 Y0.2214
G01 X2.9178 Y0.2292
G01 X2.9215 Y0.2374
G01 X2.9247 Y0.2458
G01 X2.9271 Y0.2544
G01 X2.9295 Y0.2661
G01 X2.9305 Y0.2750
G01 X2.9308 Y0.2840
G01 X2.9307 Y1.8900
G01 X2.9299 Y1.8989
G01 X2.9285 Y1.9078
G01 X2.9264 Y1.9165
G01 X2.9237 Y1.9250
G01 X2.9204 Y1.9334
G01 X2.9164 Y1.9414
G01 X2.9119 Y1.9492
G01 X2.9068 Y1.9566
G01 X2.8992 Y1.9658
G01 X2.8930 Y1.9722
G01 X2.8863 Y1.9782
G01 X2.8791 Y1.9836
G01 X2.8716 Y1.9885
G01 X2.8638 Y1.9928
G01 X2.8556 Y1.9965
G01 X2.8472 Y1.9997
G01 X2.8357 Y2.0028
G01 X2.8269 Y2.0045
G01 X2.8180 Y2.0055
G01 X2.8090 Y2.0058
G01 X2.2590 Y2.0058
G01 X2.2471 Y2.0052
G01 X2.2382 Y2.0040
G01 X2.2294 Y2.0021
G01 X2.2208 Y1.9997
G01 X2.2124 Y1.9965
G01 X2.2042 Y1.9928
G01 X2.1964 Y1.9885
G01 X2.1889 Y1.9836
G01 X2.1817 Y1.9782
G01 X2.1750 Y1.9722
G01 X2.1688 Y1.9658
G01 X2.1594 Y1.9541
G01 X2.1545 Y1.9466
G01 X2.1502 Y1.9388
G01 X2.1465 Y1.9306
G01 X2.1433 Y1.9222
G01 X2.1409 Y1.9136
G01 X2.1390 Y1.9048
G01 X2.1375 Y1.8930
G01 X2.1372 Y1.8840
G01 X2.1373 Y0.2780
G01 X2.1381 Y0.2691
G01 X2.1402 Y0.2573
G01 X2.1424 Y0.2486
G01 X2.1465 Y0.2374
G01 X2.1516 Y0.2266
G01 X2.1561 Y0.2188
G01 X2.1630 Y0.2091
G01 X2.1688 Y0.2022
G01 X2.1750 Y0.1958
G01 X2.1841 Y0.1880
G01 X2.1938 Y0.1811
G01 X2.2042 Y0.1752
G01 X2.2124 Y0.1715
G01 X2.2236 Y0.1674
G01 X2.2323 Y0.1652
G01 X2.2441 Y0.1631
G00 Z2.0000
M05
G00 Z2.0000
G00 Z2.00
G00 X0.0 Y0.0


